(G-CODE GENERATED BY FLATCAM v8.994 - www.flatcam.org - Version Date: 2020/11/7)

(Name: Mainboard-PTH.drl_1_cnc)
(Type: G-code from Geometry)
(Units: MM)

(Created on Thursday, 22 February 2024 at 23:32)

(This preprocessor is used with a motion controller loaded with GRBL firmware.)
(It is configured to be compatible with almost any version of GRBL firmware.)


(TOOLS DIAMETER: )
(Tool: 1 -> Dia: 0.6)
(Tool: 2 -> Dia: 0.762)
(Tool: 3 -> Dia: 0.8)
(Tool: 4 -> Dia: 0.9)
(Tool: 5 -> Dia: 1.0)
(Tool: 6 -> Dia: 1.02)
(Tool: 7 -> Dia: 1.1)

(FEEDRATE Z: )
(Tool: 1 -> Feedrate: 300)
(Tool: 2 -> Feedrate: 300)
(Tool: 3 -> Feedrate: 300)
(Tool: 4 -> Feedrate: 300)
(Tool: 5 -> Feedrate: 300)
(Tool: 6 -> Feedrate: 300)
(Tool: 7 -> Feedrate: 300)

(FEEDRATE RAPIDS: )
(Tool: 1 -> Feedrate Rapids: 1500)
(Tool: 2 -> Feedrate Rapids: 1500)
(Tool: 3 -> Feedrate Rapids: 1500)
(Tool: 4 -> Feedrate Rapids: 1500)
(Tool: 5 -> Feedrate Rapids: 1500)
(Tool: 6 -> Feedrate Rapids: 1500)
(Tool: 7 -> Feedrate Rapids: 1500)

(Z_CUT: )
(Tool: 1 -> Z_Cut: -1.7)
(Tool: 2 -> Z_Cut: -1.7)
(Tool: 3 -> Z_Cut: -1.7)
(Tool: 4 -> Z_Cut: -1.7)
(Tool: 5 -> Z_Cut: -1.7)
(Tool: 6 -> Z_Cut: -1.7)
(Tool: 7 -> Z_Cut: -1.7)

(Tools Offset: )
(Tool: 1 -> Offset Z: 0.0)
(Tool: 2 -> Offset Z: 0.0)
(Tool: 3 -> Offset Z: 0.0)
(Tool: 4 -> Offset Z: 0.0)
(Tool: 5 -> Offset Z: 0.0)
(Tool: 6 -> Offset Z: 0.0)
(Tool: 7 -> Offset Z: 0.0)

(Z_MOVE: )
(Tool: 1 -> Z_Move: 2.0)
(Tool: 2 -> Z_Move: 2.0)
(Tool: 3 -> Z_Move: 2.0)
(Tool: 4 -> Z_Move: 2.0)
(Tool: 5 -> Z_Move: 2.0)
(Tool: 6 -> Z_Move: 2.0)
(Tool: 7 -> Z_Move: 2.0)

(Z Toolchange: 15 mm)
(X,Y Toolchange: 0.0000, 0.0000 mm)
(Z Start: None mm)
(Z End: 0.5 mm)
(X,Y End: None mm)
(Steps per circle: 64)
(Steps per circle: 64)
(Preprocessor Excellon: grbl_11)

(X range:    0.6250 ...   68.3450  mm)
(Y range:    2.1900 ...   97.9600  mm)

(Spindle Speed: 0 RPM)
G21
G90
G17
G94


G01 F300.00

M5             
G00 Z15.0000
G00 X0.0000 Y0.0000                
T1
M6
(MSG, Change to Tool Dia = 0.6000 ||| Total drills for tool T1 = 171)
M0
G00 Z15.0000

G01 F300.00
M03
G00 X67.0560 Y68.1100
G01 Z-1.7000
G01 Z0
G00 Z2.0000
G00 X67.0560 Y66.1100
G01 Z-1.7000
G01 Z0
G00 Z2.0000
G00 X67.0560 Y64.1100
G01 Z-1.7000
G01 Z0
G00 Z2.0000
G00 X67.0560 Y62.1100
G01 Z-1.7000
G01 Z0
G00 Z2.0000
G00 X67.0560 Y60.1100
G01 Z-1.7000
G01 Z0
G00 Z2.0000
G00 X67.0560 Y58.1100
G01 Z-1.7000
G01 Z0
G00 Z2.0000
G00 X67.0560 Y56.1100
G01 Z-1.7000
G01 Z0
G00 Z2.0000
G00 X67.0560 Y54.1100
G01 Z-1.7000
G01 Z0
G00 Z2.0000
G00 X57.1500 Y50.3150
G01 Z-1.7000
G01 Z0
G00 Z2.0000
G00 X54.6100 Y50.3150
G01 Z-1.7000
G01 Z0
G00 Z2.0000
G00 X52.0700 Y50.3150
G01 Z-1.7000
G01 Z0
G00 Z2.0000
G00 X49.5300 Y50.3150
G01 Z-1.7000
G01 Z0
G00 Z2.0000
G00 X46.9900 Y50.3150
G01 Z-1.7000
G01 Z0
G00 Z2.0000
G00 X44.4500 Y50.3150
G01 Z-1.7000
G01 Z0
G00 Z2.0000
G00 X41.9100 Y50.3150
G01 Z-1.7000
G01 Z0
G00 Z2.0000
G00 X39.3700 Y50.3150
G01 Z-1.7000
G01 Z0
G00 Z2.0000
G00 X26.6700 Y27.4550
G01 Z-1.7000
G01 Z0
G00 Z2.0000
G00 X29.2100 Y27.4550
G01 Z-1.7000
G01 Z0
G00 Z2.0000
G00 X31.7500 Y27.4550
G01 Z-1.7000
G01 Z0
G00 Z2.0000
G00 X34.2900 Y27.4550
G01 Z-1.7000
G01 Z0
G00 Z2.0000
G00 X36.8300 Y27.4550
G01 Z-1.7000
G01 Z0
G00 Z2.0000
G00 X39.3700 Y27.4550
G01 Z-1.7000
G01 Z0
G00 Z2.0000
G00 X41.9100 Y27.4550
G01 Z-1.7000
G01 Z0
G00 Z2.0000
G00 X44.4500 Y27.4550
G01 Z-1.7000
G01 Z0
G00 Z2.0000
G00 X46.9900 Y27.4550
G01 Z-1.7000
G01 Z0
G00 Z2.0000
G00 X49.5300 Y27.4550
G01 Z-1.7000
G01 Z0
G00 Z2.0000
G00 X52.0700 Y27.4550
G01 Z-1.7000
G01 Z0
G00 Z2.0000
G00 X54.6100 Y27.4550
G01 Z-1.7000
G01 Z0
G00 Z2.0000
G00 X57.1500 Y27.4550
G01 Z-1.7000
G01 Z0
G00 Z2.0000
G00 X60.9600 Y24.2800
G01 Z-1.7000
G01 Z0
G00 Z2.0000
G00 X64.1350 Y24.2800
G01 Z-1.7000
G01 Z0
G00 Z2.0000
G00 X67.9450 Y24.2800
G01 Z-1.7000
G01 Z0
G00 Z2.0000
G00 X67.9450 Y16.6600
G01 Z-1.7000
G01 Z0
G00 Z2.0000
G00 X64.1350 Y16.6600
G01 Z-1.7000
G01 Z0
G00 Z2.0000
G00 X60.9600 Y6.5000
G01 Z-1.7000
G01 Z0
G00 Z2.0000
G00 X59.0500 Y2.6900
G01 Z-1.7000
G01 Z0
G00 Z2.0000
G00 X56.5100 Y2.6900
G01 Z-1.7000
G01 Z0
G00 Z2.0000
G00 X50.1700 Y2.6900
G01 Z-1.7000
G01 Z0
G00 Z2.0000
G00 X47.6300 Y2.6900
G01 Z-1.7000
G01 Z0
G00 Z2.0000
G00 X40.0050 Y2.6900
G01 Z-1.7000
G01 Z0
G00 Z2.0000
G00 X37.4650 Y2.6900
G01 Z-1.7000
G01 Z0
G00 Z2.0000
G00 X29.8450 Y2.6900
G01 Z-1.7000
G01 Z0
G00 Z2.0000
G00 X27.3050 Y2.6900
G01 Z-1.7000
G01 Z0
G00 Z2.0000
G00 X20.3200 Y6.5000
G01 Z-1.7000
G01 Z0
G00 Z2.0000
G00 X16.5100 Y5.8650
G01 Z-1.7000
G01 Z0
G00 Z2.0000
G00 X16.5100 Y8.4050
G01 Z-1.7000
G01 Z0
G00 Z2.0000
G00 X16.5100 Y10.9450
G01 Z-1.7000
G01 Z0
G00 Z2.0000
G00 X17.1450 Y14.6280
G01 Z-1.7000
G01 Z0
G00 Z2.0000
G00 X12.7000 Y10.9300
G01 Z-1.7000
G01 Z0
G00 Z2.0000
G00 X12.7000 Y8.3900
G01 Z-1.7000
G01 Z0
G00 Z2.0000
G00 X12.7000 Y5.8500
G01 Z-1.7000
G01 Z0
G00 Z2.0000
G00 X8.8900 Y5.8500
G01 Z-1.7000
G01 Z0
G00 Z2.0000
G00 X8.8900 Y8.3900
G01 Z-1.7000
G01 Z0
G00 Z2.0000
G00 X8.8900 Y10.9300
G01 Z-1.7000
G01 Z0
G00 Z2.0000
G00 X1.9050 Y14.6280
G01 Z-1.7000
G01 Z0
G00 Z2.0000
G00 X1.9050 Y23.7720
G01 Z-1.7000
G01 Z0
G00 Z2.0000
G00 X3.8100 Y31.2650
G01 Z-1.7000
G01 Z0
G00 Z2.0000
G00 X6.3500 Y31.2650
G01 Z-1.7000
G01 Z0
G00 Z2.0000
G00 X8.8900 Y31.2650
G01 Z-1.7000
G01 Z0
G00 Z2.0000
G00 X11.4300 Y31.2650
G01 Z-1.7000
G01 Z0
G00 Z2.0000
G00 X13.9700 Y31.2650
G01 Z-1.7000
G01 Z0
G00 Z2.0000
G00 X13.9750 Y27.4550
G01 Z-1.7000
G01 Z0
G00 Z2.0000
G00 X17.1450 Y23.7720
G01 Z-1.7000
G01 Z0
G00 Z2.0000
G00 X20.3200 Y24.2800
G01 Z-1.7000
G01 Z0
G00 Z2.0000
G00 X16.5150 Y27.4550
G01 Z-1.7000
G01 Z0
G00 Z2.0000
G00 X16.5100 Y31.2650
G01 Z-1.7000
G01 Z0
G00 Z2.0000
G00 X3.8100 Y46.5050
G01 Z-1.7000
G01 Z0
G00 Z2.0000
G00 X6.3500 Y46.5050
G01 Z-1.7000
G01 Z0
G00 Z2.0000
G00 X8.8900 Y46.5050
G01 Z-1.7000
G01 Z0
G00 Z2.0000
G00 X11.4300 Y46.5050
G01 Z-1.7000
G01 Z0
G00 Z2.0000
G00 X13.9700 Y46.5050
G01 Z-1.7000
G01 Z0
G00 Z2.0000
G00 X16.5100 Y46.5050
G01 Z-1.7000
G01 Z0
G00 Z2.0000
G00 X13.9750 Y50.3150
G01 Z-1.7000
G01 Z0
G00 Z2.0000
G00 X11.4350 Y50.3150
G01 Z-1.7000
G01 Z0
G00 Z2.0000
G00 X6.3500 Y54.1250
G01 Z-1.7000
G01 Z0
G00 Z2.0000
G00 X6.3500 Y56.6650
G01 Z-1.7000
G01 Z0
G00 Z2.0000
G00 X2.5400 Y56.0350
G01 Z-1.7000
G01 Z0
G00 Z2.0000
G00 X2.5400 Y58.5750
G01 Z-1.7000
G01 Z0
G00 Z2.0000
G00 X6.3500 Y59.2050
G01 Z-1.7000
G01 Z0
G00 Z2.0000
G00 X6.3500 Y61.7450
G01 Z-1.7000
G01 Z0
G00 Z2.0000
G00 X2.5400 Y62.3800
G01 Z-1.7000
G01 Z0
G00 Z2.0000
G00 X2.5400 Y64.9200
G01 Z-1.7000
G01 Z0
G00 Z2.0000
G00 X6.3500 Y64.2850
G01 Z-1.7000
G01 Z0
G00 Z2.0000
G00 X6.3500 Y66.8250
G01 Z-1.7000
G01 Z0
G00 Z2.0000
G00 X0.9250 Y76.6320
G01 Z-1.7000
G01 Z0
G00 Z2.0000
G00 X2.9250 Y76.6320
G01 Z-1.7000
G01 Z0
G00 Z2.0000
G00 X4.9250 Y76.6320
G01 Z-1.7000
G01 Z0
G00 Z2.0000
G00 X6.9250 Y76.6320
G01 Z-1.7000
G01 Z0
G00 Z2.0000
G00 X8.9250 Y76.6320
G01 Z-1.7000
G01 Z0
G00 Z2.0000
G00 X10.9250 Y76.6320
G01 Z-1.7000
G01 Z0
G00 Z2.0000
G00 X12.9250 Y76.6320
G01 Z-1.7000
G01 Z0
G00 Z2.0000
G00 X14.9250 Y76.6320
G01 Z-1.7000
G01 Z0
G00 Z2.0000
G00 X18.7200 Y77.6480
G01 Z-1.7000
G01 Z0
G00 Z2.0000
G00 X21.2600 Y77.6480
G01 Z-1.7000
G01 Z0
G00 Z2.0000
G00 X23.8000 Y77.6480
G01 Z-1.7000
G01 Z0
G00 Z2.0000
G00 X26.3400 Y77.6480
G01 Z-1.7000
G01 Z0
G00 Z2.0000
G00 X21.5900 Y66.8250
G01 Z-1.7000
G01 Z0
G00 Z2.0000
G00 X21.5900 Y64.2850
G01 Z-1.7000
G01 Z0
G00 Z2.0000
G00 X21.5900 Y61.7450
G01 Z-1.7000
G01 Z0
G00 Z2.0000
G00 X21.5900 Y59.2050
G01 Z-1.7000
G01 Z0
G00 Z2.0000
G00 X21.5900 Y56.6650
G01 Z-1.7000
G01 Z0
G00 Z2.0000
G00 X21.5900 Y54.1250
G01 Z-1.7000
G01 Z0
G00 Z2.0000
G00 X26.6700 Y54.7600
G01 Z-1.7000
G01 Z0
G00 Z2.0000
G00 X26.6700 Y50.3150
G01 Z-1.7000
G01 Z0
G00 Z2.0000
G00 X29.2100 Y50.3150
G01 Z-1.7000
G01 Z0
G00 Z2.0000
G00 X31.7500 Y50.3150
G01 Z-1.7000
G01 Z0
G00 Z2.0000
G00 X34.2900 Y50.3150
G01 Z-1.7000
G01 Z0
G00 Z2.0000
G00 X36.8300 Y50.3150
G01 Z-1.7000
G01 Z0
G00 Z2.0000
G00 X36.8300 Y53.2360
G01 Z-1.7000
G01 Z0
G00 Z2.0000
G00 X34.2900 Y54.7600
G01 Z-1.7000
G01 Z0
G00 Z2.0000
G00 X34.8500 Y65.0000
G01 Z-1.7000
G01 Z0
G00 Z2.0000
G00 X28.8800 Y77.6480
G01 Z-1.7000
G01 Z0
G00 Z2.0000
G00 X31.4200 Y77.6480
G01 Z-1.7000
G01 Z0
G00 Z2.0000
G00 X33.9600 Y77.6480
G01 Z-1.7000
G01 Z0
G00 Z2.0000
G00 X33.9650 Y80.6960
G01 Z-1.7000
G01 Z0
G00 Z2.0000
G00 X36.5000 Y77.6480
G01 Z-1.7000
G01 Z0
G00 Z2.0000
G00 X39.0400 Y77.6480
G01 Z-1.7000
G01 Z0
G00 Z2.0000
G00 X41.5800 Y77.6480
G01 Z-1.7000
G01 Z0
G00 Z2.0000
G00 X44.1200 Y77.6480
G01 Z-1.7000
G01 Z0
G00 Z2.0000
G00 X46.6600 Y77.6480
G01 Z-1.7000
G01 Z0
G00 Z2.0000
G00 X49.2050 Y80.6960
G01 Z-1.7000
G01 Z0
G00 Z2.0000
G00 X33.9650 Y89.8400
G01 Z-1.7000
G01 Z0
G00 Z2.0000
G00 X0.9250 Y93.9040
G01 Z-1.7000
G01 Z0
G00 Z2.0000
G00 X2.9250 Y93.9040
G01 Z-1.7000
G01 Z0
G00 Z2.0000
G00 X4.9250 Y93.9040
G01 Z-1.7000
G01 Z0
G00 Z2.0000
G00 X6.9250 Y93.9040
G01 Z-1.7000
G01 Z0
G00 Z2.0000
G00 X8.9250 Y93.9040
G01 Z-1.7000
G01 Z0
G00 Z2.0000
G00 X10.9250 Y93.9040
G01 Z-1.7000
G01 Z0
G00 Z2.0000
G00 X12.9250 Y93.9040
G01 Z-1.7000
G01 Z0
G00 Z2.0000
G00 X14.9250 Y93.9040
G01 Z-1.7000
G01 Z0
G00 Z2.0000
G00 X18.7200 Y92.8880
G01 Z-1.7000
G01 Z0
G00 Z2.0000
G00 X21.2600 Y92.8880
G01 Z-1.7000
G01 Z0
G00 Z2.0000
G00 X23.8000 Y92.8880
G01 Z-1.7000
G01 Z0
G00 Z2.0000
G00 X26.3400 Y92.8880
G01 Z-1.7000
G01 Z0
G00 Z2.0000
G00 X28.8800 Y92.8880
G01 Z-1.7000
G01 Z0
G00 Z2.0000
G00 X31.4200 Y92.8880
G01 Z-1.7000
G01 Z0
G00 Z2.0000
G00 X33.9600 Y92.8880
G01 Z-1.7000
G01 Z0
G00 Z2.0000
G00 X36.5000 Y92.8880
G01 Z-1.7000
G01 Z0
G00 Z2.0000
G00 X39.0400 Y92.8880
G01 Z-1.7000
G01 Z0
G00 Z2.0000
G00 X41.5800 Y92.8880
G01 Z-1.7000
G01 Z0
G00 Z2.0000
G00 X44.1200 Y92.8880
G01 Z-1.7000
G01 Z0
G00 Z2.0000
G00 X46.6600 Y92.8880
G01 Z-1.7000
G01 Z0
G00 Z2.0000
G00 X49.2000 Y92.8880
G01 Z-1.7000
G01 Z0
G00 Z2.0000
G00 X49.2050 Y89.8400
G01 Z-1.7000
G01 Z0
G00 Z2.0000
G00 X51.7400 Y92.8880
G01 Z-1.7000
G01 Z0
G00 Z2.0000
G00 X54.2800 Y92.8880
G01 Z-1.7000
G01 Z0
G00 Z2.0000
G00 X56.8200 Y92.8880
G01 Z-1.7000
G01 Z0
G00 Z2.0000
G00 X54.2850 Y97.4600
G01 Z-1.7000
G01 Z0
G00 Z2.0000
G00 X56.8250 Y97.4600
G01 Z-1.7000
G01 Z0
G00 Z2.0000
G00 X59.3650 Y97.4600
G01 Z-1.7000
G01 Z0
G00 Z2.0000
G00 X61.9050 Y97.4600
G01 Z-1.7000
G01 Z0
G00 Z2.0000
G00 X59.3600 Y92.8880
G01 Z-1.7000
G01 Z0
G00 Z2.0000
G00 X61.9000 Y92.8880
G01 Z-1.7000
G01 Z0
G00 Z2.0000
G00 X64.4400 Y92.8880
G01 Z-1.7000
G01 Z0
G00 Z2.0000
G00 X66.9800 Y92.8880
G01 Z-1.7000
G01 Z0
G00 Z2.0000
G00 X66.9800 Y77.6480
G01 Z-1.7000
G01 Z0
G00 Z2.0000
G00 X64.4400 Y77.6480
G01 Z-1.7000
G01 Z0
G00 Z2.0000
G00 X61.9000 Y77.6480
G01 Z-1.7000
G01 Z0
G00 Z2.0000
G00 X59.3600 Y77.6480
G01 Z-1.7000
G01 Z0
G00 Z2.0000
G00 X56.8200 Y77.6480
G01 Z-1.7000
G01 Z0
G00 Z2.0000
G00 X54.2800 Y77.6480
G01 Z-1.7000
G01 Z0
G00 Z2.0000
G00 X51.7400 Y77.6480
G01 Z-1.7000
G01 Z0
G00 Z2.0000
G00 X49.2000 Y77.6480
G01 Z-1.7000
G01 Z0
G00 Z2.0000
G00 X49.7840 Y68.1100
G01 Z-1.7000
G01 Z0
G00 Z2.0000
G00 X49.7840 Y66.1100
G01 Z-1.7000
G01 Z0
G00 Z2.0000
G00 X49.7840 Y64.1100
G01 Z-1.7000
G01 Z0
G00 Z2.0000
G00 X49.7840 Y62.1100
G01 Z-1.7000
G01 Z0
G00 Z2.0000
G00 X49.7840 Y60.1100
G01 Z-1.7000
G01 Z0
G00 Z2.0000
G00 X49.7840 Y58.1100
G01 Z-1.7000
G01 Z0
G00 Z2.0000
G00 X49.7840 Y56.1100
G01 Z-1.7000
G01 Z0
G00 Z2.0000
G00 X49.7840 Y54.1100
G01 Z-1.7000
G01 Z0
G00 Z2.0000
M05
G00 Z0.50


