(G-CODE GENERATED BY FLATCAM v8.994 - www.flatcam.org - Version Date: 2020/11/7)

(Name: Mainboard-B_Cu.gbr_iso_combined_1_cnc)
(Type: G-code from Geometry)
(Units: MM)

(Created on Thursday, 22 February 2024 at 23:30)

(This preprocessor is used with a motion controller loaded with GRBL firmware.)
(It is configured to be compatible with almost any version of GRBL firmware.)

(TOOL DIAMETER: 0.2388 mm)
(Feedrate_XY: 120.0 mm/min)
(Feedrate_Z: 60.0 mm/min)
(Feedrate rapids 1500.0 mm/min)

(Z_Cut: -0.11 mm)
(Z_Move: 2.0 mm)
(Z Start: None mm)
(Z End: 5.0 mm)
(X,Y End: None mm)
(Steps per circle: 64)
(Steps per circle: 64)
(Preprocessor Geometry: grbl_11)

(X range:    0.4000 ...   69.3000  mm)
(Y range:    0.6000 ...   98.6958  mm)

(Spindle Speed: 0.0 RPM)
G21
G90
G17
G94


G01 F120.00

M5             
G00 Z15.0000
G00 X0.0000 Y0.0000                
T1
M6
(MSG, Change to Tool Dia = 0.2388)
M0
G00 Z15.0000

M03
G01 F120.00
G00 X5.4920 Y0.6000
G01 F60.00
G01 Z-0.1100
G01 F120.00
G01 X5.4914 Y0.6245 F120.00
G01 X5.4914 Y9.3244 F120.00
G01 X0.4745 Y9.3244 F120.00
G01 X0.4631 Y9.3245 F120.00
G01 X0.4404 Y9.3256 F120.00
G01 X0.4178 Y9.3278 F120.00
G01 X0.4000 Y9.3303 F120.00
G00 Z2.0000
G00 X5.6117 Y0.6000
G01 F60.00
G01 Z-0.1100
G01 F120.00
G01 X5.6108 Y0.6245 F120.00
G01 X5.6108 Y9.4438 F120.00
G01 X0.4745 Y9.4438 F120.00
G01 X0.4575 Y9.4442 F120.00
G01 X0.4404 Y9.4454 F120.00
G01 X0.4235 Y9.4474 F120.00
G01 X0.4000 Y9.4516 F120.00
G00 Z2.0000
G00 X5.7315 Y0.6000
G01 F60.00
G01 Z-0.1100
G01 F120.00
G01 X5.7305 Y0.6131 F120.00
G01 X5.7302 Y0.6245 F120.00
G01 X5.7302 Y9.5632 F120.00
G01 X0.4745 Y9.5632 F120.00
G01 X0.4575 Y9.5638 F120.00
G01 X0.4405 Y9.5656 F120.00
G01 X0.4293 Y9.5675 F120.00
G01 X0.4000 Y9.5738 F120.00
G00 Z2.0000
G00 X5.8521 Y0.6000
G01 F60.00
G01 Z-0.1100
G01 F120.00
G01 X5.8501 Y0.6132 F120.00
G01 X5.8496 Y0.6245 F120.00
G01 X5.8496 Y9.6826 F120.00
G01 X0.4745 Y9.6826 F120.00
G01 X0.4660 Y9.6829 F120.00
G01 X0.4547 Y9.6843 F120.00
G01 X0.4000 Y9.6960 F120.00
G00 Z2.0000
G00 X8.8783 Y7.3015
G01 F60.00
G01 Z-0.1100
G01 F120.00
G01 X8.8900 Y7.3012 F120.00
G01 X8.9017 Y7.3015 F120.00
G01 X8.9850 Y7.3056 F120.00
G01 X8.9967 Y7.3064 F120.00
G01 X9.0084 Y7.3079 F120.00
G01 X9.0909 Y7.3201 F120.00
G01 X9.1024 Y7.3221 F120.00
G01 X9.1139 Y7.3247 F120.00
G01 X9.1948 Y7.3450 F120.00
G01 X9.2061 Y7.3481 F120.00
G01 X9.2172 Y7.3518 F120.00
G01 X9.2957 Y7.3799 F120.00
G01 X9.3067 Y7.3841 F120.00
G01 X9.3174 Y7.3888 F120.00
G01 X9.3928 Y7.4245 F120.00
G01 X9.4033 Y7.4298 F120.00
G01 X9.4135 Y7.4355 F120.00
G01 X9.4850 Y7.4784 F120.00
G01 X9.4949 Y7.4847 F120.00
G01 X9.5045 Y7.4914 F120.00
G01 X9.5715 Y7.5411 F120.00
G01 X9.5807 Y7.5483 F120.00
G01 X9.5896 Y7.5560 F120.00
G01 X9.6514 Y7.6120 F120.00
G01 X9.6599 Y7.6201 F120.00
G01 X9.6680 Y7.6286 F120.00
G01 X9.7240 Y7.6904 F120.00
G01 X9.7317 Y7.6993 F120.00
G01 X9.7389 Y7.7085 F120.00
G01 X9.7886 Y7.7755 F120.00
G01 X9.7953 Y7.7851 F120.00
G01 X9.8016 Y7.7950 F120.00
G01 X9.8445 Y7.8665 F120.00
G01 X9.8502 Y7.8767 F120.00
G01 X9.8555 Y7.8872 F120.00
G01 X9.8912 Y7.9626 F120.00
G01 X9.8959 Y7.9733 F120.00
G01 X9.9001 Y7.9843 F120.00
G01 X9.9282 Y8.0628 F120.00
G01 X9.9319 Y8.0739 F120.00
G01 X9.9350 Y8.0852 F120.00
G01 X9.9553 Y8.1661 F120.00
G01 X9.9579 Y8.1776 F120.00
G01 X9.9599 Y8.1891 F120.00
G01 X9.9721 Y8.2716 F120.00
G01 X9.9736 Y8.2833 F120.00
G01 X9.9744 Y8.2950 F120.00
G01 X9.9785 Y8.3783 F120.00
G01 X9.9788 Y8.3900 F120.00
G01 X9.9785 Y8.4017 F120.00
G01 X9.9744 Y8.4850 F120.00
G01 X9.9736 Y8.4967 F120.00
G01 X9.9721 Y8.5084 F120.00
G01 X9.9599 Y8.5909 F120.00
G01 X9.9579 Y8.6024 F120.00
G01 X9.9553 Y8.6139 F120.00
G01 X9.9350 Y8.6948 F120.00
G01 X9.9319 Y8.7061 F120.00
G01 X9.9282 Y8.7172 F120.00
G01 X9.9001 Y8.7957 F120.00
G01 X9.8959 Y8.8067 F120.00
G01 X9.8912 Y8.8174 F120.00
G01 X9.8555 Y8.8928 F120.00
G01 X9.8502 Y8.9033 F120.00
G01 X9.8445 Y8.9135 F120.00
G01 X9.8016 Y8.9850 F120.00
G01 X9.7953 Y8.9949 F120.00
G01 X9.7886 Y9.0045 F120.00
G01 X9.7389 Y9.0715 F120.00
G01 X9.7317 Y9.0807 F120.00
G01 X9.7240 Y9.0896 F120.00
G01 X9.6680 Y9.1514 F120.00
G01 X9.6599 Y9.1599 F120.00
G01 X9.6514 Y9.1680 F120.00
G01 X9.5896 Y9.2240 F120.00
G01 X9.5807 Y9.2317 F120.00
G01 X9.5715 Y9.2389 F120.00
G01 X9.5045 Y9.2886 F120.00
G01 X9.4949 Y9.2953 F120.00
G01 X9.4850 Y9.3016 F120.00
G01 X9.4135 Y9.3445 F120.00
G01 X9.4033 Y9.3502 F120.00
G01 X9.3928 Y9.3555 F120.00
G01 X9.3174 Y9.3912 F120.00
G01 X9.3067 Y9.3959 F120.00
G01 X9.2957 Y9.4001 F120.00
G01 X9.2172 Y9.4282 F120.00
G01 X9.2061 Y9.4319 F120.00
G01 X9.1948 Y9.4350 F120.00
G01 X9.1139 Y9.4553 F120.00
G01 X9.1024 Y9.4579 F120.00
G01 X9.0909 Y9.4599 F120.00
G01 X9.0084 Y9.4721 F120.00
G01 X8.9967 Y9.4736 F120.00
G01 X8.9850 Y9.4744 F120.00
G01 X8.9017 Y9.4785 F120.00
G01 X8.8900 Y9.4788 F120.00
G01 X8.8783 Y9.4785 F120.00
G01 X8.7950 Y9.4744 F120.00
G01 X8.7833 Y9.4736 F120.00
G01 X8.7716 Y9.4721 F120.00
G01 X8.6891 Y9.4599 F120.00
G01 X8.6776 Y9.4579 F120.00
G01 X8.6661 Y9.4553 F120.00
G01 X8.5852 Y9.4350 F120.00
G01 X8.5739 Y9.4319 F120.00
G01 X8.5628 Y9.4282 F120.00
G01 X8.4843 Y9.4001 F120.00
G01 X8.4733 Y9.3959 F120.00
G01 X8.4626 Y9.3912 F120.00
G01 X8.3872 Y9.3555 F120.00
G01 X8.3767 Y9.3502 F120.00
G01 X8.3665 Y9.3445 F120.00
G01 X8.2950 Y9.3016 F120.00
G01 X8.2851 Y9.2953 F120.00
G01 X8.2755 Y9.2886 F120.00
G01 X8.2085 Y9.2389 F120.00
G01 X8.1993 Y9.2317 F120.00
G01 X8.1904 Y9.2240 F120.00
G01 X8.1286 Y9.1680 F120.00
G01 X8.1201 Y9.1599 F120.00
G01 X8.1120 Y9.1514 F120.00
G01 X8.0560 Y9.0896 F120.00
G01 X8.0483 Y9.0807 F120.00
G01 X8.0411 Y9.0715 F120.00
G01 X7.9914 Y9.0045 F120.00
G01 X7.9847 Y8.9949 F120.00
G01 X7.9784 Y8.9850 F120.00
G01 X7.9355 Y8.9135 F120.00
G01 X7.9298 Y8.9033 F120.00
G01 X7.9245 Y8.8928 F120.00
G01 X7.8888 Y8.8174 F120.00
G01 X7.8841 Y8.8067 F120.00
G01 X7.8799 Y8.7957 F120.00
G01 X7.8518 Y8.7172 F120.00
G01 X7.8481 Y8.7061 F120.00
G01 X7.8450 Y8.6948 F120.00
G01 X7.8247 Y8.6139 F120.00
G01 X7.8221 Y8.6024 F120.00
G01 X7.8201 Y8.5909 F120.00
G01 X7.8079 Y8.5084 F120.00
G01 X7.8064 Y8.4967 F120.00
G01 X7.8056 Y8.4850 F120.00
G01 X7.8015 Y8.4017 F120.00
G01 X7.8012 Y8.3900 F120.00
G01 X7.8015 Y8.3783 F120.00
G01 X7.8056 Y8.2950 F120.00
G01 X7.8064 Y8.2833 F120.00
G01 X7.8079 Y8.2716 F120.00
G01 X7.8201 Y8.1891 F120.00
G01 X7.8221 Y8.1776 F120.00
G01 X7.8247 Y8.1661 F120.00
G01 X7.8450 Y8.0852 F120.00
G01 X7.8481 Y8.0739 F120.00
G01 X7.8518 Y8.0628 F120.00
G01 X7.8799 Y7.9843 F120.00
G01 X7.8841 Y7.9733 F120.00
G01 X7.8888 Y7.9626 F120.00
G01 X7.9245 Y7.8872 F120.00
G01 X7.9298 Y7.8767 F120.00
G01 X7.9355 Y7.8665 F120.00
G01 X7.9784 Y7.7950 F120.00
G01 X7.9847 Y7.7851 F120.00
G01 X7.9914 Y7.7755 F120.00
G01 X8.0411 Y7.7085 F120.00
G01 X8.0483 Y7.6993 F120.00
G01 X8.0560 Y7.6904 F120.00
G01 X8.1120 Y7.6286 F120.00
G01 X8.1201 Y7.6201 F120.00
G01 X8.1286 Y7.6120 F120.00
G01 X8.1904 Y7.5560 F120.00
G01 X8.1993 Y7.5483 F120.00
G01 X8.2085 Y7.5411 F120.00
G01 X8.2755 Y7.4914 F120.00
G01 X8.2851 Y7.4847 F120.00
G01 X8.2950 Y7.4784 F120.00
G01 X8.3665 Y7.4355 F120.00
G01 X8.3767 Y7.4298 F120.00
G01 X8.3872 Y7.4245 F120.00
G01 X8.4626 Y7.3888 F120.00
G01 X8.4733 Y7.3841 F120.00
G01 X8.4843 Y7.3799 F120.00
G01 X8.5628 Y7.3518 F120.00
G01 X8.5739 Y7.3481 F120.00
G01 X8.5852 Y7.3450 F120.00
G01 X8.6661 Y7.3247 F120.00
G01 X8.6776 Y7.3221 F120.00
G01 X8.6891 Y7.3201 F120.00
G01 X8.7716 Y7.3079 F120.00
G01 X8.7833 Y7.3064 F120.00
G01 X8.7950 Y7.3056 F120.00
G01 X8.8783 Y7.3015 F120.00
G00 Z2.0000
G00 X8.8841 Y7.4207
G01 F60.00
G01 Z-0.1100
G01 F120.00
G01 X8.8959 Y7.4207 F120.00
G01 X8.9850 Y7.4253 F120.00
G01 X9.0791 Y7.4392 F120.00
G01 X9.1714 Y7.4623 F120.00
G01 X9.2610 Y7.4944 F120.00
G01 X9.3470 Y7.5351 F120.00
G01 X9.4286 Y7.5840 F120.00
G01 X9.5050 Y7.6406 F120.00
G01 X9.5755 Y7.7045 F120.00
G01 X9.6394 Y7.7750 F120.00
G01 X9.6960 Y7.8514 F120.00
G01 X9.7449 Y7.9330 F120.00
G01 X9.7856 Y8.0190 F120.00
G01 X9.8177 Y8.1086 F120.00
G01 X9.8408 Y8.2009 F120.00
G01 X9.8547 Y8.2950 F120.00
G01 X9.8594 Y8.3900 F120.00
G01 X9.8547 Y8.4850 F120.00
G01 X9.8408 Y8.5791 F120.00
G01 X9.8177 Y8.6714 F120.00
G01 X9.7856 Y8.7610 F120.00
G01 X9.7449 Y8.8470 F120.00
G01 X9.6960 Y8.9286 F120.00
G01 X9.6394 Y9.0050 F120.00
G01 X9.5755 Y9.0755 F120.00
G01 X9.5050 Y9.1394 F120.00
G01 X9.4286 Y9.1960 F120.00
G01 X9.3470 Y9.2449 F120.00
G01 X9.2610 Y9.2856 F120.00
G01 X9.1714 Y9.3177 F120.00
G01 X9.0791 Y9.3408 F120.00
G01 X8.9850 Y9.3547 F120.00
G01 X8.8900 Y9.3594 F120.00
G01 X8.7950 Y9.3547 F120.00
G01 X8.7009 Y9.3408 F120.00
G01 X8.6086 Y9.3177 F120.00
G01 X8.5190 Y9.2856 F120.00
G01 X8.4330 Y9.2449 F120.00
G01 X8.3514 Y9.1960 F120.00
G01 X8.2750 Y9.1394 F120.00
G01 X8.2045 Y9.0755 F120.00
G01 X8.1406 Y9.0050 F120.00
G01 X8.0840 Y8.9286 F120.00
G01 X8.0351 Y8.8470 F120.00
G01 X7.9944 Y8.7610 F120.00
G01 X7.9623 Y8.6714 F120.00
G01 X7.9392 Y8.5791 F120.00
G01 X7.9253 Y8.4850 F120.00
G01 X7.9206 Y8.3900 F120.00
G01 X7.9253 Y8.2950 F120.00
G01 X7.9392 Y8.2009 F120.00
G01 X7.9623 Y8.1086 F120.00
G01 X7.9944 Y8.0190 F120.00
G01 X8.0351 Y7.9330 F120.00
G01 X8.0840 Y7.8514 F120.00
G01 X8.1406 Y7.7750 F120.00
G01 X8.2045 Y7.7045 F120.00
G01 X8.2750 Y7.6406 F120.00
G01 X8.3514 Y7.5840 F120.00
G01 X8.4330 Y7.5351 F120.00
G01 X8.5190 Y7.4944 F120.00
G01 X8.6086 Y7.4623 F120.00
G01 X8.7009 Y7.4392 F120.00
G01 X8.7950 Y7.4253 F120.00
G01 X8.8841 Y7.4207 F120.00
G00 Z2.0000
G00 X8.3638 Y9.4765
G01 F60.00
G01 Z-0.1100
G01 F120.00
G01 X8.4116 Y9.4991 F120.00
G01 X8.4276 Y9.5062 F120.00
G01 X8.4440 Y9.5126 F120.00
G01 X8.5309 Y9.5435 F120.00
G01 X8.5562 Y9.5509 F120.00
G01 X8.6457 Y9.5732 F120.00
G01 X8.6716 Y9.5780 F120.00
G01 X8.7541 Y9.5902 F120.00
G01 X8.7716 Y9.5924 F120.00
G01 X8.7891 Y9.5937 F120.00
G01 X8.8724 Y9.5978 F120.00
G01 X8.8900 Y9.5982 F120.00
G01 X8.9076 Y9.5978 F120.00
G01 X8.9909 Y9.5937 F120.00
G01 X9.0084 Y9.5924 F120.00
G01 X9.0259 Y9.5902 F120.00
G01 X9.1084 Y9.5780 F120.00
G01 X9.1343 Y9.5732 F120.00
G01 X9.2238 Y9.5509 F120.00
G01 X9.2491 Y9.5435 F120.00
G01 X9.3442 Y9.5095 F120.00
G01 X9.3604 Y9.5028 F120.00
G01 X9.4124 Y9.4783 F120.00
G01 X9.4130 Y9.5010 F120.00
G01 X9.4156 Y9.5275 F120.00
G01 X9.4201 Y9.5538 F120.00
G01 X9.4266 Y9.5797 F120.00
G01 X9.4350 Y9.6050 F120.00
G01 X9.4626 Y9.6788 F120.00
G01 X9.4734 Y9.7032 F120.00
G01 X9.4833 Y9.7218 F120.00
G01 X8.2939 Y9.7218 F120.00
G01 X8.3039 Y9.7071 F120.00
G01 X8.3131 Y9.6918 F120.00
G01 X8.3254 Y9.6682 F120.00
G01 X8.3360 Y9.6437 F120.00
G01 X8.3420 Y9.6269 F120.00
G01 X8.3471 Y9.6099 F120.00
G01 X8.3533 Y9.5839 F120.00
G01 X8.3575 Y9.5576 F120.00
G01 X8.3592 Y9.5399 F120.00
G01 X8.3638 Y9.4765 F120.00
G00 Z2.0000
G00 X12.1738 Y9.4765
G01 F60.00
G01 Z-0.1100
G01 F120.00
G01 X12.1692 Y9.5399 F120.00
G01 X12.1675 Y9.5576 F120.00
G01 X12.1633 Y9.5839 F120.00
G01 X12.1571 Y9.6099 F120.00
G01 X12.1520 Y9.6269 F120.00
G01 X12.1460 Y9.6437 F120.00
G01 X12.1354 Y9.6682 F120.00
G01 X12.1231 Y9.6918 F120.00
G01 X12.1139 Y9.7071 F120.00
G01 X12.1039 Y9.7218 F120.00
G01 X13.5500 Y9.7218 F120.00
G01 X13.5764 Y9.7228 F120.00
G01 X13.5938 Y9.7245 F120.00
G01 X13.6199 Y9.7287 F120.00
G01 X13.6370 Y9.7325 F120.00
G01 X13.6624 Y9.7399 F120.00
G01 X13.6871 Y9.7491 F120.00
G01 X13.7111 Y9.7600 F120.00
G01 X13.7266 Y9.7683 F120.00
G01 X13.7416 Y9.7774 F120.00
G01 X13.7634 Y9.7923 F120.00
G01 X13.7840 Y9.8088 F120.00
G01 X13.7970 Y9.8206 F120.00
G01 X13.8094 Y9.8330 F120.00
G01 X13.8269 Y9.8528 F120.00
G01 X13.8429 Y9.8737 F120.00
G01 X13.8572 Y9.8958 F120.00
G01 X13.8700 Y9.9189 F120.00
G01 X13.8775 Y9.9348 F120.00
G01 X13.8842 Y9.9511 F120.00
G01 X13.8901 Y9.9676 F120.00
G01 X13.8952 Y9.9845 F120.00
G01 X13.8995 Y10.0015 F120.00
G01 X13.9029 Y10.0188 F120.00
G01 X13.9055 Y10.0362 F120.00
G01 X13.9072 Y10.0536 F120.00
G01 X13.9081 Y10.0712 F120.00
G01 X13.9082 Y11.7800 F120.00
G01 X13.9078 Y11.7976 F120.00
G01 X13.9065 Y11.8151 F120.00
G01 X13.9043 Y11.8326 F120.00
G01 X13.9013 Y11.8499 F120.00
G01 X13.8975 Y11.8670 F120.00
G01 X13.8928 Y11.8840 F120.00
G01 X13.8842 Y11.9089 F120.00
G01 X13.8775 Y11.9252 F120.00
G01 X13.8700 Y11.9411 F120.00
G01 X13.8617 Y11.9566 F120.00
G01 X13.8526 Y11.9716 F120.00
G01 X13.8429 Y11.9863 F120.00
G01 X13.8324 Y12.0004 F120.00
G01 X13.8212 Y12.0140 F120.00
G01 X13.8094 Y12.0270 F120.00
G01 X13.7970 Y12.0394 F120.00
G01 X13.7840 Y12.0512 F120.00
G01 X13.7704 Y12.0624 F120.00
G01 X13.7490 Y12.0778 F120.00
G01 X13.7342 Y12.0872 F120.00
G01 X13.7189 Y12.0959 F120.00
G01 X13.7032 Y12.1038 F120.00
G01 X13.6789 Y12.1142 F120.00
G01 X13.6624 Y12.1201 F120.00
G01 X13.6455 Y12.1252 F120.00
G01 X13.6285 Y12.1295 F120.00
G01 X13.6112 Y12.1329 F120.00
G01 X13.5851 Y12.1365 F120.00
G01 X13.5588 Y12.1381 F120.00
G01 X13.4334 Y12.1382 F120.00
G01 X13.4334 Y15.0862 F120.00
G01 X15.5438 Y17.1966 F120.00
G01 X16.0107 Y17.1966 F120.00
G01 X15.9914 Y17.1786 F120.00
G01 X14.7214 Y15.9086 F120.00
G01 X14.7093 Y15.8959 F120.00
G01 X14.6846 Y15.8686 F120.00
G01 X14.6676 Y15.8484 F120.00
G01 X14.6403 Y15.8118 F120.00
G01 X14.6302 Y15.7974 F120.00
G01 X14.6208 Y15.7826 F120.00
G01 X14.6019 Y15.7510 F120.00
G01 X14.5892 Y15.7279 F120.00
G01 X14.5696 Y15.6867 F120.00
G01 X14.5624 Y15.6707 F120.00
G01 X14.5561 Y15.6543 F120.00
G01 X14.5437 Y15.6196 F120.00
G01 X14.5357 Y15.5944 F120.00
G01 X14.5246 Y15.5502 F120.00
G01 X14.5207 Y15.5331 F120.00
G01 X14.5177 Y15.5158 F120.00
G01 X14.5123 Y15.4793 F120.00
G01 X14.5101 Y15.4619 F120.00
G01 X14.5089 Y15.4444 F120.00
G01 X14.5070 Y15.4076 F120.00
G01 X14.5066 Y15.3900 F120.00
G01 X14.5066 Y12.2150 F120.00
G01 X14.5070 Y12.1974 F120.00
G01 X14.5094 Y12.1519 F120.00
G01 X14.5123 Y12.1257 F120.00
G01 X14.5177 Y12.0892 F120.00
G01 X14.5207 Y12.0719 F120.00
G01 X14.5246 Y12.0548 F120.00
G01 X14.5335 Y12.0191 F120.00
G01 X14.5408 Y11.9937 F120.00
G01 X14.5592 Y11.9425 F120.00
G01 X14.5696 Y11.9183 F120.00
G01 X14.5853 Y11.8850 F120.00
G01 X14.5932 Y11.8693 F120.00
G01 X14.6019 Y11.8540 F120.00
G01 X14.6208 Y11.8224 F120.00
G01 X14.6302 Y11.8076 F120.00
G01 X14.6403 Y11.7932 F120.00
G01 X14.6623 Y11.7636 F120.00
G01 X14.6787 Y11.7430 F120.00
G01 X14.7093 Y11.7091 F120.00
G01 X14.7214 Y11.6964 F120.00
G01 X15.3018 Y11.1160 F120.00
G01 X15.3018 Y10.0950 F120.00
G01 X15.3022 Y10.0774 F120.00
G01 X15.3035 Y10.0599 F120.00
G01 X15.3057 Y10.0424 F120.00
G01 X15.3105 Y10.0165 F120.00
G01 X15.3148 Y9.9995 F120.00
G01 X15.3199 Y9.9826 F120.00
G01 X15.3258 Y9.9661 F120.00
G01 X15.3325 Y9.9498 F120.00
G01 X15.3400 Y9.9339 F120.00
G01 X15.3483 Y9.9184 F120.00
G01 X15.3574 Y9.9034 F120.00
G01 X15.3671 Y9.8887 F120.00
G01 X15.3776 Y9.8746 F120.00
G01 X15.3888 Y9.8610 F120.00
G01 X15.4006 Y9.8480 F120.00
G01 X15.4130 Y9.8356 F120.00
G01 X15.4260 Y9.8238 F120.00
G01 X15.4396 Y9.8126 F120.00
G01 X15.4537 Y9.8021 F120.00
G01 X15.4684 Y9.7924 F120.00
G01 X15.4911 Y9.7791 F120.00
G01 X15.5148 Y9.7675 F120.00
G01 X15.5393 Y9.7577 F120.00
G01 X15.5645 Y9.7498 F120.00
G01 X15.5901 Y9.7437 F120.00
G01 X15.6074 Y9.7407 F120.00
G01 X15.6249 Y9.7385 F120.00
G01 X15.6512 Y9.7369 F120.00
G01 X17.3600 Y9.7368 F120.00
G01 X17.3864 Y9.7378 F120.00
G01 X17.4126 Y9.7407 F120.00
G01 X17.4385 Y9.7455 F120.00
G01 X17.4640 Y9.7522 F120.00
G01 X17.4807 Y9.7577 F120.00
G01 X17.4971 Y9.7641 F120.00
G01 X17.5211 Y9.7750 F120.00
G01 X17.5366 Y9.7833 F120.00
G01 X17.5516 Y9.7924 F120.00
G01 X17.5734 Y9.8073 F120.00
G01 X17.5940 Y9.8238 F120.00
G01 X17.6133 Y9.8417 F120.00
G01 X17.6312 Y9.8610 F120.00
G01 X17.6424 Y9.8746 F120.00
G01 X17.6529 Y9.8887 F120.00
G01 X17.6672 Y9.9108 F120.00
G01 X17.6759 Y9.9261 F120.00
G01 X17.6838 Y9.9418 F120.00
G01 X17.6909 Y9.9579 F120.00
G01 X17.6973 Y9.9743 F120.00
G01 X17.7052 Y9.9995 F120.00
G01 X17.7113 Y10.0251 F120.00
G01 X17.7155 Y10.0512 F120.00
G01 X17.7172 Y10.0686 F120.00
G01 X17.7182 Y10.0950 F120.00
G01 X17.7181 Y11.8038 F120.00
G01 X17.7172 Y11.8214 F120.00
G01 X17.7143 Y11.8476 F120.00
G01 X17.7113 Y11.8649 F120.00
G01 X17.7075 Y11.8820 F120.00
G01 X17.7028 Y11.8990 F120.00
G01 X17.6942 Y11.9239 F120.00
G01 X17.6875 Y11.9402 F120.00
G01 X17.6800 Y11.9561 F120.00
G01 X17.6672 Y11.9792 F120.00
G01 X17.6578 Y11.9940 F120.00
G01 X17.6477 Y12.0084 F120.00
G01 X17.6312 Y12.0290 F120.00
G01 X17.6194 Y12.0420 F120.00
G01 X17.6006 Y12.0604 F120.00
G01 X17.5804 Y12.0774 F120.00
G01 X17.5663 Y12.0879 F120.00
G01 X17.5442 Y12.1022 F120.00
G01 X17.5289 Y12.1109 F120.00
G01 X17.5052 Y12.1225 F120.00
G01 X17.4889 Y12.1292 F120.00
G01 X17.4640 Y12.1378 F120.00
G01 X17.4470 Y12.1425 F120.00
G01 X17.4299 Y12.1463 F120.00
G01 X17.4126 Y12.1493 F120.00
G01 X17.3864 Y12.1522 F120.00
G01 X17.3600 Y12.1532 F120.00
G01 X16.3390 Y12.1532 F120.00
G01 X15.9734 Y12.5188 F120.00
G01 X15.9734 Y15.0862 F120.00
G01 X16.8138 Y15.9266 F120.00
G01 X45.7200 Y15.9266 F120.00
G01 X45.7376 Y15.9270 F120.00
G01 X45.7744 Y15.9289 F120.00
G01 X45.7919 Y15.9301 F120.00
G01 X45.8093 Y15.9323 F120.00
G01 X45.8458 Y15.9377 F120.00
G01 X45.8631 Y15.9407 F120.00
G01 X45.8802 Y15.9446 F120.00
G01 X45.9159 Y15.9535 F120.00
G01 X45.9329 Y15.9582 F120.00
G01 X45.9496 Y15.9637 F120.00
G01 X45.9843 Y15.9761 F120.00
G01 X46.0087 Y15.9859 F120.00
G01 X46.0500 Y16.0053 F120.00
G01 X46.0657 Y16.0132 F120.00
G01 X46.0810 Y16.0219 F120.00
G01 X46.1126 Y16.0408 F120.00
G01 X46.1274 Y16.0502 F120.00
G01 X46.1418 Y16.0603 F120.00
G01 X46.1714 Y16.0823 F120.00
G01 X46.1920 Y16.0987 F120.00
G01 X46.2259 Y16.1293 F120.00
G01 X46.2386 Y16.1414 F120.00
G01 X52.5886 Y22.4914 F120.00
G01 X52.6007 Y22.5041 F120.00
G01 X52.6254 Y22.5314 F120.00
G01 X52.6424 Y22.5516 F120.00
G01 X52.6748 Y22.5953 F120.00
G01 X52.6892 Y22.6174 F120.00
G01 X52.7081 Y22.6490 F120.00
G01 X52.7168 Y22.6643 F120.00
G01 X52.7247 Y22.6800 F120.00
G01 X52.7404 Y22.7133 F120.00
G01 X52.7508 Y22.7375 F120.00
G01 X52.7692 Y22.7887 F120.00
G01 X52.7743 Y22.8056 F120.00
G01 X52.7854 Y22.8498 F120.00
G01 X52.7893 Y22.8669 F120.00
G01 X52.7923 Y22.8842 F120.00
G01 X52.7977 Y22.9207 F120.00
G01 X52.7999 Y22.9381 F120.00
G01 X52.8011 Y22.9556 F120.00
G01 X52.8030 Y22.9924 F120.00
G01 X52.8034 Y23.0100 F120.00
G01 X52.8034 Y26.3753 F120.00
G01 X52.8473 Y26.4152 F120.00
G01 X52.8598 Y26.4277 F120.00
G01 X52.9152 Y26.4887 F120.00
G01 X52.9321 Y26.5088 F120.00
G01 X52.9813 Y26.5749 F120.00
G01 X52.9914 Y26.5893 F120.00
G01 X53.0008 Y26.6042 F120.00
G01 X53.0387 Y26.6673 F120.00
G01 X53.0514 Y26.6904 F120.00
G01 X53.0867 Y26.7648 F120.00
G01 X53.0938 Y26.7809 F120.00
G01 X53.1002 Y26.7973 F120.00
G01 X53.1250 Y26.8666 F120.00
G01 X53.1329 Y26.8918 F120.00
G01 X53.1531 Y26.9716 F120.00
G01 X53.1585 Y26.9974 F120.00
G01 X53.1719 Y27.0876 F120.00
G01 X53.1742 Y27.1139 F120.00
G01 X53.1778 Y27.1874 F120.00
G01 X53.1782 Y27.2050 F120.00
G01 X53.1782 Y27.7050 F120.00
G01 X53.1778 Y27.7226 F120.00
G01 X53.1742 Y27.7961 F120.00
G01 X53.1719 Y27.8224 F120.00
G01 X53.1599 Y27.9039 F120.00
G01 X53.1569 Y27.9212 F120.00
G01 X53.1531 Y27.9384 F120.00
G01 X53.1352 Y28.0097 F120.00
G01 X53.1305 Y28.0267 F120.00
G01 X53.1250 Y28.0434 F120.00
G01 X53.1002 Y28.1127 F120.00
G01 X53.0938 Y28.1291 F120.00
G01 X53.0867 Y28.1452 F120.00
G01 X53.0552 Y28.2117 F120.00
G01 X53.0431 Y28.2351 F120.00
G01 X53.0008 Y28.3058 F120.00
G01 X52.9914 Y28.3207 F120.00
G01 X52.9813 Y28.3351 F120.00
G01 X52.9375 Y28.3942 F120.00
G01 X52.9267 Y28.4080 F120.00
G01 X52.9152 Y28.4213 F120.00
G01 X52.8657 Y28.4759 F120.00
G01 X52.8536 Y28.4886 F120.00
G01 X52.8409 Y28.5007 F120.00
G01 X52.7863 Y28.5502 F120.00
G01 X52.7730 Y28.5617 F120.00
G01 X52.7592 Y28.5725 F120.00
G01 X52.7001 Y28.6163 F120.00
G01 X52.6857 Y28.6264 F120.00
G01 X52.6708 Y28.6358 F120.00
G01 X52.6077 Y28.6737 F120.00
G01 X52.5924 Y28.6823 F120.00
G01 X52.5767 Y28.6902 F120.00
G01 X52.5102 Y28.7217 F120.00
G01 X52.4941 Y28.7288 F120.00
G01 X52.4777 Y28.7352 F120.00
G01 X52.4084 Y28.7600 F120.00
G01 X52.3917 Y28.7655 F120.00
G01 X52.3747 Y28.7702 F120.00
G01 X52.3034 Y28.7881 F120.00
G01 X52.2862 Y28.7919 F120.00
G01 X52.2689 Y28.7949 F120.00
G01 X52.1874 Y28.8069 F120.00
G01 X52.1611 Y28.8092 F120.00
G01 X52.0876 Y28.8128 F120.00
G01 X52.0700 Y28.8132 F120.00
G01 X52.0524 Y28.8128 F120.00
G01 X51.9789 Y28.8092 F120.00
G01 X51.9614 Y28.8079 F120.00
G01 X51.9439 Y28.8057 F120.00
G01 X51.8711 Y28.7949 F120.00
G01 X51.8538 Y28.7919 F120.00
G01 X51.8366 Y28.7881 F120.00
G01 X51.7653 Y28.7702 F120.00
G01 X51.7483 Y28.7655 F120.00
G01 X51.7316 Y28.7600 F120.00
G01 X51.6623 Y28.7352 F120.00
G01 X51.6459 Y28.7288 F120.00
G01 X51.6298 Y28.7217 F120.00
G01 X51.5633 Y28.6902 F120.00
G01 X51.5476 Y28.6823 F120.00
G01 X51.5323 Y28.6737 F120.00
G01 X51.4692 Y28.6358 F120.00
G01 X51.4543 Y28.6264 F120.00
G01 X51.4399 Y28.6163 F120.00
G01 X51.3808 Y28.5725 F120.00
G01 X51.3670 Y28.5617 F120.00
G01 X51.3537 Y28.5502 F120.00
G01 X51.2991 Y28.5007 F120.00
G01 X51.2864 Y28.4886 F120.00
G01 X51.2743 Y28.4759 F120.00
G01 X51.2248 Y28.4213 F120.00
G01 X51.2133 Y28.4080 F120.00
G01 X51.2025 Y28.3942 F120.00
G01 X51.1587 Y28.3351 F120.00
G01 X51.1486 Y28.3207 F120.00
G01 X51.1392 Y28.3058 F120.00
G01 X51.1013 Y28.2427 F120.00
G01 X51.0927 Y28.2274 F120.00
G01 X51.0848 Y28.2117 F120.00
G01 X51.0533 Y28.1452 F120.00
G01 X51.0462 Y28.1291 F120.00
G01 X51.0398 Y28.1127 F120.00
G01 X51.0122 Y28.0351 F120.00
G01 X51.0048 Y28.0097 F120.00
G01 X50.9869 Y27.9384 F120.00
G01 X50.9831 Y27.9212 F120.00
G01 X50.9801 Y27.9039 F120.00
G01 X50.9693 Y27.8311 F120.00
G01 X50.9664 Y27.8049 F120.00
G01 X50.9622 Y27.7226 F120.00
G01 X50.9618 Y27.7050 F120.00
G01 X50.9619 Y27.1962 F120.00
G01 X50.9658 Y27.1139 F120.00
G01 X50.9671 Y27.0964 F120.00
G01 X50.9693 Y27.0789 F120.00
G01 X50.9801 Y27.0061 F120.00
G01 X50.9831 Y26.9888 F120.00
G01 X50.9869 Y26.9716 F120.00
G01 X51.0071 Y26.8918 F120.00
G01 X51.0150 Y26.8666 F120.00
G01 X51.0398 Y26.7973 F120.00
G01 X51.0462 Y26.7809 F120.00
G01 X51.0533 Y26.7648 F120.00
G01 X51.0848 Y26.6983 F120.00
G01 X51.0969 Y26.6749 F120.00
G01 X51.1392 Y26.6042 F120.00
G01 X51.1486 Y26.5893 F120.00
G01 X51.1587 Y26.5749 F120.00
G01 X51.2079 Y26.5088 F120.00
G01 X51.2248 Y26.4887 F120.00
G01 X51.2802 Y26.4277 F120.00
G01 X51.2927 Y26.4152 F120.00
G01 X51.3366 Y26.3753 F120.00
G01 X51.3366 Y23.3138 F120.00
G01 X50.2478 Y22.2250 F120.00
G01 X50.2523 Y22.2492 F120.00
G01 X50.2577 Y22.2857 F120.00
G01 X50.2599 Y22.3031 F120.00
G01 X50.2611 Y22.3206 F120.00
G01 X50.2630 Y22.3574 F120.00
G01 X50.2634 Y22.3750 F120.00
G01 X50.2634 Y26.3753 F120.00
G01 X50.3009 Y26.4093 F120.00
G01 X50.3136 Y26.4214 F120.00
G01 X50.3257 Y26.4341 F120.00
G01 X50.3810 Y26.4952 F120.00
G01 X50.3975 Y26.5158 F120.00
G01 X50.4413 Y26.5749 F120.00
G01 X50.4562 Y26.5967 F120.00
G01 X50.4987 Y26.6673 F120.00
G01 X50.5073 Y26.6826 F120.00
G01 X50.5152 Y26.6983 F120.00
G01 X50.5504 Y26.7728 F120.00
G01 X50.5602 Y26.7973 F120.00
G01 X50.5850 Y26.8666 F120.00
G01 X50.5905 Y26.8833 F120.00
G01 X50.5952 Y26.9003 F120.00
G01 X50.6131 Y26.9716 F120.00
G01 X50.6169 Y26.9888 F120.00
G01 X50.6199 Y27.0061 F120.00
G01 X50.6307 Y27.0789 F120.00
G01 X50.6336 Y27.1051 F120.00
G01 X50.6378 Y27.1874 F120.00
G01 X50.6382 Y27.2050 F120.00
G01 X50.6382 Y27.7050 F120.00
G01 X50.6378 Y27.7226 F120.00
G01 X50.6342 Y27.7961 F120.00
G01 X50.6329 Y27.8136 F120.00
G01 X50.6307 Y27.8311 F120.00
G01 X50.6199 Y27.9039 F120.00
G01 X50.6169 Y27.9212 F120.00
G01 X50.6131 Y27.9384 F120.00
G01 X50.5952 Y28.0097 F120.00
G01 X50.5878 Y28.0351 F120.00
G01 X50.5602 Y28.1127 F120.00
G01 X50.5504 Y28.1372 F120.00
G01 X50.5114 Y28.2196 F120.00
G01 X50.4987 Y28.2427 F120.00
G01 X50.4562 Y28.3133 F120.00
G01 X50.4413 Y28.3351 F120.00
G01 X50.3975 Y28.3942 F120.00
G01 X50.3867 Y28.4080 F120.00
G01 X50.3752 Y28.4213 F120.00
G01 X50.3257 Y28.4759 F120.00
G01 X50.3073 Y28.4948 F120.00
G01 X50.2398 Y28.5560 F120.00
G01 X50.2192 Y28.5725 F120.00
G01 X50.1601 Y28.6163 F120.00
G01 X50.1457 Y28.6264 F120.00
G01 X50.1308 Y28.6358 F120.00
G01 X50.0677 Y28.6737 F120.00
G01 X50.0524 Y28.6823 F120.00
G01 X50.0367 Y28.6902 F120.00
G01 X49.9702 Y28.7217 F120.00
G01 X49.9541 Y28.7288 F120.00
G01 X49.9377 Y28.7352 F120.00
G01 X49.8684 Y28.7600 F120.00
G01 X49.8517 Y28.7655 F120.00
G01 X49.8347 Y28.7702 F120.00
G01 X49.7634 Y28.7881 F120.00
G01 X49.7462 Y28.7919 F120.00
G01 X49.7289 Y28.7949 F120.00
G01 X49.6561 Y28.8057 F120.00
G01 X49.6386 Y28.8079 F120.00
G01 X49.6211 Y28.8092 F120.00
G01 X49.5476 Y28.8128 F120.00
G01 X49.5300 Y28.8132 F120.00
G01 X49.5124 Y28.8128 F120.00
G01 X49.4389 Y28.8092 F120.00
G01 X49.4214 Y28.8079 F120.00
G01 X49.4039 Y28.8057 F120.00
G01 X49.3311 Y28.7949 F120.00
G01 X49.3052 Y28.7901 F120.00
G01 X49.2253 Y28.7702 F120.00
G01 X49.2083 Y28.7655 F120.00
G01 X49.1916 Y28.7600 F120.00
G01 X49.1141 Y28.7321 F120.00
G01 X49.0898 Y28.7217 F120.00
G01 X49.0233 Y28.6902 F120.00
G01 X49.0076 Y28.6823 F120.00
G01 X48.9923 Y28.6737 F120.00
G01 X48.9292 Y28.6358 F120.00
G01 X48.9143 Y28.6264 F120.00
G01 X48.8999 Y28.6163 F120.00
G01 X48.8408 Y28.5725 F120.00
G01 X48.8270 Y28.5617 F120.00
G01 X48.8137 Y28.5502 F120.00
G01 X48.7591 Y28.5007 F120.00
G01 X48.7464 Y28.4886 F120.00
G01 X48.7343 Y28.4759 F120.00
G01 X48.6848 Y28.4213 F120.00
G01 X48.6679 Y28.4012 F120.00
G01 X48.6187 Y28.3351 F120.00
G01 X48.6086 Y28.3207 F120.00
G01 X48.5992 Y28.3058 F120.00
G01 X48.5613 Y28.2427 F120.00
G01 X48.5527 Y28.2274 F120.00
G01 X48.5448 Y28.2117 F120.00
G01 X48.5133 Y28.1452 F120.00
G01 X48.5062 Y28.1291 F120.00
G01 X48.4998 Y28.1127 F120.00
G01 X48.4750 Y28.0434 F120.00
G01 X48.4695 Y28.0267 F120.00
G01 X48.4648 Y28.0097 F120.00
G01 X48.4469 Y27.9384 F120.00
G01 X48.4431 Y27.9212 F120.00
G01 X48.4401 Y27.9039 F120.00
G01 X48.4293 Y27.8311 F120.00
G01 X48.4264 Y27.8049 F120.00
G01 X48.4222 Y27.7226 F120.00
G01 X48.4218 Y27.7050 F120.00
G01 X48.4218 Y27.2050 F120.00
G01 X48.4222 Y27.1874 F120.00
G01 X48.4264 Y27.1051 F120.00
G01 X48.4293 Y27.0789 F120.00
G01 X48.4401 Y27.0061 F120.00
G01 X48.4431 Y26.9888 F120.00
G01 X48.4469 Y26.9716 F120.00
G01 X48.4648 Y26.9003 F120.00
G01 X48.4695 Y26.8833 F120.00
G01 X48.4750 Y26.8666 F120.00
G01 X48.4998 Y26.7973 F120.00
G01 X48.5096 Y26.7728 F120.00
G01 X48.5448 Y26.6983 F120.00
G01 X48.5527 Y26.6826 F120.00
G01 X48.5613 Y26.6673 F120.00
G01 X48.6038 Y26.5967 F120.00
G01 X48.6187 Y26.5749 F120.00
G01 X48.6625 Y26.5158 F120.00
G01 X48.6790 Y26.4952 F120.00
G01 X48.7343 Y26.4341 F120.00
G01 X48.7464 Y26.4214 F120.00
G01 X48.7591 Y26.4093 F120.00
G01 X48.7966 Y26.3753 F120.00
G01 X48.7966 Y22.6788 F120.00
G01 X47.7078 Y21.5900 F120.00
G01 X47.7123 Y21.6142 F120.00
G01 X47.7177 Y21.6507 F120.00
G01 X47.7199 Y21.6681 F120.00
G01 X47.7211 Y21.6856 F120.00
G01 X47.7230 Y21.7224 F120.00
G01 X47.7234 Y21.7400 F120.00
G01 X47.7234 Y26.3753 F120.00
G01 X47.7609 Y26.4093 F120.00
G01 X47.7736 Y26.4214 F120.00
G01 X47.7857 Y26.4341 F120.00
G01 X47.8410 Y26.4952 F120.00
G01 X47.8575 Y26.5158 F120.00
G01 X47.9013 Y26.5749 F120.00
G01 X47.9162 Y26.5967 F120.00
G01 X47.9587 Y26.6673 F120.00
G01 X47.9673 Y26.6826 F120.00
G01 X47.9752 Y26.6983 F120.00
G01 X48.0104 Y26.7728 F120.00
G01 X48.0202 Y26.7973 F120.00
G01 X48.0450 Y26.8666 F120.00
G01 X48.0505 Y26.8833 F120.00
G01 X48.0552 Y26.9003 F120.00
G01 X48.0731 Y26.9716 F120.00
G01 X48.0769 Y26.9888 F120.00
G01 X48.0799 Y27.0061 F120.00
G01 X48.0907 Y27.0789 F120.00
G01 X48.0936 Y27.1051 F120.00
G01 X48.0978 Y27.1874 F120.00
G01 X48.0982 Y27.2050 F120.00
G01 X48.0982 Y27.7050 F120.00
G01 X48.0978 Y27.7226 F120.00
G01 X48.0942 Y27.7961 F120.00
G01 X48.0919 Y27.8224 F120.00
G01 X48.0799 Y27.9039 F120.00
G01 X48.0769 Y27.9212 F120.00
G01 X48.0731 Y27.9384 F120.00
G01 X48.0552 Y28.0097 F120.00
G01 X48.0505 Y28.0267 F120.00
G01 X48.0450 Y28.0434 F120.00
G01 X48.0202 Y28.1127 F120.00
G01 X48.0138 Y28.1291 F120.00
G01 X48.0067 Y28.1452 F120.00
G01 X47.9752 Y28.2117 F120.00
G01 X47.9673 Y28.2274 F120.00
G01 X47.9587 Y28.2427 F120.00
G01 X47.9208 Y28.3058 F120.00
G01 X47.9114 Y28.3207 F120.00
G01 X47.9013 Y28.3351 F120.00
G01 X47.8575 Y28.3942 F120.00
G01 X47.8467 Y28.4080 F120.00
G01 X47.8352 Y28.4213 F120.00
G01 X47.7857 Y28.4759 F120.00
G01 X47.7736 Y28.4886 F120.00
G01 X47.7609 Y28.5007 F120.00
G01 X47.7063 Y28.5502 F120.00
G01 X47.6930 Y28.5617 F120.00
G01 X47.6792 Y28.5725 F120.00
G01 X47.6201 Y28.6163 F120.00
G01 X47.6057 Y28.6264 F120.00
G01 X47.5908 Y28.6358 F120.00
G01 X47.5277 Y28.6737 F120.00
G01 X47.5124 Y28.6823 F120.00
G01 X47.4967 Y28.6902 F120.00
G01 X47.4302 Y28.7217 F120.00
G01 X47.4141 Y28.7288 F120.00
G01 X47.3977 Y28.7352 F120.00
G01 X47.3284 Y28.7600 F120.00
G01 X47.3117 Y28.7655 F120.00
G01 X47.2947 Y28.7702 F120.00
G01 X47.2234 Y28.7881 F120.00
G01 X47.2062 Y28.7919 F120.00
G01 X47.1889 Y28.7949 F120.00
G01 X47.1161 Y28.8057 F120.00
G01 X47.0986 Y28.8079 F120.00
G01 X47.0811 Y28.8092 F120.00
G01 X47.0076 Y28.8128 F120.00
G01 X46.9900 Y28.8132 F120.00
G01 X46.9724 Y28.8128 F120.00
G01 X46.8989 Y28.8092 F120.00
G01 X46.8814 Y28.8079 F120.00
G01 X46.8639 Y28.8057 F120.00
G01 X46.7911 Y28.7949 F120.00
G01 X46.7738 Y28.7919 F120.00
G01 X46.7566 Y28.7881 F120.00
G01 X46.6853 Y28.7702 F120.00
G01 X46.6599 Y28.7628 F120.00
G01 X46.5823 Y28.7352 F120.00
G01 X46.5659 Y28.7288 F120.00
G01 X46.5498 Y28.7217 F120.00
G01 X46.4833 Y28.6902 F120.00
G01 X46.4676 Y28.6823 F120.00
G01 X46.4523 Y28.6737 F120.00
G01 X46.3892 Y28.6358 F120.00
G01 X46.3743 Y28.6264 F120.00
G01 X46.3599 Y28.6163 F120.00
G01 X46.3008 Y28.5725 F120.00
G01 X46.2870 Y28.5617 F120.00
G01 X46.2737 Y28.5502 F120.00
G01 X46.2191 Y28.5007 F120.00
G01 X46.2064 Y28.4886 F120.00
G01 X46.1943 Y28.4759 F120.00
G01 X46.1448 Y28.4213 F120.00
G01 X46.1333 Y28.4080 F120.00
G01 X46.1225 Y28.3942 F120.00
G01 X46.0787 Y28.3351 F120.00
G01 X46.0638 Y28.3133 F120.00
G01 X46.0213 Y28.2427 F120.00
G01 X46.0127 Y28.2274 F120.00
G01 X46.0048 Y28.2117 F120.00
G01 X45.9733 Y28.1452 F120.00
G01 X45.9662 Y28.1291 F120.00
G01 X45.9598 Y28.1127 F120.00
G01 X45.9350 Y28.0434 F120.00
G01 X45.9295 Y28.0267 F120.00
G01 X45.9248 Y28.0097 F120.00
G01 X45.9069 Y27.9384 F120.00
G01 X45.9031 Y27.9212 F120.00
G01 X45.9001 Y27.9039 F120.00
G01 X45.8893 Y27.8311 F120.00
G01 X45.8871 Y27.8136 F120.00
G01 X45.8858 Y27.7961 F120.00
G01 X45.8822 Y27.7226 F120.00
G01 X45.8818 Y27.7050 F120.00
G01 X45.8818 Y27.2050 F120.00
G01 X45.8822 Y27.1874 F120.00
G01 X45.8864 Y27.1051 F120.00
G01 X45.8893 Y27.0789 F120.00
G01 X45.9001 Y27.0061 F120.00
G01 X45.9031 Y26.9888 F120.00
G01 X45.9069 Y26.9716 F120.00
G01 X45.9248 Y26.9003 F120.00
G01 X45.9295 Y26.8833 F120.00
G01 X45.9350 Y26.8666 F120.00
G01 X45.9598 Y26.7973 F120.00
G01 X45.9696 Y26.7728 F120.00
G01 X46.0048 Y26.6983 F120.00
G01 X46.0127 Y26.6826 F120.00
G01 X46.0213 Y26.6673 F120.00
G01 X46.0638 Y26.5967 F120.00
G01 X46.0787 Y26.5749 F120.00
G01 X46.1225 Y26.5158 F120.00
G01 X46.1390 Y26.4952 F120.00
G01 X46.1943 Y26.4341 F120.00
G01 X46.2064 Y26.4214 F120.00
G01 X46.2191 Y26.4093 F120.00
G01 X46.2566 Y26.3753 F120.00
G01 X46.2566 Y22.0438 F120.00
G01 X44.1462 Y19.9334 F120.00
G01 X23.3593 Y19.9334 F120.00
G01 X23.3786 Y19.9514 F120.00
G01 X27.1886 Y23.7614 F120.00
G01 X27.2007 Y23.7741 F120.00
G01 X27.2313 Y23.8080 F120.00
G01 X27.2477 Y23.8286 F120.00
G01 X27.2697 Y23.8582 F120.00
G01 X27.2798 Y23.8726 F120.00
G01 X27.2892 Y23.8874 F120.00
G01 X27.3126 Y23.9266 F120.00
G01 X27.3247 Y23.9500 F120.00
G01 X27.3404 Y23.9833 F120.00
G01 X27.3476 Y23.9993 F120.00
G01 X27.3539 Y24.0157 F120.00
G01 X27.3663 Y24.0504 F120.00
G01 X27.3743 Y24.0756 F120.00
G01 X27.3875 Y24.1283 F120.00
G01 X27.3923 Y24.1542 F120.00
G01 X27.3977 Y24.1907 F120.00
G01 X27.3999 Y24.2081 F120.00
G01 X27.4011 Y24.2256 F120.00
G01 X27.4030 Y24.2624 F120.00
G01 X27.4034 Y24.2800 F120.00
G01 X27.4034 Y26.3753 F120.00
G01 X27.4409 Y26.4093 F120.00
G01 X27.4536 Y26.4214 F120.00
G01 X27.4657 Y26.4341 F120.00
G01 X27.5210 Y26.4952 F120.00
G01 X27.5375 Y26.5158 F120.00
G01 X27.5813 Y26.5749 F120.00
G01 X27.5962 Y26.5967 F120.00
G01 X27.6387 Y26.6673 F120.00
G01 X27.6473 Y26.6826 F120.00
G01 X27.6552 Y26.6983 F120.00
G01 X27.6904 Y26.7728 F120.00
G01 X27.7002 Y26.7973 F120.00
G01 X27.7250 Y26.8666 F120.00
G01 X27.7305 Y26.8833 F120.00
G01 X27.7352 Y26.9003 F120.00
G01 X27.7531 Y26.9716 F120.00
G01 X27.7569 Y26.9888 F120.00
G01 X27.7599 Y27.0061 F120.00
G01 X27.7707 Y27.0789 F120.00
G01 X27.7736 Y27.1051 F120.00
G01 X27.7778 Y27.1874 F120.00
G01 X27.7782 Y27.2050 F120.00
G01 X27.7782 Y27.7050 F120.00
G01 X27.7778 Y27.7226 F120.00
G01 X27.7746 Y27.7866 F120.00
G01 X27.8063 Y27.7749 F120.00
G01 X27.8232 Y27.7691 F120.00
G01 X27.8402 Y27.7642 F120.00
G01 X27.8576 Y27.7601 F120.00
G01 X27.8751 Y27.7569 F120.00
G01 X27.8927 Y27.7546 F120.00
G01 X27.9104 Y27.7531 F120.00
G01 X27.9282 Y27.7526 F120.00
G01 X27.9549 Y27.7534 F120.00
G01 X27.9726 Y27.7550 F120.00
G01 X27.9902 Y27.7575 F120.00
G01 X28.0077 Y27.7609 F120.00
G01 X28.0759 Y27.7759 F120.00
G01 X28.0932 Y27.7802 F120.00
G01 X28.1052 Y27.7837 F120.00
G01 X28.1022 Y27.7226 F120.00
G01 X28.1018 Y27.7050 F120.00
G01 X28.1018 Y27.2050 F120.00
G01 X28.1022 Y27.1874 F120.00
G01 X28.1064 Y27.1051 F120.00
G01 X28.1093 Y27.0789 F120.00
G01 X28.1201 Y27.0061 F120.00
G01 X28.1231 Y26.9888 F120.00
G01 X28.1269 Y26.9716 F120.00
G01 X28.1448 Y26.9003 F120.00
G01 X28.1495 Y26.8833 F120.00
G01 X28.1550 Y26.8666 F120.00
G01 X28.1798 Y26.7973 F120.00
G01 X28.1896 Y26.7728 F120.00
G01 X28.2248 Y26.6983 F120.00
G01 X28.2327 Y26.6826 F120.00
G01 X28.2413 Y26.6673 F120.00
G01 X28.2792 Y26.6042 F120.00
G01 X28.2886 Y26.5893 F120.00
G01 X28.2987 Y26.5749 F120.00
G01 X28.3425 Y26.5158 F120.00
G01 X28.3533 Y26.5020 F120.00
G01 X28.3648 Y26.4887 F120.00
G01 X28.4143 Y26.4341 F120.00
G01 X28.4264 Y26.4214 F120.00
G01 X28.4391 Y26.4093 F120.00
G01 X28.4937 Y26.3598 F120.00
G01 X28.5070 Y26.3483 F120.00
G01 X28.5208 Y26.3375 F120.00
G01 X28.5799 Y26.2937 F120.00
G01 X28.5943 Y26.2836 F120.00
G01 X28.6092 Y26.2742 F120.00
G01 X28.6723 Y26.2363 F120.00
G01 X28.6876 Y26.2277 F120.00
G01 X28.7033 Y26.2198 F120.00
G01 X28.7698 Y26.1883 F120.00
G01 X28.7859 Y26.1812 F120.00
G01 X28.8023 Y26.1748 F120.00
G01 X28.8716 Y26.1500 F120.00
G01 X28.8883 Y26.1445 F120.00
G01 X28.9053 Y26.1398 F120.00
G01 X28.9766 Y26.1219 F120.00
G01 X29.0024 Y26.1165 F120.00
G01 X29.0839 Y26.1043 F120.00
G01 X29.1101 Y26.1014 F120.00
G01 X29.2012 Y26.0969 F120.00
G01 X29.2276 Y26.0972 F120.00
G01 X29.3011 Y26.1008 F120.00
G01 X29.3274 Y26.1031 F120.00
G01 X29.4176 Y26.1165 F120.00
G01 X29.4434 Y26.1219 F120.00
G01 X29.5232 Y26.1421 F120.00
G01 X29.5484 Y26.1500 F120.00
G01 X29.6177 Y26.1748 F120.00
G01 X29.6341 Y26.1812 F120.00
G01 X29.6502 Y26.1883 F120.00
G01 X29.7167 Y26.2198 F120.00
G01 X29.7324 Y26.2277 F120.00
G01 X29.7477 Y26.2363 F120.00
G01 X29.8108 Y26.2742 F120.00
G01 X29.8257 Y26.2836 F120.00
G01 X29.8401 Y26.2937 F120.00
G01 X29.8992 Y26.3375 F120.00
G01 X29.9130 Y26.3483 F120.00
G01 X29.9263 Y26.3598 F120.00
G01 X29.9809 Y26.4093 F120.00
G01 X29.9936 Y26.4214 F120.00
G01 X30.0057 Y26.4341 F120.00
G01 X30.0552 Y26.4887 F120.00
G01 X30.0667 Y26.5020 F120.00
G01 X30.0775 Y26.5158 F120.00
G01 X30.1213 Y26.5749 F120.00
G01 X30.1314 Y26.5893 F120.00
G01 X30.1408 Y26.6042 F120.00
G01 X30.1787 Y26.6673 F120.00
G01 X30.1873 Y26.6826 F120.00
G01 X30.1952 Y26.6983 F120.00
G01 X30.2267 Y26.7648 F120.00
G01 X30.2338 Y26.7809 F120.00
G01 X30.2402 Y26.7973 F120.00
G01 X30.2650 Y26.8666 F120.00
G01 X30.2729 Y26.8918 F120.00
G01 X30.2931 Y26.9716 F120.00
G01 X30.2969 Y26.9888 F120.00
G01 X30.2999 Y27.0061 F120.00
G01 X30.3107 Y27.0789 F120.00
G01 X30.3136 Y27.1051 F120.00
G01 X30.3181 Y27.1962 F120.00
G01 X30.3181 Y27.7138 F120.00
G01 X30.3142 Y27.7961 F120.00
G01 X30.3129 Y27.8136 F120.00
G01 X30.3107 Y27.8311 F120.00
G01 X30.2999 Y27.9039 F120.00
G01 X30.2969 Y27.9212 F120.00
G01 X30.2931 Y27.9384 F120.00
G01 X30.2752 Y28.0097 F120.00
G01 X30.2705 Y28.0267 F120.00
G01 X30.2650 Y28.0434 F120.00
G01 X30.2402 Y28.1127 F120.00
G01 X30.2338 Y28.1291 F120.00
G01 X30.2267 Y28.1452 F120.00
G01 X30.1952 Y28.2117 F120.00
G01 X30.1831 Y28.2351 F120.00
G01 X30.1408 Y28.3058 F120.00
G01 X30.1314 Y28.3207 F120.00
G01 X30.1213 Y28.3351 F120.00
G01 X30.0721 Y28.4012 F120.00
G01 X30.0552 Y28.4213 F120.00
G01 X29.9998 Y28.4823 F120.00
G01 X29.9873 Y28.4948 F120.00
G01 X29.9434 Y28.5347 F120.00
G01 X29.9433 Y30.6388 F120.00
G01 X29.9411 Y30.6844 F120.00
G01 X29.9399 Y30.7019 F120.00
G01 X29.9377 Y30.7193 F120.00
G01 X29.9323 Y30.7558 F120.00
G01 X29.9275 Y30.7817 F120.00
G01 X29.9165 Y30.8259 F120.00
G01 X29.9092 Y30.8513 F120.00
G01 X29.8908 Y30.9025 F120.00
G01 X29.8804 Y30.9267 F120.00
G01 X29.8647 Y30.9600 F120.00
G01 X29.8568 Y30.9757 F120.00
G01 X29.8481 Y30.9910 F120.00
G01 X29.8292 Y31.0226 F120.00
G01 X29.8198 Y31.0374 F120.00
G01 X29.8097 Y31.0518 F120.00
G01 X29.7877 Y31.0814 F120.00
G01 X29.7769 Y31.0953 F120.00
G01 X29.7654 Y31.1086 F120.00
G01 X29.7407 Y31.1359 F120.00
G01 X29.7286 Y31.1486 F120.00
G01 X27.1886 Y33.6886 F120.00
G01 X27.1759 Y33.7007 F120.00
G01 X27.1486 Y33.7254 F120.00
G01 X27.1353 Y33.7369 F120.00
G01 X27.1214 Y33.7477 F120.00
G01 X27.0847 Y33.7748 F120.00
G01 X27.0701 Y33.7846 F120.00
G01 X27.0310 Y33.8081 F120.00
G01 X27.0157 Y33.8168 F120.00
G01 X27.0000 Y33.8247 F120.00
G01 X26.9667 Y33.8404 F120.00
G01 X26.9507 Y33.8476 F120.00
G01 X26.9343 Y33.8539 F120.00
G01 X26.8996 Y33.8663 F120.00
G01 X26.8829 Y33.8718 F120.00
G01 X26.8659 Y33.8765 F120.00
G01 X26.8302 Y33.8854 F120.00
G01 X26.8131 Y33.8893 F120.00
G01 X26.7958 Y33.8923 F120.00
G01 X26.7593 Y33.8977 F120.00
G01 X26.7331 Y33.9006 F120.00
G01 X26.6876 Y33.9030 F120.00
G01 X26.6700 Y33.9034 F120.00
G01 X8.2550 Y33.9034 F120.00
G01 X8.2374 Y33.9030 F120.00
G01 X8.1919 Y33.9006 F120.00
G01 X8.1744 Y33.8989 F120.00
G01 X8.1292 Y33.8923 F120.00
G01 X8.1119 Y33.8893 F120.00
G01 X8.0948 Y33.8854 F120.00
G01 X8.0591 Y33.8765 F120.00
G01 X8.0421 Y33.8718 F120.00
G01 X8.0254 Y33.8663 F120.00
G01 X7.9907 Y33.8539 F120.00
G01 X7.9743 Y33.8476 F120.00
G01 X7.9583 Y33.8404 F120.00
G01 X7.9250 Y33.8247 F120.00
G01 X7.9093 Y33.8168 F120.00
G01 X7.8940 Y33.8081 F120.00
G01 X7.8624 Y33.7892 F120.00
G01 X7.8476 Y33.7798 F120.00
G01 X7.8332 Y33.7697 F120.00
G01 X7.7966 Y33.7424 F120.00
G01 X7.7830 Y33.7313 F120.00
G01 X7.7491 Y33.7007 F120.00
G01 X7.7364 Y33.6886 F120.00
G01 X6.4296 Y32.3817 F120.00
G01 X6.3676 Y32.3848 F120.00
G01 X6.3500 Y32.3852 F120.00
G01 X6.3324 Y32.3848 F120.00
G01 X6.2577 Y32.3811 F120.00
G01 X6.2402 Y32.3798 F120.00
G01 X6.2228 Y32.3777 F120.00
G01 X6.1488 Y32.3667 F120.00
G01 X6.1315 Y32.3637 F120.00
G01 X6.1143 Y32.3598 F120.00
G01 X6.0418 Y32.3417 F120.00
G01 X6.0248 Y32.3370 F120.00
G01 X6.0081 Y32.3314 F120.00
G01 X5.9377 Y32.3063 F120.00
G01 X5.9213 Y32.2999 F120.00
G01 X5.9052 Y32.2928 F120.00
G01 X5.8478 Y32.2656 F120.00
G01 X7.9238 Y34.3416 F120.00
G01 X27.0012 Y34.3416 F120.00
G01 X31.0166 Y30.3262 F120.00
G01 X31.0166 Y28.5347 F120.00
G01 X30.9727 Y28.4948 F120.00
G01 X30.9602 Y28.4823 F120.00
G01 X30.9048 Y28.4213 F120.00
G01 X30.8879 Y28.4012 F120.00
G01 X30.8387 Y28.3351 F120.00
G01 X30.8286 Y28.3207 F120.00
G01 X30.8192 Y28.3058 F120.00
G01 X30.7769 Y28.2351 F120.00
G01 X30.7648 Y28.2117 F120.00
G01 X30.7333 Y28.1452 F120.00
G01 X30.7262 Y28.1291 F120.00
G01 X30.7198 Y28.1127 F120.00
G01 X30.6950 Y28.0434 F120.00
G01 X30.6895 Y28.0267 F120.00
G01 X30.6848 Y28.0097 F120.00
G01 X30.6669 Y27.9384 F120.00
G01 X30.6631 Y27.9212 F120.00
G01 X30.6601 Y27.9039 F120.00
G01 X30.6493 Y27.8311 F120.00
G01 X30.6471 Y27.8136 F120.00
G01 X30.6458 Y27.7961 F120.00
G01 X30.6419 Y27.7138 F120.00
G01 X30.6419 Y27.1962 F120.00
G01 X30.6464 Y27.1051 F120.00
G01 X30.6493 Y27.0789 F120.00
G01 X30.6601 Y27.0061 F120.00
G01 X30.6631 Y26.9888 F120.00
G01 X30.6669 Y26.9716 F120.00
G01 X30.6871 Y26.8918 F120.00
G01 X30.6950 Y26.8666 F120.00
G01 X30.7198 Y26.7973 F120.00
G01 X30.7262 Y26.7809 F120.00
G01 X30.7333 Y26.7648 F120.00
G01 X30.7648 Y26.6983 F120.00
G01 X30.7727 Y26.6826 F120.00
G01 X30.7813 Y26.6673 F120.00
G01 X30.8192 Y26.6042 F120.00
G01 X30.8286 Y26.5893 F120.00
G01 X30.8387 Y26.5749 F120.00
G01 X30.8825 Y26.5158 F120.00
G01 X30.8933 Y26.5020 F120.00
G01 X30.9048 Y26.4887 F120.00
G01 X30.9543 Y26.4341 F120.00
G01 X30.9664 Y26.4214 F120.00
G01 X30.9791 Y26.4093 F120.00
G01 X31.0337 Y26.3598 F120.00
G01 X31.0470 Y26.3483 F120.00
G01 X31.0608 Y26.3375 F120.00
G01 X31.1199 Y26.2937 F120.00
G01 X31.1343 Y26.2836 F120.00
G01 X31.1492 Y26.2742 F120.00
G01 X31.2123 Y26.2363 F120.00
G01 X31.2276 Y26.2277 F120.00
G01 X31.2433 Y26.2198 F120.00
G01 X31.3178 Y26.1846 F120.00
G01 X31.3423 Y26.1748 F120.00
G01 X31.4116 Y26.1500 F120.00
G01 X31.4283 Y26.1445 F120.00
G01 X31.4453 Y26.1398 F120.00
G01 X31.5166 Y26.1219 F120.00
G01 X31.5424 Y26.1165 F120.00
G01 X31.6326 Y26.1031 F120.00
G01 X31.6589 Y26.1008 F120.00
G01 X31.7324 Y26.0972 F120.00
G01 X31.7500 Y26.0968 F120.00
G01 X31.7676 Y26.0972 F120.00
G01 X31.8411 Y26.1008 F120.00
G01 X31.8586 Y26.1021 F120.00
G01 X31.8761 Y26.1043 F120.00
G01 X31.9489 Y26.1151 F120.00
G01 X31.9662 Y26.1181 F120.00
G01 X31.9834 Y26.1219 F120.00
G01 X32.0547 Y26.1398 F120.00
G01 X32.0717 Y26.1445 F120.00
G01 X32.0884 Y26.1500 F120.00
G01 X32.1577 Y26.1748 F120.00
G01 X32.1741 Y26.1812 F120.00
G01 X32.1902 Y26.1883 F120.00
G01 X32.2567 Y26.2198 F120.00
G01 X32.2724 Y26.2277 F120.00
G01 X32.2877 Y26.2363 F120.00
G01 X32.3508 Y26.2742 F120.00
G01 X32.3657 Y26.2836 F120.00
G01 X32.3801 Y26.2937 F120.00
G01 X32.4392 Y26.3375 F120.00
G01 X32.4530 Y26.3483 F120.00
G01 X32.4663 Y26.3598 F120.00
G01 X32.5209 Y26.4093 F120.00
G01 X32.5336 Y26.4214 F120.00
G01 X32.5457 Y26.4341 F120.00
G01 X32.5952 Y26.4887 F120.00
G01 X32.6067 Y26.5020 F120.00
G01 X32.6175 Y26.5158 F120.00
G01 X32.6613 Y26.5749 F120.00
G01 X32.6714 Y26.5893 F120.00
G01 X32.6808 Y26.6042 F120.00
G01 X32.7187 Y26.6673 F120.00
G01 X32.7273 Y26.6826 F120.00
G01 X32.7352 Y26.6983 F120.00
G01 X32.7667 Y26.7648 F120.00
G01 X32.7738 Y26.7809 F120.00
G01 X32.7802 Y26.7973 F120.00
G01 X32.8050 Y26.8666 F120.00
G01 X32.8105 Y26.8833 F120.00
G01 X32.8152 Y26.9003 F120.00
G01 X32.8351 Y26.9802 F120.00
G01 X32.8399 Y27.0061 F120.00
G01 X32.8507 Y27.0789 F120.00
G01 X32.8529 Y27.0964 F120.00
G01 X32.8542 Y27.1139 F120.00
G01 X32.8578 Y27.1874 F120.00
G01 X32.8582 Y27.2050 F120.00
G01 X32.8582 Y27.7050 F120.00
G01 X32.8578 Y27.7226 F120.00
G01 X32.8536 Y27.8049 F120.00
G01 X32.8507 Y27.8311 F120.00
G01 X32.8399 Y27.9039 F120.00
G01 X32.8369 Y27.9212 F120.00
G01 X32.8331 Y27.9384 F120.00
G01 X32.8152 Y28.0097 F120.00
G01 X32.8105 Y28.0267 F120.00
G01 X32.8050 Y28.0434 F120.00
G01 X32.7802 Y28.1127 F120.00
G01 X32.7704 Y28.1372 F120.00
G01 X32.7352 Y28.2117 F120.00
G01 X32.7273 Y28.2274 F120.00
G01 X32.7187 Y28.2427 F120.00
G01 X32.6762 Y28.3133 F120.00
G01 X32.6613 Y28.3351 F120.00
G01 X32.6175 Y28.3942 F120.00
G01 X32.6010 Y28.4148 F120.00
G01 X32.5457 Y28.4759 F120.00
G01 X32.5336 Y28.4886 F120.00
G01 X32.5209 Y28.5007 F120.00
G01 X32.4834 Y28.5347 F120.00
G01 X32.4833 Y30.6388 F120.00
G01 X32.4811 Y30.6844 F120.00
G01 X32.4799 Y30.7019 F120.00
G01 X32.4777 Y30.7193 F120.00
G01 X32.4723 Y30.7558 F120.00
G01 X32.4693 Y30.7731 F120.00
G01 X32.4654 Y30.7902 F120.00
G01 X32.4565 Y30.8259 F120.00
G01 X32.4518 Y30.8429 F120.00
G01 X32.4463 Y30.8596 F120.00
G01 X32.4339 Y30.8943 F120.00
G01 X32.4276 Y30.9107 F120.00
G01 X32.4204 Y30.9267 F120.00
G01 X32.4047 Y30.9600 F120.00
G01 X32.3968 Y30.9757 F120.00
G01 X32.3881 Y30.9910 F120.00
G01 X32.3692 Y31.0226 F120.00
G01 X32.3598 Y31.0374 F120.00
G01 X32.3497 Y31.0518 F120.00
G01 X32.3277 Y31.0814 F120.00
G01 X32.3169 Y31.0953 F120.00
G01 X32.3054 Y31.1086 F120.00
G01 X32.2807 Y31.1359 F120.00
G01 X32.2686 Y31.1486 F120.00
G01 X27.8445 Y35.5727 F120.00
G01 X27.8646 Y35.5836 F120.00
G01 X27.9248 Y35.6190 F120.00
G01 X27.9399 Y35.6284 F120.00
G01 X27.9545 Y35.6386 F120.00
G01 X27.9754 Y35.6551 F120.00
G01 X27.9887 Y35.6670 F120.00
G01 X28.0013 Y35.6795 F120.00
G01 X28.0191 Y35.6994 F120.00
G01 X28.0353 Y35.7206 F120.00
G01 X28.0453 Y35.7353 F120.00
G01 X28.0544 Y35.7506 F120.00
G01 X28.0628 Y35.7662 F120.00
G01 X28.0983 Y35.8366 F120.00
G01 X28.1055 Y35.8528 F120.00
G01 X28.1148 Y35.8778 F120.00
G01 X28.1199 Y35.8949 F120.00
G01 X28.1251 Y35.9164 F120.00
G01 X33.5566 Y30.4850 F120.00
G01 X33.5566 Y28.5347 F120.00
G01 X33.5127 Y28.4948 F120.00
G01 X33.5002 Y28.4823 F120.00
G01 X33.4448 Y28.4213 F120.00
G01 X33.4279 Y28.4012 F120.00
G01 X33.3787 Y28.3351 F120.00
G01 X33.3686 Y28.3207 F120.00
G01 X33.3592 Y28.3058 F120.00
G01 X33.3169 Y28.2351 F120.00
G01 X33.3048 Y28.2117 F120.00
G01 X33.2733 Y28.1452 F120.00
G01 X33.2662 Y28.1291 F120.00
G01 X33.2598 Y28.1127 F120.00
G01 X33.2350 Y28.0434 F120.00
G01 X33.2295 Y28.0267 F120.00
G01 X33.2248 Y28.0097 F120.00
G01 X33.2069 Y27.9384 F120.00
G01 X33.2031 Y27.9212 F120.00
G01 X33.2001 Y27.9039 F120.00
G01 X33.1893 Y27.8311 F120.00
G01 X33.1871 Y27.8136 F120.00
G01 X33.1858 Y27.7961 F120.00
G01 X33.1819 Y27.7138 F120.00
G01 X33.1819 Y27.1962 F120.00
G01 X33.1858 Y27.1139 F120.00
G01 X33.1871 Y27.0964 F120.00
G01 X33.1893 Y27.0789 F120.00
G01 X33.2001 Y27.0061 F120.00
G01 X33.2031 Y26.9888 F120.00
G01 X33.2069 Y26.9716 F120.00
G01 X33.2248 Y26.9003 F120.00
G01 X33.2322 Y26.8749 F120.00
G01 X33.2629 Y26.7891 F120.00
G01 X33.2733 Y26.7648 F120.00
G01 X33.3048 Y26.6983 F120.00
G01 X33.3127 Y26.6826 F120.00
G01 X33.3213 Y26.6673 F120.00
G01 X33.3592 Y26.6042 F120.00
G01 X33.3686 Y26.5893 F120.00
G01 X33.3787 Y26.5749 F120.00
G01 X33.4225 Y26.5158 F120.00
G01 X33.4333 Y26.5020 F120.00
G01 X33.4448 Y26.4887 F120.00
G01 X33.4943 Y26.4341 F120.00
G01 X33.5064 Y26.4214 F120.00
G01 X33.5191 Y26.4093 F120.00
G01 X33.5737 Y26.3598 F120.00
G01 X33.5870 Y26.3483 F120.00
G01 X33.6008 Y26.3375 F120.00
G01 X33.6599 Y26.2937 F120.00
G01 X33.6743 Y26.2836 F120.00
G01 X33.6892 Y26.2742 F120.00
G01 X33.7599 Y26.2319 F120.00
G01 X33.7833 Y26.2198 F120.00
G01 X33.8498 Y26.1883 F120.00
G01 X33.8659 Y26.1812 F120.00
G01 X33.8823 Y26.1748 F120.00
G01 X33.9516 Y26.1500 F120.00
G01 X33.9683 Y26.1445 F120.00
G01 X33.9853 Y26.1398 F120.00
G01 X34.0566 Y26.1219 F120.00
G01 X34.0738 Y26.1181 F120.00
G01 X34.0911 Y26.1151 F120.00
G01 X34.1639 Y26.1043 F120.00
G01 X34.1901 Y26.1014 F120.00
G01 X34.2812 Y26.0969 F120.00
G01 X34.3076 Y26.0972 F120.00
G01 X34.3811 Y26.1008 F120.00
G01 X34.3986 Y26.1021 F120.00
G01 X34.4161 Y26.1043 F120.00
G01 X34.4889 Y26.1151 F120.00
G01 X34.5062 Y26.1181 F120.00
G01 X34.5234 Y26.1219 F120.00
G01 X34.5947 Y26.1398 F120.00
G01 X34.6117 Y26.1445 F120.00
G01 X34.6284 Y26.1500 F120.00
G01 X34.6977 Y26.1748 F120.00
G01 X34.7141 Y26.1812 F120.00
G01 X34.7302 Y26.1883 F120.00
G01 X34.7967 Y26.2198 F120.00
G01 X34.8124 Y26.2277 F120.00
G01 X34.8277 Y26.2363 F120.00
G01 X34.8908 Y26.2742 F120.00
G01 X34.9057 Y26.2836 F120.00
G01 X34.9201 Y26.2937 F120.00
G01 X34.9792 Y26.3375 F120.00
G01 X34.9930 Y26.3483 F120.00
G01 X35.0063 Y26.3598 F120.00
G01 X35.0609 Y26.4093 F120.00
G01 X35.0736 Y26.4214 F120.00
G01 X35.0857 Y26.4341 F120.00
G01 X35.1352 Y26.4887 F120.00
G01 X35.1467 Y26.5020 F120.00
G01 X35.1575 Y26.5158 F120.00
G01 X35.2013 Y26.5749 F120.00
G01 X35.2114 Y26.5893 F120.00
G01 X35.2208 Y26.6042 F120.00
G01 X35.2587 Y26.6673 F120.00
G01 X35.2714 Y26.6904 F120.00
G01 X35.3067 Y26.7648 F120.00
G01 X35.3138 Y26.7809 F120.00
G01 X35.3202 Y26.7973 F120.00
G01 X35.3478 Y26.8749 F120.00
G01 X35.3552 Y26.9003 F120.00
G01 X35.3731 Y26.9716 F120.00
G01 X35.3769 Y26.9888 F120.00
G01 X35.3799 Y27.0061 F120.00
G01 X35.3907 Y27.0789 F120.00
G01 X35.3929 Y27.0964 F120.00
G01 X35.3942 Y27.1139 F120.00
G01 X35.3978 Y27.1874 F120.00
G01 X35.3982 Y27.2050 F120.00
G01 X35.3982 Y27.7050 F120.00
G01 X35.3978 Y27.7226 F120.00
G01 X35.3942 Y27.7961 F120.00
G01 X35.3929 Y27.8136 F120.00
G01 X35.3907 Y27.8311 F120.00
G01 X35.3799 Y27.9039 F120.00
G01 X35.3769 Y27.9212 F120.00
G01 X35.3731 Y27.9384 F120.00
G01 X35.3552 Y28.0097 F120.00
G01 X35.3505 Y28.0267 F120.00
G01 X35.3450 Y28.0434 F120.00
G01 X35.3202 Y28.1127 F120.00
G01 X35.3104 Y28.1372 F120.00
G01 X35.2752 Y28.2117 F120.00
G01 X35.2673 Y28.2274 F120.00
G01 X35.2587 Y28.2427 F120.00
G01 X35.2208 Y28.3058 F120.00
G01 X35.2065 Y28.3279 F120.00
G01 X35.1521 Y28.4012 F120.00
G01 X35.1352 Y28.4213 F120.00
G01 X35.0857 Y28.4759 F120.00
G01 X35.0736 Y28.4886 F120.00
G01 X35.0609 Y28.5007 F120.00
G01 X35.0234 Y28.5347 F120.00
G01 X35.0234 Y30.7888 F120.00
G01 X35.0230 Y30.8063 F120.00
G01 X35.0211 Y30.8431 F120.00
G01 X35.0199 Y30.8606 F120.00
G01 X35.0177 Y30.8781 F120.00
G01 X35.0109 Y30.9232 F120.00
G01 X35.0054 Y30.9490 F120.00
G01 X34.9943 Y30.9932 F120.00
G01 X34.9892 Y31.0100 F120.00
G01 X34.9739 Y31.0530 F120.00
G01 X34.9676 Y31.0694 F120.00
G01 X34.9604 Y31.0855 F120.00
G01 X34.9447 Y31.1188 F120.00
G01 X34.9368 Y31.1345 F120.00
G01 X34.9281 Y31.1498 F120.00
G01 X34.9046 Y31.1888 F120.00
G01 X34.8948 Y31.2034 F120.00
G01 X34.8677 Y31.2401 F120.00
G01 X34.8569 Y31.2540 F120.00
G01 X34.8454 Y31.2673 F120.00
G01 X34.8207 Y31.2946 F120.00
G01 X34.8086 Y31.3073 F120.00
G01 X22.2673 Y43.8486 F120.00
G01 X22.2546 Y43.8607 F120.00
G01 X22.2273 Y43.8854 F120.00
G01 X22.2140 Y43.8969 F120.00
G01 X22.2001 Y43.9077 F120.00
G01 X22.1634 Y43.9348 F120.00
G01 X22.1413 Y43.9492 F120.00
G01 X22.1022 Y43.9726 F120.00
G01 X22.0867 Y43.9808 F120.00
G01 X22.0595 Y43.9938 F120.00
G01 X22.0751 Y44.0127 F120.00
G01 X22.1270 Y44.0834 F120.00
G01 X22.1414 Y44.1059 F120.00
G01 X22.1500 Y44.1214 F120.00
G01 X22.1579 Y44.1374 F120.00
G01 X22.1650 Y44.1537 F120.00
G01 X22.1741 Y44.1788 F120.00
G01 X22.1813 Y44.2045 F120.00
G01 X22.1850 Y44.2219 F120.00
G01 X22.1873 Y44.2356 F120.00
G01 X36.0966 Y30.3262 F120.00
G01 X36.0966 Y28.5347 F120.00
G01 X36.0591 Y28.5007 F120.00
G01 X36.0464 Y28.4886 F120.00
G01 X36.0343 Y28.4759 F120.00
G01 X35.9790 Y28.4148 F120.00
G01 X35.9625 Y28.3942 F120.00
G01 X35.9187 Y28.3351 F120.00
G01 X35.9038 Y28.3133 F120.00
G01 X35.8613 Y28.2427 F120.00
G01 X35.8527 Y28.2274 F120.00
G01 X35.8448 Y28.2117 F120.00
G01 X35.8133 Y28.1452 F120.00
G01 X35.8062 Y28.1291 F120.00
G01 X35.7998 Y28.1127 F120.00
G01 X35.7750 Y28.0434 F120.00
G01 X35.7671 Y28.0182 F120.00
G01 X35.7469 Y27.9384 F120.00
G01 X35.7415 Y27.9126 F120.00
G01 X35.7281 Y27.8224 F120.00
G01 X35.7258 Y27.7961 F120.00
G01 X35.7222 Y27.7226 F120.00
G01 X35.7218 Y27.7050 F120.00
G01 X35.7218 Y27.2050 F120.00
G01 X35.7222 Y27.1874 F120.00
G01 X35.7258 Y27.1139 F120.00
G01 X35.7271 Y27.0964 F120.00
G01 X35.7293 Y27.0789 F120.00
G01 X35.7401 Y27.0061 F120.00
G01 X35.7431 Y26.9888 F120.00
G01 X35.7469 Y26.9716 F120.00
G01 X35.7648 Y26.9003 F120.00
G01 X35.7695 Y26.8833 F120.00
G01 X35.7750 Y26.8666 F120.00
G01 X35.7998 Y26.7973 F120.00
G01 X35.8062 Y26.7809 F120.00
G01 X35.8133 Y26.7648 F120.00
G01 X35.8486 Y26.6904 F120.00
G01 X35.8613 Y26.6673 F120.00
G01 X35.8992 Y26.6042 F120.00
G01 X35.9086 Y26.5893 F120.00
G01 X35.9187 Y26.5749 F120.00
G01 X35.9625 Y26.5158 F120.00
G01 X35.9790 Y26.4952 F120.00
G01 X36.0402 Y26.4277 F120.00
G01 X36.0591 Y26.4093 F120.00
G01 X36.1202 Y26.3540 F120.00
G01 X36.1408 Y26.3375 F120.00
G01 X36.1999 Y26.2937 F120.00
G01 X36.2143 Y26.2836 F120.00
G01 X36.2292 Y26.2742 F120.00
G01 X36.2923 Y26.2363 F120.00
G01 X36.3076 Y26.2277 F120.00
G01 X36.3233 Y26.2198 F120.00
G01 X36.3898 Y26.1883 F120.00
G01 X36.4059 Y26.1812 F120.00
G01 X36.4223 Y26.1748 F120.00
G01 X36.4916 Y26.1500 F120.00
G01 X36.5083 Y26.1445 F120.00
G01 X36.5253 Y26.1398 F120.00
G01 X36.5966 Y26.1219 F120.00
G01 X36.6138 Y26.1181 F120.00
G01 X36.6311 Y26.1151 F120.00
G01 X36.7039 Y26.1043 F120.00
G01 X36.7214 Y26.1021 F120.00
G01 X36.7389 Y26.1008 F120.00
G01 X36.8124 Y26.0972 F120.00
G01 X36.8300 Y26.0968 F120.00
G01 X36.8476 Y26.0972 F120.00
G01 X36.9211 Y26.1008 F120.00
G01 X36.9386 Y26.1021 F120.00
G01 X36.9561 Y26.1043 F120.00
G01 X37.0289 Y26.1151 F120.00
G01 X37.0462 Y26.1181 F120.00
G01 X37.0634 Y26.1219 F120.00
G01 X37.1347 Y26.1398 F120.00
G01 X37.1517 Y26.1445 F120.00
G01 X37.1684 Y26.1500 F120.00
G01 X37.2377 Y26.1748 F120.00
G01 X37.2541 Y26.1812 F120.00
G01 X37.2702 Y26.1883 F120.00
G01 X37.3367 Y26.2198 F120.00
G01 X37.3524 Y26.2277 F120.00
G01 X37.3677 Y26.2363 F120.00
G01 X37.4308 Y26.2742 F120.00
G01 X37.4457 Y26.2836 F120.00
G01 X37.4601 Y26.2937 F120.00
G01 X37.5192 Y26.3375 F120.00
G01 X37.5330 Y26.3483 F120.00
G01 X37.5463 Y26.3598 F120.00
G01 X37.6009 Y26.4093 F120.00
G01 X37.6136 Y26.4214 F120.00
G01 X37.6257 Y26.4341 F120.00
G01 X37.6752 Y26.4887 F120.00
G01 X37.6867 Y26.5020 F120.00
G01 X37.6975 Y26.5158 F120.00
G01 X37.7413 Y26.5749 F120.00
G01 X37.7514 Y26.5893 F120.00
G01 X37.7608 Y26.6042 F120.00
G01 X37.7987 Y26.6673 F120.00
G01 X37.8073 Y26.6826 F120.00
G01 X37.8152 Y26.6983 F120.00
G01 X37.8467 Y26.7648 F120.00
G01 X37.8538 Y26.7809 F120.00
G01 X37.8602 Y26.7973 F120.00
G01 X37.8850 Y26.8666 F120.00
G01 X37.8929 Y26.8918 F120.00
G01 X37.9151 Y26.9802 F120.00
G01 X37.9199 Y27.0061 F120.00
G01 X37.9307 Y27.0789 F120.00
G01 X37.9329 Y27.0964 F120.00
G01 X37.9342 Y27.1139 F120.00
G01 X37.9378 Y27.1874 F120.00
G01 X37.9382 Y27.2050 F120.00
G01 X37.9382 Y27.7050 F120.00
G01 X37.9378 Y27.7226 F120.00
G01 X37.9342 Y27.7961 F120.00
G01 X37.9319 Y27.8224 F120.00
G01 X37.9199 Y27.9039 F120.00
G01 X37.9169 Y27.9212 F120.00
G01 X37.9131 Y27.9384 F120.00
G01 X37.8952 Y28.0097 F120.00
G01 X37.8905 Y28.0267 F120.00
G01 X37.8850 Y28.0434 F120.00
G01 X37.8602 Y28.1127 F120.00
G01 X37.8538 Y28.1291 F120.00
G01 X37.8467 Y28.1452 F120.00
G01 X37.8114 Y28.2196 F120.00
G01 X37.7987 Y28.2427 F120.00
G01 X37.7608 Y28.3058 F120.00
G01 X37.7514 Y28.3207 F120.00
G01 X37.7413 Y28.3351 F120.00
G01 X37.6921 Y28.4012 F120.00
G01 X37.6752 Y28.4213 F120.00
G01 X37.6198 Y28.4823 F120.00
G01 X37.6073 Y28.4948 F120.00
G01 X37.5634 Y28.5347 F120.00
G01 X37.5634 Y30.6300 F120.00
G01 X37.5630 Y30.6476 F120.00
G01 X37.5611 Y30.6844 F120.00
G01 X37.5599 Y30.7019 F120.00
G01 X37.5577 Y30.7193 F120.00
G01 X37.5509 Y30.7644 F120.00
G01 X37.5475 Y30.7817 F120.00
G01 X37.5365 Y30.8259 F120.00
G01 X37.5318 Y30.8429 F120.00
G01 X37.5263 Y30.8596 F120.00
G01 X37.5108 Y30.9025 F120.00
G01 X37.5004 Y30.9267 F120.00
G01 X37.4808 Y30.9679 F120.00
G01 X37.4726 Y30.9834 F120.00
G01 X37.4492 Y31.0226 F120.00
G01 X37.4398 Y31.0374 F120.00
G01 X37.4297 Y31.0518 F120.00
G01 X37.4150 Y31.0715 F120.00
G01 X38.6366 Y29.8500 F120.00
G01 X38.6366 Y28.5347 F120.00
G01 X38.5991 Y28.5007 F120.00
G01 X38.5864 Y28.4886 F120.00
G01 X38.5743 Y28.4759 F120.00
G01 X38.5190 Y28.4148 F120.00
G01 X38.5025 Y28.3942 F120.00
G01 X38.4587 Y28.3351 F120.00
G01 X38.4438 Y28.3133 F120.00
G01 X38.4013 Y28.2427 F120.00
G01 X38.3927 Y28.2274 F120.00
G01 X38.3848 Y28.2117 F120.00
G01 X38.3533 Y28.1452 F120.00
G01 X38.3462 Y28.1291 F120.00
G01 X38.3398 Y28.1127 F120.00
G01 X38.3150 Y28.0434 F120.00
G01 X38.3071 Y28.0182 F120.00
G01 X38.2869 Y27.9384 F120.00
G01 X38.2815 Y27.9126 F120.00
G01 X38.2681 Y27.8224 F120.00
G01 X38.2658 Y27.7961 F120.00
G01 X38.2622 Y27.7226 F120.00
G01 X38.2618 Y27.7050 F120.00
G01 X38.2618 Y27.2050 F120.00
G01 X38.2622 Y27.1874 F120.00
G01 X38.2658 Y27.1139 F120.00
G01 X38.2671 Y27.0964 F120.00
G01 X38.2693 Y27.0789 F120.00
G01 X38.2801 Y27.0061 F120.00
G01 X38.2831 Y26.9888 F120.00
G01 X38.2869 Y26.9716 F120.00
G01 X38.3048 Y26.9003 F120.00
G01 X38.3095 Y26.8833 F120.00
G01 X38.3150 Y26.8666 F120.00
G01 X38.3398 Y26.7973 F120.00
G01 X38.3462 Y26.7809 F120.00
G01 X38.3533 Y26.7648 F120.00
G01 X38.3848 Y26.6983 F120.00
G01 X38.3969 Y26.6749 F120.00
G01 X38.4438 Y26.5967 F120.00
G01 X38.4587 Y26.5749 F120.00
G01 X38.5025 Y26.5158 F120.00
G01 X38.5133 Y26.5020 F120.00
G01 X38.5248 Y26.4887 F120.00
G01 X38.5743 Y26.4341 F120.00
G01 X38.5927 Y26.4152 F120.00
G01 X38.6537 Y26.3598 F120.00
G01 X38.6670 Y26.3483 F120.00
G01 X38.6808 Y26.3375 F120.00
G01 X38.7399 Y26.2937 F120.00
G01 X38.7543 Y26.2836 F120.00
G01 X38.7692 Y26.2742 F120.00
G01 X38.8323 Y26.2363 F120.00
G01 X38.8476 Y26.2277 F120.00
G01 X38.8633 Y26.2198 F120.00
G01 X38.9298 Y26.1883 F120.00
G01 X38.9459 Y26.1812 F120.00
G01 X38.9623 Y26.1748 F120.00
G01 X39.0316 Y26.1500 F120.00
G01 X39.0483 Y26.1445 F120.00
G01 X39.0653 Y26.1398 F120.00
G01 X39.1366 Y26.1219 F120.00
G01 X39.1538 Y26.1181 F120.00
G01 X39.1711 Y26.1151 F120.00
G01 X39.2439 Y26.1043 F120.00
G01 X39.2614 Y26.1021 F120.00
G01 X39.2789 Y26.1008 F120.00
G01 X39.3524 Y26.0972 F120.00
G01 X39.3700 Y26.0968 F120.00
G01 X39.3876 Y26.0972 F120.00
G01 X39.4611 Y26.1008 F120.00
G01 X39.4786 Y26.1021 F120.00
G01 X39.4961 Y26.1043 F120.00
G01 X39.5689 Y26.1151 F120.00
G01 X39.5862 Y26.1181 F120.00
G01 X39.6034 Y26.1219 F120.00
G01 X39.6747 Y26.1398 F120.00
G01 X39.6917 Y26.1445 F120.00
G01 X39.7084 Y26.1500 F120.00
G01 X39.7777 Y26.1748 F120.00
G01 X39.7941 Y26.1812 F120.00
G01 X39.8102 Y26.1883 F120.00
G01 X39.8767 Y26.2198 F120.00
G01 X39.8924 Y26.2277 F120.00
G01 X39.9077 Y26.2363 F120.00
G01 X39.9708 Y26.2742 F120.00
G01 X39.9857 Y26.2836 F120.00
G01 X40.0001 Y26.2937 F120.00
G01 X40.0592 Y26.3375 F120.00
G01 X40.0730 Y26.3483 F120.00
G01 X40.0863 Y26.3598 F120.00
G01 X40.1409 Y26.4093 F120.00
G01 X40.1536 Y26.4214 F120.00
G01 X40.1657 Y26.4341 F120.00
G01 X40.2152 Y26.4887 F120.00
G01 X40.2267 Y26.5020 F120.00
G01 X40.2375 Y26.5158 F120.00
G01 X40.2813 Y26.5749 F120.00
G01 X40.2914 Y26.5893 F120.00
G01 X40.3008 Y26.6042 F120.00
G01 X40.3387 Y26.6673 F120.00
G01 X40.3473 Y26.6826 F120.00
G01 X40.3552 Y26.6983 F120.00
G01 X40.3867 Y26.7648 F120.00
G01 X40.3938 Y26.7809 F120.00
G01 X40.4002 Y26.7973 F120.00
G01 X40.4250 Y26.8666 F120.00
G01 X40.4305 Y26.8833 F120.00
G01 X40.4352 Y26.9003 F120.00
G01 X40.4531 Y26.9716 F120.00
G01 X40.4569 Y26.9888 F120.00
G01 X40.4599 Y27.0061 F120.00
G01 X40.4707 Y27.0789 F120.00
G01 X40.4729 Y27.0964 F120.00
G01 X40.4742 Y27.1139 F120.00
G01 X40.4778 Y27.1874 F120.00
G01 X40.4782 Y27.2050 F120.00
G01 X40.4782 Y27.7050 F120.00
G01 X40.4778 Y27.7226 F120.00
G01 X40.4742 Y27.7961 F120.00
G01 X40.4719 Y27.8224 F120.00
G01 X40.4599 Y27.9039 F120.00
G01 X40.4569 Y27.9212 F120.00
G01 X40.4531 Y27.9384 F120.00
G01 X40.4352 Y28.0097 F120.00
G01 X40.4305 Y28.0267 F120.00
G01 X40.4250 Y28.0434 F120.00
G01 X40.4002 Y28.1127 F120.00
G01 X40.3938 Y28.1291 F120.00
G01 X40.3867 Y28.1452 F120.00
G01 X40.3514 Y28.2196 F120.00
G01 X40.3387 Y28.2427 F120.00
G01 X40.3008 Y28.3058 F120.00
G01 X40.2914 Y28.3207 F120.00
G01 X40.2813 Y28.3351 F120.00
G01 X40.2321 Y28.4012 F120.00
G01 X40.2152 Y28.4213 F120.00
G01 X40.1598 Y28.4823 F120.00
G01 X40.1473 Y28.4948 F120.00
G01 X40.1034 Y28.5347 F120.00
G01 X40.1034 Y30.1538 F120.00
G01 X40.1030 Y30.1713 F120.00
G01 X40.1006 Y30.2169 F120.00
G01 X40.0989 Y30.2344 F120.00
G01 X40.0923 Y30.2795 F120.00
G01 X40.0893 Y30.2968 F120.00
G01 X40.0854 Y30.3140 F120.00
G01 X40.0765 Y30.3497 F120.00
G01 X40.0718 Y30.3666 F120.00
G01 X40.0663 Y30.3833 F120.00
G01 X40.0508 Y30.4262 F120.00
G01 X40.0404 Y30.4505 F120.00
G01 X40.0208 Y30.4917 F120.00
G01 X40.0126 Y30.5072 F120.00
G01 X39.9892 Y30.5463 F120.00
G01 X39.9798 Y30.5612 F120.00
G01 X39.9697 Y30.5756 F120.00
G01 X39.9550 Y30.5953 F120.00
G01 X41.1766 Y29.3737 F120.00
G01 X41.1766 Y28.5347 F120.00
G01 X41.1327 Y28.4948 F120.00
G01 X41.1202 Y28.4823 F120.00
G01 X41.0648 Y28.4213 F120.00
G01 X41.0479 Y28.4012 F120.00
G01 X40.9987 Y28.3351 F120.00
G01 X40.9886 Y28.3207 F120.00
G01 X40.9792 Y28.3058 F120.00
G01 X40.9413 Y28.2427 F120.00
G01 X40.9286 Y28.2196 F120.00
G01 X40.8933 Y28.1452 F120.00
G01 X40.8862 Y28.1291 F120.00
G01 X40.8798 Y28.1127 F120.00
G01 X40.8550 Y28.0434 F120.00
G01 X40.8495 Y28.0267 F120.00
G01 X40.8448 Y28.0097 F120.00
G01 X40.8269 Y27.9384 F120.00
G01 X40.8231 Y27.9212 F120.00
G01 X40.8201 Y27.9039 F120.00
G01 X40.8093 Y27.8311 F120.00
G01 X40.8064 Y27.8049 F120.00
G01 X40.8022 Y27.7226 F120.00
G01 X40.8018 Y27.7050 F120.00
G01 X40.8018 Y27.2050 F120.00
G01 X40.8022 Y27.1874 F120.00
G01 X40.8058 Y27.1139 F120.00
G01 X40.8071 Y27.0964 F120.00
G01 X40.8093 Y27.0789 F120.00
G01 X40.8215 Y26.9974 F120.00
G01 X40.8269 Y26.9716 F120.00
G01 X40.8448 Y26.9003 F120.00
G01 X40.8495 Y26.8833 F120.00
G01 X40.8550 Y26.8666 F120.00
G01 X40.8798 Y26.7973 F120.00
G01 X40.8896 Y26.7728 F120.00
G01 X40.9286 Y26.6904 F120.00
G01 X40.9413 Y26.6673 F120.00
G01 X40.9838 Y26.5967 F120.00
G01 X40.9987 Y26.5749 F120.00
G01 X41.0425 Y26.5158 F120.00
G01 X41.0533 Y26.5020 F120.00
G01 X41.0648 Y26.4887 F120.00
G01 X41.1143 Y26.4341 F120.00
G01 X41.1264 Y26.4214 F120.00
G01 X41.1391 Y26.4093 F120.00
G01 X41.1937 Y26.3598 F120.00
G01 X41.2070 Y26.3483 F120.00
G01 X41.2208 Y26.3375 F120.00
G01 X41.2799 Y26.2937 F120.00
G01 X41.2943 Y26.2836 F120.00
G01 X41.3092 Y26.2742 F120.00
G01 X41.3723 Y26.2363 F120.00
G01 X41.3954 Y26.2236 F120.00
G01 X41.4778 Y26.1846 F120.00
G01 X41.5023 Y26.1748 F120.00
G01 X41.5716 Y26.1500 F120.00
G01 X41.5883 Y26.1445 F120.00
G01 X41.6053 Y26.1398 F120.00
G01 X41.6766 Y26.1219 F120.00
G01 X41.7024 Y26.1165 F120.00
G01 X41.7839 Y26.1043 F120.00
G01 X41.8014 Y26.1021 F120.00
G01 X41.8189 Y26.1008 F120.00
G01 X41.8924 Y26.0972 F120.00
G01 X41.9100 Y26.0968 F120.00
G01 X41.9276 Y26.0972 F120.00
G01 X42.0011 Y26.1008 F120.00
G01 X42.0186 Y26.1021 F120.00
G01 X42.0361 Y26.1043 F120.00
G01 X42.1089 Y26.1151 F120.00
G01 X42.1262 Y26.1181 F120.00
G01 X42.1434 Y26.1219 F120.00
G01 X42.2147 Y26.1398 F120.00
G01 X42.2317 Y26.1445 F120.00
G01 X42.2484 Y26.1500 F120.00
G01 X42.3177 Y26.1748 F120.00
G01 X42.3341 Y26.1812 F120.00
G01 X42.3502 Y26.1883 F120.00
G01 X42.4167 Y26.2198 F120.00
G01 X42.4324 Y26.2277 F120.00
G01 X42.4477 Y26.2363 F120.00
G01 X42.5108 Y26.2742 F120.00
G01 X42.5257 Y26.2836 F120.00
G01 X42.5401 Y26.2937 F120.00
G01 X42.5992 Y26.3375 F120.00
G01 X42.6130 Y26.3483 F120.00
G01 X42.6263 Y26.3598 F120.00
G01 X42.6809 Y26.4093 F120.00
G01 X42.6936 Y26.4214 F120.00
G01 X42.7057 Y26.4341 F120.00
G01 X42.7552 Y26.4887 F120.00
G01 X42.7667 Y26.5020 F120.00
G01 X42.7775 Y26.5158 F120.00
G01 X42.8213 Y26.5749 F120.00
G01 X42.8314 Y26.5893 F120.00
G01 X42.8408 Y26.6042 F120.00
G01 X42.8787 Y26.6673 F120.00
G01 X42.8873 Y26.6826 F120.00
G01 X42.8952 Y26.6983 F120.00
G01 X42.9267 Y26.7648 F120.00
G01 X42.9338 Y26.7809 F120.00
G01 X42.9402 Y26.7973 F120.00
G01 X42.9650 Y26.8666 F120.00
G01 X42.9729 Y26.8918 F120.00
G01 X42.9931 Y26.9716 F120.00
G01 X42.9985 Y26.9974 F120.00
G01 X43.0119 Y27.0876 F120.00
G01 X43.0142 Y27.1139 F120.00
G01 X43.0178 Y27.1874 F120.00
G01 X43.0182 Y27.2050 F120.00
G01 X43.0182 Y27.7050 F120.00
G01 X43.0178 Y27.7226 F120.00
G01 X43.0142 Y27.7961 F120.00
G01 X43.0129 Y27.8136 F120.00
G01 X43.0107 Y27.8311 F120.00
G01 X42.9999 Y27.9039 F120.00
G01 X42.9951 Y27.9298 F120.00
G01 X42.9752 Y28.0097 F120.00
G01 X42.9678 Y28.0351 F120.00
G01 X42.9371 Y28.1209 F120.00
G01 X42.9267 Y28.1452 F120.00
G01 X42.8952 Y28.2117 F120.00
G01 X42.8831 Y28.2351 F120.00
G01 X42.8362 Y28.3133 F120.00
G01 X42.8213 Y28.3351 F120.00
G01 X42.7721 Y28.4012 F120.00
G01 X42.7552 Y28.4213 F120.00
G01 X42.7057 Y28.4759 F120.00
G01 X42.6936 Y28.4886 F120.00
G01 X42.6809 Y28.5007 F120.00
G01 X42.6434 Y28.5347 F120.00
G01 X42.6434 Y29.6775 F120.00
G01 X42.6430 Y29.6951 F120.00
G01 X42.6411 Y29.7319 F120.00
G01 X42.6399 Y29.7494 F120.00
G01 X42.6377 Y29.7668 F120.00
G01 X42.6323 Y29.8033 F120.00
G01 X42.6293 Y29.8206 F120.00
G01 X42.6254 Y29.8377 F120.00
G01 X42.6165 Y29.8734 F120.00
G01 X42.6092 Y29.8988 F120.00
G01 X42.5939 Y29.9418 F120.00
G01 X42.5876 Y29.9582 F120.00
G01 X42.5804 Y29.9742 F120.00
G01 X42.5647 Y30.0075 F120.00
G01 X42.5568 Y30.0232 F120.00
G01 X42.5481 Y30.0385 F120.00
G01 X42.5292 Y30.0701 F120.00
G01 X42.5148 Y30.0922 F120.00
G01 X42.4877 Y30.1289 F120.00
G01 X42.4769 Y30.1428 F120.00
G01 X42.4654 Y30.1561 F120.00
G01 X42.4407 Y30.1834 F120.00
G01 X42.4286 Y30.1961 F120.00
G01 X24.2284 Y48.3963 F120.00
G01 X24.2284 Y48.5457 F120.00
G01 X24.2464 Y48.5264 F120.00
G01 X43.7166 Y29.0562 F120.00
G01 X43.7166 Y28.5347 F120.00
G01 X43.6791 Y28.5007 F120.00
G01 X43.6664 Y28.4886 F120.00
G01 X43.6543 Y28.4759 F120.00
G01 X43.6048 Y28.4213 F120.00
G01 X43.5879 Y28.4012 F120.00
G01 X43.5335 Y28.3279 F120.00
G01 X43.5192 Y28.3058 F120.00
G01 X43.4813 Y28.2427 F120.00
G01 X43.4727 Y28.2274 F120.00
G01 X43.4648 Y28.2117 F120.00
G01 X43.4296 Y28.1372 F120.00
G01 X43.4198 Y28.1127 F120.00
G01 X43.3950 Y28.0434 F120.00
G01 X43.3895 Y28.0267 F120.00
G01 X43.3848 Y28.0097 F120.00
G01 X43.3669 Y27.9384 F120.00
G01 X43.3631 Y27.9212 F120.00
G01 X43.3601 Y27.9039 F120.00
G01 X43.3493 Y27.8311 F120.00
G01 X43.3471 Y27.8136 F120.00
G01 X43.3458 Y27.7961 F120.00
G01 X43.3419 Y27.7138 F120.00
G01 X43.3419 Y27.1962 F120.00
G01 X43.3458 Y27.1139 F120.00
G01 X43.3481 Y27.0876 F120.00
G01 X43.3615 Y26.9974 F120.00
G01 X43.3669 Y26.9716 F120.00
G01 X43.3848 Y26.9003 F120.00
G01 X43.3895 Y26.8833 F120.00
G01 X43.3950 Y26.8666 F120.00
G01 X43.4198 Y26.7973 F120.00
G01 X43.4262 Y26.7809 F120.00
G01 X43.4333 Y26.7648 F120.00
G01 X43.4648 Y26.6983 F120.00
G01 X43.4727 Y26.6826 F120.00
G01 X43.4813 Y26.6673 F120.00
G01 X43.5192 Y26.6042 F120.00
G01 X43.5286 Y26.5893 F120.00
G01 X43.5387 Y26.5749 F120.00
G01 X43.5825 Y26.5158 F120.00
G01 X43.5933 Y26.5020 F120.00
G01 X43.6048 Y26.4887 F120.00
G01 X43.6602 Y26.4277 F120.00
G01 X43.6791 Y26.4093 F120.00
G01 X43.7337 Y26.3598 F120.00
G01 X43.7470 Y26.3483 F120.00
G01 X43.7608 Y26.3375 F120.00
G01 X43.8199 Y26.2937 F120.00
G01 X43.8343 Y26.2836 F120.00
G01 X43.8492 Y26.2742 F120.00
G01 X43.9123 Y26.2363 F120.00
G01 X43.9276 Y26.2277 F120.00
G01 X43.9433 Y26.2198 F120.00
G01 X44.0098 Y26.1883 F120.00
G01 X44.0259 Y26.1812 F120.00
G01 X44.0423 Y26.1748 F120.00
G01 X44.1116 Y26.1500 F120.00
G01 X44.1283 Y26.1445 F120.00
G01 X44.1453 Y26.1398 F120.00
G01 X44.2166 Y26.1219 F120.00
G01 X44.2338 Y26.1181 F120.00
G01 X44.2511 Y26.1151 F120.00
G01 X44.3239 Y26.1043 F120.00
G01 X44.3414 Y26.1021 F120.00
G01 X44.3589 Y26.1008 F120.00
G01 X44.4324 Y26.0972 F120.00
G01 X44.4500 Y26.0968 F120.00
G01 X44.4676 Y26.0972 F120.00
G01 X44.5411 Y26.1008 F120.00
G01 X44.5586 Y26.1021 F120.00
G01 X44.5761 Y26.1043 F120.00
G01 X44.6489 Y26.1151 F120.00
G01 X44.6662 Y26.1181 F120.00
G01 X44.6834 Y26.1219 F120.00
G01 X44.7547 Y26.1398 F120.00
G01 X44.7717 Y26.1445 F120.00
G01 X44.7884 Y26.1500 F120.00
G01 X44.8577 Y26.1748 F120.00
G01 X44.8741 Y26.1812 F120.00
G01 X44.8902 Y26.1883 F120.00
G01 X44.9567 Y26.2198 F120.00
G01 X44.9724 Y26.2277 F120.00
G01 X44.9877 Y26.2363 F120.00
G01 X45.0508 Y26.2742 F120.00
G01 X45.0657 Y26.2836 F120.00
G01 X45.0801 Y26.2937 F120.00
G01 X45.1392 Y26.3375 F120.00
G01 X45.1530 Y26.3483 F120.00
G01 X45.1663 Y26.3598 F120.00
G01 X45.2273 Y26.4152 F120.00
G01 X45.2457 Y26.4341 F120.00
G01 X45.2952 Y26.4887 F120.00
G01 X45.3067 Y26.5020 F120.00
G01 X45.3175 Y26.5158 F120.00
G01 X45.3613 Y26.5749 F120.00
G01 X45.3714 Y26.5893 F120.00
G01 X45.3808 Y26.6042 F120.00
G01 X45.4187 Y26.6673 F120.00
G01 X45.4273 Y26.6826 F120.00
G01 X45.4352 Y26.6983 F120.00
G01 X45.4667 Y26.7648 F120.00
G01 X45.4738 Y26.7809 F120.00
G01 X45.4802 Y26.7973 F120.00
G01 X45.5050 Y26.8666 F120.00
G01 X45.5105 Y26.8833 F120.00
G01 X45.5152 Y26.9003 F120.00
G01 X45.5351 Y26.9802 F120.00
G01 X45.5399 Y27.0061 F120.00
G01 X45.5507 Y27.0789 F120.00
G01 X45.5529 Y27.0964 F120.00
G01 X45.5542 Y27.1139 F120.00
G01 X45.5581 Y27.1962 F120.00
G01 X45.5582 Y27.7050 F120.00
G01 X45.5578 Y27.7226 F120.00
G01 X45.5542 Y27.7961 F120.00
G01 X45.5519 Y27.8224 F120.00
G01 X45.5385 Y27.9126 F120.00
G01 X45.5331 Y27.9384 F120.00
G01 X45.5129 Y28.0182 F120.00
G01 X45.5050 Y28.0434 F120.00
G01 X45.4802 Y28.1127 F120.00
G01 X45.4738 Y28.1291 F120.00
G01 X45.4667 Y28.1452 F120.00
G01 X45.4314 Y28.2196 F120.00
G01 X45.4187 Y28.2427 F120.00
G01 X45.3808 Y28.3058 F120.00
G01 X45.3714 Y28.3207 F120.00
G01 X45.3613 Y28.3351 F120.00
G01 X45.3121 Y28.4012 F120.00
G01 X45.2952 Y28.4213 F120.00
G01 X45.2398 Y28.4823 F120.00
G01 X45.2273 Y28.4948 F120.00
G01 X45.1834 Y28.5347 F120.00
G01 X45.1834 Y29.3600 F120.00
G01 X45.1830 Y29.3776 F120.00
G01 X45.1811 Y29.4144 F120.00
G01 X45.1789 Y29.4406 F120.00
G01 X45.1723 Y29.4858 F120.00
G01 X45.1693 Y29.5031 F120.00
G01 X45.1654 Y29.5202 F120.00
G01 X45.1565 Y29.5559 F120.00
G01 X45.1492 Y29.5813 F120.00
G01 X45.1339 Y29.6243 F120.00
G01 X45.1276 Y29.6407 F120.00
G01 X45.1204 Y29.6567 F120.00
G01 X45.1008 Y29.6979 F120.00
G01 X45.0881 Y29.7210 F120.00
G01 X45.0692 Y29.7526 F120.00
G01 X45.0598 Y29.7674 F120.00
G01 X45.0497 Y29.7818 F120.00
G01 X45.0224 Y29.8184 F120.00
G01 X45.0054 Y29.8386 F120.00
G01 X44.9807 Y29.8659 F120.00
G01 X44.9686 Y29.8786 F120.00
G01 X25.4984 Y49.3488 F120.00
G01 X25.4984 Y51.2013 F120.00
G01 X25.5064 Y51.1955 F120.00
G01 X25.5212 Y51.1856 F120.00
G01 X25.5443 Y51.1721 F120.00
G01 X25.5682 Y51.1605 F120.00
G01 X25.5930 Y51.1506 F120.00
G01 X25.6185 Y51.1426 F120.00
G01 X25.6445 Y51.1365 F120.00
G01 X25.6620 Y51.1336 F120.00
G01 X25.7152 Y51.1259 F120.00
G01 X25.6969 Y51.0951 F120.00
G01 X25.6886 Y51.0796 F120.00
G01 X25.6496 Y50.9972 F120.00
G01 X25.6398 Y50.9727 F120.00
G01 X25.6150 Y50.9034 F120.00
G01 X25.6071 Y50.8782 F120.00
G01 X25.5869 Y50.7984 F120.00
G01 X25.5831 Y50.7812 F120.00
G01 X25.5801 Y50.7639 F120.00
G01 X25.5693 Y50.6911 F120.00
G01 X25.5664 Y50.6649 F120.00
G01 X25.5619 Y50.5738 F120.00
G01 X25.5618 Y50.0650 F120.00
G01 X25.5622 Y50.0474 F120.00
G01 X25.5658 Y49.9739 F120.00
G01 X25.5681 Y49.9476 F120.00
G01 X25.5801 Y49.8661 F120.00
G01 X25.5831 Y49.8488 F120.00
G01 X25.5869 Y49.8316 F120.00
G01 X25.6048 Y49.7603 F120.00
G01 X25.6095 Y49.7433 F120.00
G01 X25.6150 Y49.7266 F120.00
G01 X25.6398 Y49.6573 F120.00
G01 X25.6462 Y49.6409 F120.00
G01 X25.6533 Y49.6248 F120.00
G01 X25.6848 Y49.5583 F120.00
G01 X25.6927 Y49.5426 F120.00
G01 X25.7013 Y49.5273 F120.00
G01 X25.7392 Y49.4642 F120.00
G01 X25.7486 Y49.4493 F120.00
G01 X25.7587 Y49.4349 F120.00
G01 X25.8025 Y49.3758 F120.00
G01 X25.8133 Y49.3620 F120.00
G01 X25.8248 Y49.3487 F120.00
G01 X25.8743 Y49.2941 F120.00
G01 X25.8864 Y49.2814 F120.00
G01 X25.8991 Y49.2693 F120.00
G01 X25.9537 Y49.2198 F120.00
G01 X25.9670 Y49.2083 F120.00
G01 X25.9808 Y49.1975 F120.00
G01 X26.0399 Y49.1537 F120.00
G01 X26.0543 Y49.1436 F120.00
G01 X26.0692 Y49.1342 F120.00
G01 X26.1323 Y49.0963 F120.00
G01 X26.1476 Y49.0877 F120.00
G01 X26.1633 Y49.0798 F120.00
G01 X26.2298 Y49.0483 F120.00
G01 X26.2459 Y49.0412 F120.00
G01 X26.2623 Y49.0348 F120.00
G01 X26.3316 Y49.0100 F120.00
G01 X26.3483 Y49.0045 F120.00
G01 X26.3653 Y48.9998 F120.00
G01 X26.4366 Y48.9819 F120.00
G01 X26.4538 Y48.9781 F120.00
G01 X26.4711 Y48.9751 F120.00
G01 X26.5439 Y48.9643 F120.00
G01 X26.5701 Y48.9614 F120.00
G01 X26.6612 Y48.9569 F120.00
G01 X26.6876 Y48.9572 F120.00
G01 X26.7611 Y48.9608 F120.00
G01 X26.7786 Y48.9621 F120.00
G01 X26.7961 Y48.9643 F120.00
G01 X26.8776 Y48.9765 F120.00
G01 X26.9034 Y48.9819 F120.00
G01 X26.9747 Y48.9998 F120.00
G01 X26.9917 Y49.0045 F120.00
G01 X27.0084 Y49.0100 F120.00
G01 X27.0777 Y49.0348 F120.00
G01 X27.0941 Y49.0412 F120.00
G01 X27.1102 Y49.0483 F120.00
G01 X27.1767 Y49.0798 F120.00
G01 X27.1924 Y49.0877 F120.00
G01 X27.2077 Y49.0963 F120.00
G01 X27.2708 Y49.1342 F120.00
G01 X27.2857 Y49.1436 F120.00
G01 X27.3001 Y49.1537 F120.00
G01 X27.3592 Y49.1975 F120.00
G01 X27.3730 Y49.2083 F120.00
G01 X27.3863 Y49.2198 F120.00
G01 X27.4409 Y49.2693 F120.00
G01 X27.4536 Y49.2814 F120.00
G01 X27.4657 Y49.2941 F120.00
G01 X27.5152 Y49.3487 F120.00
G01 X27.5267 Y49.3620 F120.00
G01 X27.5375 Y49.3758 F120.00
G01 X27.5865 Y49.4421 F120.00
G01 X27.6008 Y49.4642 F120.00
G01 X27.6387 Y49.5273 F120.00
G01 X27.6473 Y49.5426 F120.00
G01 X27.6552 Y49.5583 F120.00
G01 X27.6867 Y49.6248 F120.00
G01 X27.6938 Y49.6409 F120.00
G01 X27.7002 Y49.6573 F120.00
G01 X27.7250 Y49.7266 F120.00
G01 X27.7305 Y49.7433 F120.00
G01 X27.7352 Y49.7603 F120.00
G01 X27.7531 Y49.8316 F120.00
G01 X27.7569 Y49.8488 F120.00
G01 X27.7599 Y49.8661 F120.00
G01 X27.7707 Y49.9389 F120.00
G01 X27.7729 Y49.9564 F120.00
G01 X27.7742 Y49.9739 F120.00
G01 X27.7781 Y50.0562 F120.00
G01 X27.7782 Y50.5650 F120.00
G01 X27.7778 Y50.5826 F120.00
G01 X27.7746 Y50.6466 F120.00
G01 X27.8063 Y50.6349 F120.00
G01 X27.8232 Y50.6291 F120.00
G01 X27.8402 Y50.6242 F120.00
G01 X27.8576 Y50.6201 F120.00
G01 X27.8751 Y50.6169 F120.00
G01 X27.8927 Y50.6146 F120.00
G01 X27.9104 Y50.6131 F120.00
G01 X27.9282 Y50.6126 F120.00
G01 X27.9460 Y50.6129 F120.00
G01 X27.9637 Y50.6141 F120.00
G01 X27.9902 Y50.6175 F120.00
G01 X28.0077 Y50.6209 F120.00
G01 X28.0759 Y50.6359 F120.00
G01 X28.0932 Y50.6402 F120.00
G01 X28.1052 Y50.6437 F120.00
G01 X28.1022 Y50.5826 F120.00
G01 X28.1018 Y50.5650 F120.00
G01 X28.1019 Y50.0562 F120.00
G01 X28.1058 Y49.9739 F120.00
G01 X28.1071 Y49.9564 F120.00
G01 X28.1093 Y49.9389 F120.00
G01 X28.1201 Y49.8661 F120.00
G01 X28.1231 Y49.8488 F120.00
G01 X28.1269 Y49.8316 F120.00
G01 X28.1448 Y49.7603 F120.00
G01 X28.1495 Y49.7433 F120.00
G01 X28.1550 Y49.7266 F120.00
G01 X28.1798 Y49.6573 F120.00
G01 X28.1862 Y49.6409 F120.00
G01 X28.1933 Y49.6248 F120.00
G01 X28.2248 Y49.5583 F120.00
G01 X28.2327 Y49.5426 F120.00
G01 X28.2413 Y49.5273 F120.00
G01 X28.2792 Y49.4642 F120.00
G01 X28.2886 Y49.4493 F120.00
G01 X28.2987 Y49.4349 F120.00
G01 X28.3425 Y49.3758 F120.00
G01 X28.3590 Y49.3552 F120.00
G01 X28.4143 Y49.2941 F120.00
G01 X28.4327 Y49.2752 F120.00
G01 X28.5002 Y49.2140 F120.00
G01 X28.5208 Y49.1975 F120.00
G01 X28.5799 Y49.1537 F120.00
G01 X28.5943 Y49.1436 F120.00
G01 X28.6092 Y49.1342 F120.00
G01 X28.6723 Y49.0963 F120.00
G01 X28.6954 Y49.0836 F120.00
G01 X28.7698 Y49.0483 F120.00
G01 X28.7859 Y49.0412 F120.00
G01 X28.8023 Y49.0348 F120.00
G01 X28.8716 Y49.0100 F120.00
G01 X28.8883 Y49.0045 F120.00
G01 X28.9053 Y48.9998 F120.00
G01 X28.9766 Y48.9819 F120.00
G01 X28.9938 Y48.9781 F120.00
G01 X29.0111 Y48.9751 F120.00
G01 X29.0839 Y48.9643 F120.00
G01 X29.1014 Y48.9621 F120.00
G01 X29.1189 Y48.9608 F120.00
G01 X29.1924 Y48.9572 F120.00
G01 X29.2100 Y48.9568 F120.00
G01 X29.2276 Y48.9572 F120.00
G01 X29.3011 Y48.9608 F120.00
G01 X29.3186 Y48.9621 F120.00
G01 X29.3361 Y48.9643 F120.00
G01 X29.4089 Y48.9751 F120.00
G01 X29.4262 Y48.9781 F120.00
G01 X29.4434 Y48.9819 F120.00
G01 X29.5147 Y48.9998 F120.00
G01 X29.5317 Y49.0045 F120.00
G01 X29.5484 Y49.0100 F120.00
G01 X29.6177 Y49.0348 F120.00
G01 X29.6341 Y49.0412 F120.00
G01 X29.6502 Y49.0483 F120.00
G01 X29.7167 Y49.0798 F120.00
G01 X29.7324 Y49.0877 F120.00
G01 X29.7477 Y49.0963 F120.00
G01 X29.8108 Y49.1342 F120.00
G01 X29.8257 Y49.1436 F120.00
G01 X29.8401 Y49.1537 F120.00
G01 X29.8992 Y49.1975 F120.00
G01 X29.9130 Y49.2083 F120.00
G01 X29.9263 Y49.2198 F120.00
G01 X29.9809 Y49.2693 F120.00
G01 X29.9936 Y49.2814 F120.00
G01 X30.0057 Y49.2941 F120.00
G01 X30.0552 Y49.3487 F120.00
G01 X30.0667 Y49.3620 F120.00
G01 X30.0775 Y49.3758 F120.00
G01 X30.1213 Y49.4349 F120.00
G01 X30.1314 Y49.4493 F120.00
G01 X30.1408 Y49.4642 F120.00
G01 X30.1787 Y49.5273 F120.00
G01 X30.1873 Y49.5426 F120.00
G01 X30.1952 Y49.5583 F120.00
G01 X30.2267 Y49.6248 F120.00
G01 X30.2338 Y49.6409 F120.00
G01 X30.2402 Y49.6573 F120.00
G01 X30.2650 Y49.7266 F120.00
G01 X30.2705 Y49.7433 F120.00
G01 X30.2752 Y49.7603 F120.00
G01 X30.2931 Y49.8316 F120.00
G01 X30.2969 Y49.8488 F120.00
G01 X30.2999 Y49.8661 F120.00
G01 X30.3107 Y49.9389 F120.00
G01 X30.3129 Y49.9564 F120.00
G01 X30.3142 Y49.9739 F120.00
G01 X30.3181 Y50.0562 F120.00
G01 X30.3182 Y50.5650 F120.00
G01 X30.3178 Y50.5826 F120.00
G01 X30.3146 Y50.6466 F120.00
G01 X30.3463 Y50.6349 F120.00
G01 X30.3632 Y50.6291 F120.00
G01 X30.3802 Y50.6242 F120.00
G01 X30.3976 Y50.6201 F120.00
G01 X30.4151 Y50.6169 F120.00
G01 X30.4327 Y50.6146 F120.00
G01 X30.4504 Y50.6131 F120.00
G01 X30.4682 Y50.6126 F120.00
G01 X30.4949 Y50.6134 F120.00
G01 X30.5126 Y50.6150 F120.00
G01 X30.5302 Y50.6175 F120.00
G01 X30.5477 Y50.6209 F120.00
G01 X30.6159 Y50.6359 F120.00
G01 X30.6332 Y50.6402 F120.00
G01 X30.6452 Y50.6437 F120.00
G01 X30.6422 Y50.5826 F120.00
G01 X30.6418 Y50.5650 F120.00
G01 X30.6419 Y50.0562 F120.00
G01 X30.6458 Y49.9739 F120.00
G01 X30.6471 Y49.9564 F120.00
G01 X30.6493 Y49.9389 F120.00
G01 X30.6601 Y49.8661 F120.00
G01 X30.6631 Y49.8488 F120.00
G01 X30.6669 Y49.8316 F120.00
G01 X30.6848 Y49.7603 F120.00
G01 X30.6895 Y49.7433 F120.00
G01 X30.6950 Y49.7266 F120.00
G01 X30.7198 Y49.6573 F120.00
G01 X30.7262 Y49.6409 F120.00
G01 X30.7333 Y49.6248 F120.00
G01 X30.7648 Y49.5583 F120.00
G01 X30.7727 Y49.5426 F120.00
G01 X30.7813 Y49.5273 F120.00
G01 X30.8192 Y49.4642 F120.00
G01 X30.8286 Y49.4493 F120.00
G01 X30.8387 Y49.4349 F120.00
G01 X30.8825 Y49.3758 F120.00
G01 X30.8990 Y49.3552 F120.00
G01 X30.9543 Y49.2941 F120.00
G01 X30.9727 Y49.2752 F120.00
G01 X31.0402 Y49.2140 F120.00
G01 X31.0608 Y49.1975 F120.00
G01 X31.1199 Y49.1537 F120.00
G01 X31.1343 Y49.1436 F120.00
G01 X31.1492 Y49.1342 F120.00
G01 X31.2123 Y49.0963 F120.00
G01 X31.2354 Y49.0836 F120.00
G01 X31.3098 Y49.0483 F120.00
G01 X31.3259 Y49.0412 F120.00
G01 X31.3423 Y49.0348 F120.00
G01 X31.4116 Y49.0100 F120.00
G01 X31.4283 Y49.0045 F120.00
G01 X31.4453 Y48.9998 F120.00
G01 X31.5166 Y48.9819 F120.00
G01 X31.5338 Y48.9781 F120.00
G01 X31.5511 Y48.9751 F120.00
G01 X31.6239 Y48.9643 F120.00
G01 X31.6414 Y48.9621 F120.00
G01 X31.6589 Y48.9608 F120.00
G01 X31.7324 Y48.9572 F120.00
G01 X31.7500 Y48.9568 F120.00
G01 X31.7676 Y48.9572 F120.00
G01 X31.8411 Y48.9608 F120.00
G01 X31.8586 Y48.9621 F120.00
G01 X31.8761 Y48.9643 F120.00
G01 X31.9489 Y48.9751 F120.00
G01 X31.9662 Y48.9781 F120.00
G01 X31.9834 Y48.9819 F120.00
G01 X32.0547 Y48.9998 F120.00
G01 X32.0717 Y49.0045 F120.00
G01 X32.0884 Y49.0100 F120.00
G01 X32.1577 Y49.0348 F120.00
G01 X32.1741 Y49.0412 F120.00
G01 X32.1902 Y49.0483 F120.00
G01 X32.2646 Y49.0836 F120.00
G01 X32.2877 Y49.0963 F120.00
G01 X32.3508 Y49.1342 F120.00
G01 X32.3657 Y49.1436 F120.00
G01 X32.3801 Y49.1537 F120.00
G01 X32.4392 Y49.1975 F120.00
G01 X32.4598 Y49.2140 F120.00
G01 X32.5273 Y49.2752 F120.00
G01 X32.5457 Y49.2941 F120.00
G01 X32.6010 Y49.3552 F120.00
G01 X32.6175 Y49.3758 F120.00
G01 X32.6613 Y49.4349 F120.00
G01 X32.6714 Y49.4493 F120.00
G01 X32.6808 Y49.4642 F120.00
G01 X32.7187 Y49.5273 F120.00
G01 X32.7273 Y49.5426 F120.00
G01 X32.7352 Y49.5583 F120.00
G01 X32.7667 Y49.6248 F120.00
G01 X32.7738 Y49.6409 F120.00
G01 X32.7802 Y49.6573 F120.00
G01 X32.8050 Y49.7266 F120.00
G01 X32.8105 Y49.7433 F120.00
G01 X32.8152 Y49.7603 F120.00
G01 X32.8331 Y49.8316 F120.00
G01 X32.8369 Y49.8488 F120.00
G01 X32.8399 Y49.8661 F120.00
G01 X32.8507 Y49.9389 F120.00
G01 X32.8529 Y49.9564 F120.00
G01 X32.8542 Y49.9739 F120.00
G01 X32.8581 Y50.0562 F120.00
G01 X32.8582 Y50.5650 F120.00
G01 X32.8578 Y50.5826 F120.00
G01 X32.8546 Y50.6466 F120.00
G01 X32.8863 Y50.6349 F120.00
G01 X32.9032 Y50.6291 F120.00
G01 X32.9202 Y50.6242 F120.00
G01 X32.9376 Y50.6201 F120.00
G01 X32.9551 Y50.6169 F120.00
G01 X32.9727 Y50.6146 F120.00
G01 X32.9904 Y50.6131 F120.00
G01 X33.0082 Y50.6126 F120.00
G01 X33.0349 Y50.6134 F120.00
G01 X33.0526 Y50.6150 F120.00
G01 X33.0702 Y50.6175 F120.00
G01 X33.0877 Y50.6209 F120.00
G01 X33.1559 Y50.6359 F120.00
G01 X33.1732 Y50.6402 F120.00
G01 X33.1852 Y50.6437 F120.00
G01 X33.1822 Y50.5826 F120.00
G01 X33.1818 Y50.5650 F120.00
G01 X33.1818 Y50.0650 F120.00
G01 X33.1822 Y50.0474 F120.00
G01 X33.1858 Y49.9739 F120.00
G01 X33.1871 Y49.9564 F120.00
G01 X33.1893 Y49.9389 F120.00
G01 X33.2001 Y49.8661 F120.00
G01 X33.2049 Y49.8402 F120.00
G01 X33.2271 Y49.7518 F120.00
G01 X33.2350 Y49.7266 F120.00
G01 X33.2598 Y49.6573 F120.00
G01 X33.2662 Y49.6409 F120.00
G01 X33.2733 Y49.6248 F120.00
G01 X33.3048 Y49.5583 F120.00
G01 X33.3127 Y49.5426 F120.00
G01 X33.3213 Y49.5273 F120.00
G01 X33.3638 Y49.4567 F120.00
G01 X33.3787 Y49.4349 F120.00
G01 X33.4225 Y49.3758 F120.00
G01 X33.4390 Y49.3552 F120.00
G01 X33.4943 Y49.2941 F120.00
G01 X33.5064 Y49.2814 F120.00
G01 X33.5191 Y49.2693 F120.00
G01 X33.5566 Y49.2353 F120.00
G01 X33.5567 Y45.2262 F120.00
G01 X33.5594 Y45.1719 F120.00
G01 X33.5623 Y45.1457 F120.00
G01 X33.5677 Y45.1092 F120.00
G01 X33.5707 Y45.0919 F120.00
G01 X33.5746 Y45.0748 F120.00
G01 X33.5835 Y45.0391 F120.00
G01 X33.5908 Y45.0137 F120.00
G01 X33.6092 Y44.9625 F120.00
G01 X33.6196 Y44.9383 F120.00
G01 X33.6392 Y44.8971 F120.00
G01 X33.6474 Y44.8816 F120.00
G01 X33.6708 Y44.8424 F120.00
G01 X33.6802 Y44.8276 F120.00
G01 X33.6903 Y44.8132 F120.00
G01 X33.7123 Y44.7836 F120.00
G01 X33.7231 Y44.7697 F120.00
G01 X33.7346 Y44.7564 F120.00
G01 X33.7593 Y44.7291 F120.00
G01 X33.7714 Y44.7164 F120.00
G01 X38.2164 Y40.2714 F120.00
G01 X38.2291 Y40.2593 F120.00
G01 X38.2564 Y40.2346 F120.00
G01 X38.2697 Y40.2231 F120.00
G01 X38.2836 Y40.2123 F120.00
G01 X38.3132 Y40.1903 F120.00
G01 X38.3276 Y40.1802 F120.00
G01 X38.3424 Y40.1708 F120.00
G01 X38.3740 Y40.1519 F120.00
G01 X38.3893 Y40.1432 F120.00
G01 X38.4050 Y40.1353 F120.00
G01 X38.4383 Y40.1196 F120.00
G01 X38.4625 Y40.1092 F120.00
G01 X38.5054 Y40.0937 F120.00
G01 X38.5221 Y40.0882 F120.00
G01 X38.5391 Y40.0835 F120.00
G01 X38.5748 Y40.0746 F120.00
G01 X38.5919 Y40.0707 F120.00
G01 X38.6092 Y40.0677 F120.00
G01 X38.6457 Y40.0623 F120.00
G01 X38.6631 Y40.0601 F120.00
G01 X38.6806 Y40.0589 F120.00
G01 X38.7174 Y40.0570 F120.00
G01 X38.7350 Y40.0566 F120.00
G01 X53.5442 Y40.0566 F120.00
G01 X67.2116 Y26.3892 F120.00
G01 X67.2116 Y25.1764 F120.00
G01 X67.1969 Y25.1638 F120.00
G01 X67.1388 Y25.1111 F120.00
G01 X67.1260 Y25.0990 F120.00
G01 X67.1139 Y25.0862 F120.00
G01 X67.0612 Y25.0281 F120.00
G01 X67.0497 Y25.0148 F120.00
G01 X67.0389 Y25.0009 F120.00
G01 X66.9921 Y24.9378 F120.00
G01 X66.9820 Y24.9235 F120.00
G01 X66.9726 Y24.9086 F120.00
G01 X66.9322 Y24.8413 F120.00
G01 X66.9236 Y24.8260 F120.00
G01 X66.9157 Y24.8103 F120.00
G01 X66.8821 Y24.7393 F120.00
G01 X66.8750 Y24.7232 F120.00
G01 X66.8686 Y24.7068 F120.00
G01 X66.8422 Y24.6329 F120.00
G01 X66.8342 Y24.6078 F120.00
G01 X66.8129 Y24.5231 F120.00
G01 X66.8074 Y24.4973 F120.00
G01 X66.7933 Y24.4023 F120.00
G01 X66.7911 Y24.3760 F120.00
G01 X66.7869 Y24.2888 F120.00
G01 X66.7872 Y24.2624 F120.00
G01 X66.7911 Y24.1840 F120.00
G01 X66.7924 Y24.1665 F120.00
G01 X66.7945 Y24.1490 F120.00
G01 X66.8060 Y24.0714 F120.00
G01 X66.8091 Y24.0540 F120.00
G01 X66.8129 Y24.0369 F120.00
G01 X66.8320 Y23.9607 F120.00
G01 X66.8367 Y23.9438 F120.00
G01 X66.8422 Y23.9271 F120.00
G01 X66.8686 Y23.8532 F120.00
G01 X66.8750 Y23.8368 F120.00
G01 X66.8821 Y23.8207 F120.00
G01 X66.9157 Y23.7497 F120.00
G01 X66.9236 Y23.7340 F120.00
G01 X66.9322 Y23.7187 F120.00
G01 X66.9726 Y23.6514 F120.00
G01 X66.9820 Y23.6365 F120.00
G01 X66.9921 Y23.6222 F120.00
G01 X67.0389 Y23.5591 F120.00
G01 X67.0497 Y23.5452 F120.00
G01 X67.0612 Y23.5319 F120.00
G01 X67.1139 Y23.4738 F120.00
G01 X67.1260 Y23.4610 F120.00
G01 X67.1388 Y23.4489 F120.00
G01 X67.1969 Y23.3962 F120.00
G01 X67.2102 Y23.3847 F120.00
G01 X67.2241 Y23.3739 F120.00
G01 X67.2872 Y23.3271 F120.00
G01 X67.3015 Y23.3170 F120.00
G01 X67.3164 Y23.3076 F120.00
G01 X67.3837 Y23.2672 F120.00
G01 X67.3990 Y23.2586 F120.00
G01 X67.4147 Y23.2507 F120.00
G01 X67.4857 Y23.2171 F120.00
G01 X67.5018 Y23.2100 F120.00
G01 X67.5182 Y23.2036 F120.00
G01 X67.5921 Y23.1772 F120.00
G01 X67.6088 Y23.1717 F120.00
G01 X67.6257 Y23.1670 F120.00
G01 X67.7019 Y23.1479 F120.00
G01 X67.7190 Y23.1441 F120.00
G01 X67.7364 Y23.1410 F120.00
G01 X67.8140 Y23.1295 F120.00
G01 X67.8315 Y23.1274 F120.00
G01 X67.8490 Y23.1261 F120.00
G01 X67.9274 Y23.1222 F120.00
G01 X67.9450 Y23.1218 F120.00
G01 X67.9626 Y23.1222 F120.00
G01 X68.0410 Y23.1261 F120.00
G01 X68.0585 Y23.1274 F120.00
G01 X68.0760 Y23.1295 F120.00
G01 X68.1536 Y23.1410 F120.00
G01 X68.1710 Y23.1441 F120.00
G01 X68.1881 Y23.1479 F120.00
G01 X68.2643 Y23.1670 F120.00
G01 X68.2812 Y23.1717 F120.00
G01 X68.2979 Y23.1772 F120.00
G01 X68.3718 Y23.2036 F120.00
G01 X68.3882 Y23.2100 F120.00
G01 X68.4043 Y23.2171 F120.00
G01 X68.4753 Y23.2507 F120.00
G01 X68.4910 Y23.2586 F120.00
G01 X68.5063 Y23.2672 F120.00
G01 X68.5736 Y23.3076 F120.00
G01 X68.5885 Y23.3170 F120.00
G01 X68.6028 Y23.3271 F120.00
G01 X68.6659 Y23.3739 F120.00
G01 X68.6798 Y23.3847 F120.00
G01 X68.6931 Y23.3962 F120.00
G01 X68.7512 Y23.4489 F120.00
G01 X68.7701 Y23.4673 F120.00
G01 X68.8288 Y23.5319 F120.00
G01 X68.8458 Y23.5521 F120.00
G01 X68.9030 Y23.6293 F120.00
G01 X68.9174 Y23.6514 F120.00
G01 X68.9622 Y23.7263 F120.00
G01 X68.9743 Y23.7497 F120.00
G01 X69.0079 Y23.8207 F120.00
G01 X69.0150 Y23.8368 F120.00
G01 X69.0214 Y23.8532 F120.00
G01 X69.0478 Y23.9271 F120.00
G01 X69.0533 Y23.9438 F120.00
G01 X69.0580 Y23.9607 F120.00
G01 X69.0771 Y24.0369 F120.00
G01 X69.0809 Y24.0540 F120.00
G01 X69.0840 Y24.0714 F120.00
G01 X69.0955 Y24.1490 F120.00
G01 X69.0976 Y24.1665 F120.00
G01 X69.0989 Y24.1840 F120.00
G01 X69.1028 Y24.2624 F120.00
G01 X69.1032 Y24.2800 F120.00
G01 X69.1028 Y24.2976 F120.00
G01 X69.0984 Y24.3848 F120.00
G01 X69.0955 Y24.4110 F120.00
G01 X69.0840 Y24.4886 F120.00
G01 X69.0809 Y24.5060 F120.00
G01 X69.0771 Y24.5231 F120.00
G01 X69.0580 Y24.5993 F120.00
G01 X69.0533 Y24.6162 F120.00
G01 X69.0478 Y24.6329 F120.00
G01 X69.0214 Y24.7068 F120.00
G01 X69.0150 Y24.7232 F120.00
G01 X69.0079 Y24.7393 F120.00
G01 X68.9743 Y24.8103 F120.00
G01 X68.9664 Y24.8260 F120.00
G01 X68.9578 Y24.8413 F120.00
G01 X68.9174 Y24.9086 F120.00
G01 X68.9080 Y24.9235 F120.00
G01 X68.8979 Y24.9378 F120.00
G01 X68.8511 Y25.0009 F120.00
G01 X68.8403 Y25.0148 F120.00
G01 X68.8288 Y25.0281 F120.00
G01 X68.7761 Y25.0862 F120.00
G01 X68.7640 Y25.0990 F120.00
G01 X68.7512 Y25.1111 F120.00
G01 X68.6931 Y25.1638 F120.00
G01 X68.6784 Y25.1764 F120.00
G01 X68.6784 Y26.6930 F120.00
G01 X68.6780 Y26.7106 F120.00
G01 X68.6756 Y26.7561 F120.00
G01 X68.6739 Y26.7736 F120.00
G01 X68.6673 Y26.8188 F120.00
G01 X68.6643 Y26.8361 F120.00
G01 X68.6604 Y26.8532 F120.00
G01 X68.6515 Y26.8889 F120.00
G01 X68.6468 Y26.9059 F120.00
G01 X68.6413 Y26.9226 F120.00
G01 X68.6289 Y26.9573 F120.00
G01 X68.6226 Y26.9737 F120.00
G01 X68.6154 Y26.9897 F120.00
G01 X68.5997 Y27.0230 F120.00
G01 X68.5918 Y27.0387 F120.00
G01 X68.5831 Y27.0540 F120.00
G01 X68.5642 Y27.0856 F120.00
G01 X68.5498 Y27.1077 F120.00
G01 X68.5227 Y27.1444 F120.00
G01 X68.5119 Y27.1583 F120.00
G01 X68.5004 Y27.1716 F120.00
G01 X68.4757 Y27.1989 F120.00
G01 X68.4636 Y27.2116 F120.00
G01 X54.3666 Y41.3086 F120.00
G01 X54.3539 Y41.3207 F120.00
G01 X54.3266 Y41.3454 F120.00
G01 X54.3064 Y41.3624 F120.00
G01 X54.2698 Y41.3897 F120.00
G01 X54.2554 Y41.3998 F120.00
G01 X54.2406 Y41.4092 F120.00
G01 X54.2090 Y41.4281 F120.00
G01 X54.1937 Y41.4368 F120.00
G01 X54.1780 Y41.4447 F120.00
G01 X54.1447 Y41.4604 F120.00
G01 X54.1287 Y41.4676 F120.00
G01 X54.1123 Y41.4739 F120.00
G01 X54.0776 Y41.4863 F120.00
G01 X54.0609 Y41.4918 F120.00
G01 X54.0439 Y41.4965 F120.00
G01 X53.9997 Y41.5075 F120.00
G01 X53.9824 Y41.5109 F120.00
G01 X53.9373 Y41.5177 F120.00
G01 X53.9199 Y41.5199 F120.00
G01 X53.9024 Y41.5211 F120.00
G01 X53.8656 Y41.5230 F120.00
G01 X53.8480 Y41.5234 F120.00
G01 X39.0388 Y41.5234 F120.00
G01 X35.0234 Y45.5388 F120.00
G01 X35.0234 Y49.2353 F120.00
G01 X35.0609 Y49.2693 F120.00
G01 X35.0736 Y49.2814 F120.00
G01 X35.0857 Y49.2941 F120.00
G01 X35.1410 Y49.3552 F120.00
G01 X35.1575 Y49.3758 F120.00
G01 X35.2013 Y49.4349 F120.00
G01 X35.2162 Y49.4567 F120.00
G01 X35.2587 Y49.5273 F120.00
G01 X35.2673 Y49.5426 F120.00
G01 X35.2752 Y49.5583 F120.00
G01 X35.3104 Y49.6328 F120.00
G01 X35.3202 Y49.6573 F120.00
G01 X35.3450 Y49.7266 F120.00
G01 X35.3505 Y49.7433 F120.00
G01 X35.3552 Y49.7603 F120.00
G01 X35.3731 Y49.8316 F120.00
G01 X35.3769 Y49.8488 F120.00
G01 X35.3799 Y49.8661 F120.00
G01 X35.3907 Y49.9389 F120.00
G01 X35.3936 Y49.9651 F120.00
G01 X35.3978 Y50.0474 F120.00
G01 X35.3982 Y50.0650 F120.00
G01 X35.3982 Y50.5650 F120.00
G01 X35.3978 Y50.5826 F120.00
G01 X35.3946 Y50.6466 F120.00
G01 X35.4263 Y50.6349 F120.00
G01 X35.4432 Y50.6291 F120.00
G01 X35.4602 Y50.6242 F120.00
G01 X35.4776 Y50.6201 F120.00
G01 X35.4951 Y50.6169 F120.00
G01 X35.5127 Y50.6146 F120.00
G01 X35.5304 Y50.6131 F120.00
G01 X35.5482 Y50.6126 F120.00
G01 X35.5749 Y50.6134 F120.00
G01 X35.5926 Y50.6150 F120.00
G01 X35.6102 Y50.6175 F120.00
G01 X35.6277 Y50.6209 F120.00
G01 X35.6959 Y50.6359 F120.00
G01 X35.7132 Y50.6402 F120.00
G01 X35.7252 Y50.6437 F120.00
G01 X35.7222 Y50.5826 F120.00
G01 X35.7218 Y50.5650 F120.00
G01 X35.7219 Y50.0562 F120.00
G01 X35.7258 Y49.9739 F120.00
G01 X35.7271 Y49.9564 F120.00
G01 X35.7293 Y49.9389 F120.00
G01 X35.7401 Y49.8661 F120.00
G01 X35.7431 Y49.8488 F120.00
G01 X35.7469 Y49.8316 F120.00
G01 X35.7648 Y49.7603 F120.00
G01 X35.7695 Y49.7433 F120.00
G01 X35.7750 Y49.7266 F120.00
G01 X35.7998 Y49.6573 F120.00
G01 X35.8062 Y49.6409 F120.00
G01 X35.8133 Y49.6248 F120.00
G01 X35.8448 Y49.5583 F120.00
G01 X35.8569 Y49.5349 F120.00
G01 X35.8992 Y49.4642 F120.00
G01 X35.9086 Y49.4493 F120.00
G01 X35.9187 Y49.4349 F120.00
G01 X35.9679 Y49.3688 F120.00
G01 X35.9848 Y49.3487 F120.00
G01 X36.0402 Y49.2877 F120.00
G01 X36.0527 Y49.2752 F120.00
G01 X36.0966 Y49.2353 F120.00
G01 X36.0966 Y48.4100 F120.00
G01 X36.0970 Y48.3924 F120.00
G01 X36.0989 Y48.3556 F120.00
G01 X36.1001 Y48.3381 F120.00
G01 X36.1023 Y48.3207 F120.00
G01 X36.1091 Y48.2756 F120.00
G01 X36.1146 Y48.2498 F120.00
G01 X36.1235 Y48.2141 F120.00
G01 X36.1282 Y48.1971 F120.00
G01 X36.1337 Y48.1804 F120.00
G01 X36.1461 Y48.1457 F120.00
G01 X36.1559 Y48.1213 F120.00
G01 X36.1792 Y48.0721 F120.00
G01 X36.1919 Y48.0490 F120.00
G01 X36.2108 Y48.0174 F120.00
G01 X36.2202 Y48.0026 F120.00
G01 X36.2303 Y47.9882 F120.00
G01 X36.2523 Y47.9586 F120.00
G01 X36.2631 Y47.9447 F120.00
G01 X36.2746 Y47.9314 F120.00
G01 X36.2993 Y47.9041 F120.00
G01 X36.3114 Y47.8914 F120.00
G01 X39.4927 Y44.7103 F120.00
G01 X39.5264 Y44.6796 F120.00
G01 X39.5397 Y44.6681 F120.00
G01 X39.5536 Y44.6573 F120.00
G01 X39.5832 Y44.6353 F120.00
G01 X39.6049 Y44.6204 F120.00
G01 X39.6440 Y44.5969 F120.00
G01 X39.6593 Y44.5882 F120.00
G01 X39.6750 Y44.5803 F120.00
G01 X39.7083 Y44.5646 F120.00
G01 X39.7243 Y44.5574 F120.00
G01 X39.7407 Y44.5511 F120.00
G01 X39.7754 Y44.5387 F120.00
G01 X39.7921 Y44.5332 F120.00
G01 X39.8091 Y44.5285 F120.00
G01 X39.8533 Y44.5175 F120.00
G01 X39.8706 Y44.5141 F120.00
G01 X39.9157 Y44.5073 F120.00
G01 X39.9331 Y44.5051 F120.00
G01 X39.9506 Y44.5039 F120.00
G01 X39.9874 Y44.5020 F120.00
G01 X40.0050 Y44.5016 F120.00
G01 X60.3250 Y44.5016 F120.00
G01 X60.3426 Y44.5020 F120.00
G01 X60.3881 Y44.5044 F120.00
G01 X60.4143 Y44.5073 F120.00
G01 X60.4508 Y44.5127 F120.00
G01 X60.4681 Y44.5157 F120.00
G01 X60.4852 Y44.5196 F120.00
G01 X60.5209 Y44.5285 F120.00
G01 X60.5463 Y44.5358 F120.00
G01 X60.5893 Y44.5511 F120.00
G01 X60.6057 Y44.5574 F120.00
G01 X60.6217 Y44.5646 F120.00
G01 X60.6550 Y44.5803 F120.00
G01 X60.6784 Y44.5924 F120.00
G01 X60.7176 Y44.6158 F120.00
G01 X60.7324 Y44.6252 F120.00
G01 X60.7468 Y44.6353 F120.00
G01 X60.7764 Y44.6573 F120.00
G01 X60.7970 Y44.6737 F120.00
G01 X60.8309 Y44.7043 F120.00
G01 X60.8436 Y44.7164 F120.00
G01 X65.2886 Y49.1614 F120.00
G01 X65.3007 Y49.1741 F120.00
G01 X65.3254 Y49.2014 F120.00
G01 X65.3369 Y49.2147 F120.00
G01 X65.3477 Y49.2286 F120.00
G01 X65.3697 Y49.2582 F120.00
G01 X65.3846 Y49.2799 F120.00
G01 X65.4081 Y49.3190 F120.00
G01 X65.4208 Y49.3421 F120.00
G01 X65.4441 Y49.3913 F120.00
G01 X65.4539 Y49.4157 F120.00
G01 X65.4663 Y49.4504 F120.00
G01 X65.4718 Y49.4671 F120.00
G01 X65.4765 Y49.4841 F120.00
G01 X65.4854 Y49.5198 F120.00
G01 X65.4893 Y49.5369 F120.00
G01 X65.4923 Y49.5542 F120.00
G01 X65.4977 Y49.5907 F120.00
G01 X65.4999 Y49.6081 F120.00
G01 X65.5011 Y49.6256 F120.00
G01 X65.5030 Y49.6624 F120.00
G01 X65.5034 Y49.6800 F120.00
G01 X65.5034 Y64.5427 F120.00
G01 X66.2240 Y65.2633 F120.00
G01 X66.2441 Y65.2587 F120.00
G01 X66.2702 Y65.2545 F120.00
G01 X66.2964 Y65.2522 F120.00
G01 X66.3140 Y65.2518 F120.00
G01 X68.8228 Y65.2519 F120.00
G01 X68.8404 Y65.2528 F120.00
G01 X68.8578 Y65.2545 F120.00
G01 X68.8752 Y65.2571 F120.00
G01 X68.8925 Y65.2605 F120.00
G01 X68.9095 Y65.2648 F120.00
G01 X68.9264 Y65.2699 F120.00
G01 X68.9429 Y65.2758 F120.00
G01 X68.9592 Y65.2825 F120.00
G01 X68.9751 Y65.2900 F120.00
G01 X68.9906 Y65.2983 F120.00
G01 X69.0056 Y65.3074 F120.00
G01 X69.0203 Y65.3171 F120.00
G01 X69.0344 Y65.3276 F120.00
G01 X69.0480 Y65.3388 F120.00
G01 X69.0610 Y65.3506 F120.00
G01 X69.0734 Y65.3630 F120.00
G01 X69.0909 Y65.3828 F120.00
G01 X69.1017 Y65.3966 F120.00
G01 X69.1118 Y65.4110 F120.00
G01 X69.1257 Y65.4334 F120.00
G01 X69.1340 Y65.4489 F120.00
G01 X69.1415 Y65.4648 F120.00
G01 X69.1513 Y65.4893 F120.00
G01 X69.1568 Y65.5060 F120.00
G01 X69.1615 Y65.5230 F120.00
G01 X69.1669 Y65.5488 F120.00
G01 X69.1695 Y65.5662 F120.00
G01 X69.1712 Y65.5836 F120.00
G01 X69.1722 Y65.6100 F120.00
G01 X69.1721 Y66.6188 F120.00
G01 X69.1705 Y66.6451 F120.00
G01 X69.1683 Y66.6626 F120.00
G01 X69.1653 Y66.6799 F120.00
G01 X69.1592 Y66.7055 F120.00
G01 X69.1541 Y66.7224 F120.00
G01 X69.1482 Y66.7389 F120.00
G01 X69.1415 Y66.7552 F120.00
G01 X69.1299 Y66.7789 F120.00
G01 X69.1212 Y66.7942 F120.00
G01 X69.1118 Y66.8090 F120.00
G01 X69.0964 Y66.8304 F120.00
G01 X69.0852 Y66.8440 F120.00
G01 X69.0673 Y66.8633 F120.00
G01 X69.0546 Y66.8754 F120.00
G01 X69.0344 Y66.8924 F120.00
G01 X69.0203 Y66.9029 F120.00
G01 X68.9982 Y66.9172 F120.00
G01 X68.9751 Y66.9300 F120.00
G01 X68.9511 Y66.9409 F120.00
G01 X68.9264 Y66.9501 F120.00
G01 X68.9010 Y66.9575 F120.00
G01 X68.8752 Y66.9629 F120.00
G01 X68.8491 Y66.9665 F120.00
G01 X68.8228 Y66.9681 F120.00
G01 X66.4004 Y66.9682 F120.00
G01 X66.4034 Y66.9793 F120.00
G01 X66.4073 Y66.9967 F120.00
G01 X66.4115 Y67.0230 F120.00
G01 X66.4132 Y67.0407 F120.00
G01 X66.4183 Y67.1104 F120.00
G01 X66.4192 Y67.1371 F120.00
G01 X66.4187 Y67.1549 F120.00
G01 X66.4174 Y67.1726 F120.00
G01 X66.4137 Y67.1990 F120.00
G01 X66.4080 Y67.2251 F120.00
G01 X66.4032 Y67.2422 F120.00
G01 X66.4001 Y67.2518 F120.00
G01 X68.8228 Y67.2519 F120.00
G01 X68.8404 Y67.2528 F120.00
G01 X68.8666 Y67.2557 F120.00
G01 X68.8839 Y67.2587 F120.00
G01 X68.9010 Y67.2625 F120.00
G01 X68.9180 Y67.2672 F120.00
G01 X68.9347 Y67.2727 F120.00
G01 X68.9511 Y67.2791 F120.00
G01 X68.9672 Y67.2862 F120.00
G01 X68.9906 Y67.2983 F120.00
G01 X69.0056 Y67.3074 F120.00
G01 X69.0203 Y67.3171 F120.00
G01 X69.0344 Y67.3276 F120.00
G01 X69.0546 Y67.3446 F120.00
G01 X69.0673 Y67.3567 F120.00
G01 X69.0794 Y67.3694 F120.00
G01 X69.0909 Y67.3828 F120.00
G01 X69.1017 Y67.3966 F120.00
G01 X69.1166 Y67.4184 F120.00
G01 X69.1257 Y67.4334 F120.00
G01 X69.1340 Y67.4489 F120.00
G01 X69.1415 Y67.4648 F120.00
G01 X69.1513 Y67.4893 F120.00
G01 X69.1568 Y67.5060 F120.00
G01 X69.1615 Y67.5230 F120.00
G01 X69.1669 Y67.5488 F120.00
G01 X69.1695 Y67.5662 F120.00
G01 X69.1718 Y67.5924 F120.00
G01 X69.1722 Y67.6100 F120.00
G01 X69.1722 Y68.6030 F120.00
G01 X69.1867 Y68.6014 F120.00
G01 X69.2044 Y68.6004 F120.00
G01 X69.2222 Y68.6002 F120.00
G01 X69.2400 Y68.6009 F120.00
G01 X69.2665 Y68.6037 F120.00
G01 X69.2841 Y68.6066 F120.00
G01 X69.3000 Y68.6099 F120.00
G00 Z2.0000
G00 X69.3000 Y68.4881
G01 F60.00
G01 Z-0.1100
G01 F120.00
G01 X69.2916 Y68.4867 F120.00
G01 X69.2916 Y67.6100 F120.00
G01 X69.2910 Y67.5866 F120.00
G01 X69.2893 Y67.5632 F120.00
G01 X69.2864 Y67.5399 F120.00
G01 X69.2824 Y67.5168 F120.00
G01 X69.2773 Y67.4940 F120.00
G01 X69.2710 Y67.4714 F120.00
G01 X69.2675 Y67.4602 F120.00
G01 X69.2637 Y67.4491 F120.00
G01 X69.2552 Y67.4272 F120.00
G01 X69.2457 Y67.4058 F120.00
G01 X69.2406 Y67.3953 F120.00
G01 X69.2296 Y67.3746 F120.00
G01 X69.2175 Y67.3545 F120.00
G01 X69.2045 Y67.3350 F120.00
G01 X69.1905 Y67.3162 F120.00
G01 X69.1756 Y67.2980 F120.00
G01 X69.1599 Y67.2807 F120.00
G01 X69.1433 Y67.2641 F120.00
G01 X69.1260 Y67.2484 F120.00
G01 X69.1170 Y67.2408 F120.00
G01 X69.0985 Y67.2264 F120.00
G01 X69.0793 Y67.2129 F120.00
G01 X69.0695 Y67.2065 F120.00
G01 X69.0494 Y67.1944 F120.00
G01 X69.0287 Y67.1834 F120.00
G01 X69.0075 Y67.1734 F120.00
G01 X68.9859 Y67.1644 F120.00
G01 X68.9749 Y67.1603 F120.00
G01 X68.9526 Y67.1530 F120.00
G01 X68.9300 Y67.1467 F120.00
G01 X68.9072 Y67.1416 F120.00
G01 X68.8841 Y67.1376 F120.00
G01 X68.8608 Y67.1347 F120.00
G01 X68.8374 Y67.1330 F120.00
G01 X68.8257 Y67.1325 F120.00
G01 X66.5386 Y67.1324 F120.00
G01 X66.5381 Y67.1137 F120.00
G01 X66.5363 Y67.0876 F120.00
G01 X68.8257 Y67.0875 F120.00
G01 X68.8491 Y67.0863 F120.00
G01 X68.8608 Y67.0853 F120.00
G01 X68.8841 Y67.0824 F120.00
G01 X68.8957 Y67.0806 F120.00
G01 X68.9186 Y67.0760 F120.00
G01 X68.9300 Y67.0733 F120.00
G01 X68.9526 Y67.0670 F120.00
G01 X68.9749 Y67.0597 F120.00
G01 X68.9859 Y67.0556 F120.00
G01 X69.0075 Y67.0466 F120.00
G01 X69.0182 Y67.0417 F120.00
G01 X69.0287 Y67.0366 F120.00
G01 X69.0494 Y67.0256 F120.00
G01 X69.0595 Y67.0197 F120.00
G01 X69.0793 Y67.0071 F120.00
G01 X69.0985 Y66.9936 F120.00
G01 X69.1170 Y66.9792 F120.00
G01 X69.1260 Y66.9716 F120.00
G01 X69.1433 Y66.9559 F120.00
G01 X69.1599 Y66.9393 F120.00
G01 X69.1679 Y66.9307 F120.00
G01 X69.1832 Y66.9130 F120.00
G01 X69.1976 Y66.8945 F120.00
G01 X69.2045 Y66.8850 F120.00
G01 X69.2175 Y66.8655 F120.00
G01 X69.2296 Y66.8454 F120.00
G01 X69.2352 Y66.8351 F120.00
G01 X69.2457 Y66.8142 F120.00
G01 X69.2552 Y66.7928 F120.00
G01 X69.2637 Y66.7709 F120.00
G01 X69.2675 Y66.7598 F120.00
G01 X69.2743 Y66.7374 F120.00
G01 X69.2773 Y66.7260 F120.00
G01 X69.2824 Y66.7032 F120.00
G01 X69.2864 Y66.6801 F120.00
G01 X69.2893 Y66.6568 F120.00
G01 X69.2910 Y66.6334 F120.00
G01 X69.2916 Y66.6100 F120.00
G01 X69.2916 Y65.6100 F120.00
G01 X69.2910 Y65.5866 F120.00
G01 X69.2893 Y65.5632 F120.00
G01 X69.2880 Y65.5515 F120.00
G01 X69.2846 Y65.5283 F120.00
G01 X69.2800 Y65.5054 F120.00
G01 X69.2773 Y65.4940 F120.00
G01 X69.2710 Y65.4714 F120.00
G01 X69.2675 Y65.4602 F120.00
G01 X69.2596 Y65.4381 F120.00
G01 X69.2506 Y65.4165 F120.00
G01 X69.2406 Y65.3953 F120.00
G01 X69.2352 Y65.3849 F120.00
G01 X69.2296 Y65.3746 F120.00
G01 X69.2175 Y65.3545 F120.00
G01 X69.2045 Y65.3350 F120.00
G01 X69.1905 Y65.3162 F120.00
G01 X69.1832 Y65.3070 F120.00
G01 X69.1679 Y65.2893 F120.00
G01 X69.1517 Y65.2723 F120.00
G01 X69.1347 Y65.2561 F120.00
G01 X69.1170 Y65.2408 F120.00
G01 X69.0985 Y65.2264 F120.00
G01 X69.0793 Y65.2129 F120.00
G01 X69.0595 Y65.2003 F120.00
G01 X69.0391 Y65.1888 F120.00
G01 X69.0182 Y65.1783 F120.00
G01 X68.9968 Y65.1688 F120.00
G01 X68.9749 Y65.1603 F120.00
G01 X68.9638 Y65.1565 F120.00
G01 X68.9414 Y65.1497 F120.00
G01 X68.9186 Y65.1440 F120.00
G01 X68.8957 Y65.1394 F120.00
G01 X68.8725 Y65.1360 F120.00
G01 X68.8491 Y65.1337 F120.00
G01 X68.8374 Y65.1330 F120.00
G01 X68.8140 Y65.1324 F120.00
G01 X66.3140 Y65.1324 F120.00
G01 X66.2906 Y65.1330 F120.00
G01 X66.2645 Y65.1350 F120.00
G01 X66.2043 Y65.0748 F120.00
G01 X66.2323 Y65.0806 F120.00
G01 X66.2555 Y65.0840 F120.00
G01 X66.2789 Y65.0863 F120.00
G01 X66.2906 Y65.0870 F120.00
G01 X66.3140 Y65.0876 F120.00
G01 X68.8257 Y65.0875 F120.00
G01 X68.8491 Y65.0863 F120.00
G01 X68.8608 Y65.0853 F120.00
G01 X68.8841 Y65.0824 F120.00
G01 X68.8957 Y65.0806 F120.00
G01 X68.9072 Y65.0784 F120.00
G01 X68.9300 Y65.0733 F120.00
G01 X68.9526 Y65.0670 F120.00
G01 X68.9749 Y65.0597 F120.00
G01 X68.9968 Y65.0512 F120.00
G01 X69.0075 Y65.0466 F120.00
G01 X69.0287 Y65.0366 F120.00
G01 X69.0391 Y65.0312 F120.00
G01 X69.0595 Y65.0197 F120.00
G01 X69.0793 Y65.0071 F120.00
G01 X69.0890 Y65.0005 F120.00
G01 X69.1078 Y64.9865 F120.00
G01 X69.1260 Y64.9716 F120.00
G01 X69.1433 Y64.9559 F120.00
G01 X69.1599 Y64.9393 F120.00
G01 X69.1756 Y64.9220 F120.00
G01 X69.1832 Y64.9130 F120.00
G01 X69.1976 Y64.8945 F120.00
G01 X69.2045 Y64.8850 F120.00
G01 X69.2175 Y64.8655 F120.00
G01 X69.2296 Y64.8454 F120.00
G01 X69.2352 Y64.8351 F120.00
G01 X69.2457 Y64.8142 F120.00
G01 X69.2552 Y64.7928 F120.00
G01 X69.2637 Y64.7709 F120.00
G01 X69.2675 Y64.7598 F120.00
G01 X69.2743 Y64.7374 F120.00
G01 X69.2773 Y64.7260 F120.00
G01 X69.2824 Y64.7032 F120.00
G01 X69.2864 Y64.6801 F120.00
G01 X69.2880 Y64.6685 F120.00
G01 X69.2903 Y64.6451 F120.00
G01 X69.2910 Y64.6334 F120.00
G01 X69.2916 Y64.6100 F120.00
G01 X69.2916 Y63.6100 F120.00
G01 X69.2910 Y63.5866 F120.00
G01 X69.2893 Y63.5632 F120.00
G01 X69.2880 Y63.5515 F120.00
G01 X69.2846 Y63.5283 F120.00
G01 X69.2824 Y63.5168 F120.00
G01 X69.2773 Y63.4940 F120.00
G01 X69.2710 Y63.4714 F120.00
G01 X69.2675 Y63.4602 F120.00
G01 X69.2596 Y63.4381 F120.00
G01 X69.2506 Y63.4165 F120.00
G01 X69.2406 Y63.3953 F120.00
G01 X69.2352 Y63.3849 F120.00
G01 X69.2237 Y63.3645 F120.00
G01 X69.2111 Y63.3447 F120.00
G01 X69.1976 Y63.3255 F120.00
G01 X69.1905 Y63.3162 F120.00
G01 X69.1756 Y63.2980 F120.00
G01 X69.1679 Y63.2893 F120.00
G01 X69.1517 Y63.2723 F120.00
G01 X69.1347 Y63.2561 F120.00
G01 X69.1170 Y63.2408 F120.00
