(G-CODE GENERATED BY FLATCAM v8.994 - www.flatcam.org - Version Date: 2020/11/7)

(Name: Mainboard-B_Cu.gbr_iso_combined_1_cnc)
(Type: G-code from Geometry)
(Units: MM)

(Created on Thursday, 22 February 2024 at 23:30)

(This preprocessor is used with a motion controller loaded with GRBL firmware.)
(It is configured to be compatible with almost any version of GRBL firmware.)

(TOOL DIAMETER: 0.2388 mm)
(Feedrate_XY: 120.0 mm/min)
(Feedrate_Z: 60.0 mm/min)
(Feedrate rapids 1500.0 mm/min)

(Z_Cut: -0.11 mm)
(Z_Move: 2.0 mm)
(Z Start: None mm)
(Z End: 5.0 mm)
(X,Y End: None mm)
(Steps per circle: 64)
(Steps per circle: 64)
(Preprocessor Geometry: grbl_11)

(X range:    0.4000 ...   69.3000  mm)
(Y range:    0.6000 ...   98.6958  mm)

(Spindle Speed: 0.0 RPM)
G21
G90
G17
G94


G01 F120.00

M5             
G00 Z15.0000
G00 X0.0000 Y0.0000                
T1
M6
(MSG, Change to Tool Dia = 0.2388)
M0
G00 Z15.0000

M03
G01 F120.00
G00 X5.4920 Y0.6000
G01 F60.00
G00 Z2.0000
G00 X57.1324 Y26.0972
G01 F60.00
G01 Z-0.1100
G01 F120.00
G01 X57.1500 Y26.0968 F120.00
G01 X57.1676 Y26.0972 F120.00
G01 X57.2411 Y26.1008 F120.00
G01 X57.2586 Y26.1021 F120.00
G01 X57.2761 Y26.1043 F120.00
G01 X57.3489 Y26.1151 F120.00
G01 X57.3662 Y26.1181 F120.00
G01 X57.3834 Y26.1219 F120.00
G01 X57.4547 Y26.1398 F120.00
G01 X57.4717 Y26.1445 F120.00
G01 X57.4884 Y26.1500 F120.00
G01 X57.5577 Y26.1748 F120.00
G01 X57.5741 Y26.1812 F120.00
G01 X57.5902 Y26.1883 F120.00
G01 X57.6567 Y26.2198 F120.00
G01 X57.6724 Y26.2277 F120.00
G01 X57.6877 Y26.2363 F120.00
G01 X57.7508 Y26.2742 F120.00
G01 X57.7657 Y26.2836 F120.00
G01 X57.7801 Y26.2937 F120.00
G01 X57.8392 Y26.3375 F120.00
G01 X57.8530 Y26.3483 F120.00
G01 X57.8663 Y26.3598 F120.00
G01 X57.9209 Y26.4093 F120.00
G01 X57.9336 Y26.4214 F120.00
G01 X57.9457 Y26.4341 F120.00
G01 X57.9952 Y26.4887 F120.00
G01 X58.0067 Y26.5020 F120.00
G01 X58.0175 Y26.5158 F120.00
G01 X58.0613 Y26.5749 F120.00
G01 X58.0714 Y26.5893 F120.00
G01 X58.0808 Y26.6042 F120.00
G01 X58.1187 Y26.6673 F120.00
G01 X58.1273 Y26.6826 F120.00
G01 X58.1352 Y26.6983 F120.00
G01 X58.1667 Y26.7648 F120.00
G01 X58.1738 Y26.7809 F120.00
G01 X58.1802 Y26.7973 F120.00
G01 X58.2050 Y26.8666 F120.00
G01 X58.2105 Y26.8833 F120.00
G01 X58.2152 Y26.9003 F120.00
G01 X58.2331 Y26.9716 F120.00
G01 X58.2369 Y26.9888 F120.00
G01 X58.2399 Y27.0061 F120.00
G01 X58.2507 Y27.0789 F120.00
G01 X58.2529 Y27.0964 F120.00
G01 X58.2542 Y27.1139 F120.00
G01 X58.2578 Y27.1874 F120.00
G01 X58.2582 Y27.2050 F120.00
G01 X58.2581 Y27.7138 F120.00
G01 X58.2542 Y27.7961 F120.00
G01 X58.2529 Y27.8136 F120.00
G01 X58.2507 Y27.8311 F120.00
G01 X58.2385 Y27.9126 F120.00
G01 X58.2331 Y27.9384 F120.00
G01 X58.2152 Y28.0097 F120.00
G01 X58.2105 Y28.0267 F120.00
G01 X58.2050 Y28.0434 F120.00
G01 X58.1802 Y28.1127 F120.00
G01 X58.1738 Y28.1291 F120.00
G01 X58.1667 Y28.1452 F120.00
G01 X58.1352 Y28.2117 F120.00
G01 X58.1273 Y28.2274 F120.00
G01 X58.1187 Y28.2427 F120.00
G01 X58.0808 Y28.3058 F120.00
G01 X58.0665 Y28.3279 F120.00
G01 X58.0121 Y28.4012 F120.00
G01 X57.9952 Y28.4213 F120.00
G01 X57.9457 Y28.4759 F120.00
G01 X57.9336 Y28.4886 F120.00
G01 X57.9209 Y28.5007 F120.00
G01 X57.8663 Y28.5502 F120.00
G01 X57.8530 Y28.5617 F120.00
G01 X57.8392 Y28.5725 F120.00
G01 X57.7801 Y28.6163 F120.00
G01 X57.7657 Y28.6264 F120.00
G01 X57.7508 Y28.6358 F120.00
G01 X57.6877 Y28.6737 F120.00
G01 X57.6724 Y28.6823 F120.00
G01 X57.6567 Y28.6902 F120.00
G01 X57.5902 Y28.7217 F120.00
G01 X57.5741 Y28.7288 F120.00
G01 X57.5577 Y28.7352 F120.00
G01 X57.4884 Y28.7600 F120.00
G01 X57.4717 Y28.7655 F120.00
G01 X57.4547 Y28.7702 F120.00
G01 X57.3834 Y28.7881 F120.00
G01 X57.3662 Y28.7919 F120.00
G01 X57.3489 Y28.7949 F120.00
G01 X57.2761 Y28.8057 F120.00
G01 X57.2586 Y28.8079 F120.00
G01 X57.2411 Y28.8092 F120.00
G01 X57.1676 Y28.8128 F120.00
G01 X57.1500 Y28.8132 F120.00
G01 X57.1324 Y28.8128 F120.00
G01 X57.0589 Y28.8092 F120.00
G01 X57.0414 Y28.8079 F120.00
G01 X57.0239 Y28.8057 F120.00
G01 X56.9511 Y28.7949 F120.00
G01 X56.9338 Y28.7919 F120.00
G01 X56.9166 Y28.7881 F120.00
G01 X56.8453 Y28.7702 F120.00
G01 X56.8283 Y28.7655 F120.00
G01 X56.8116 Y28.7600 F120.00
G01 X56.7423 Y28.7352 F120.00
G01 X56.7259 Y28.7288 F120.00
G01 X56.7098 Y28.7217 F120.00
G01 X56.6433 Y28.6902 F120.00
G01 X56.6276 Y28.6823 F120.00
G01 X56.6123 Y28.6737 F120.00
G01 X56.5492 Y28.6358 F120.00
G01 X56.5343 Y28.6264 F120.00
G01 X56.5199 Y28.6163 F120.00
G01 X56.4608 Y28.5725 F120.00
G01 X56.4470 Y28.5617 F120.00
G01 X56.4337 Y28.5502 F120.00
G01 X56.3791 Y28.5007 F120.00
G01 X56.3664 Y28.4886 F120.00
G01 X56.3543 Y28.4759 F120.00
G01 X56.3048 Y28.4213 F120.00
G01 X56.2933 Y28.4080 F120.00
G01 X56.2825 Y28.3942 F120.00
G01 X56.2387 Y28.3351 F120.00
G01 X56.2286 Y28.3207 F120.00
G01 X56.2192 Y28.3058 F120.00
G01 X56.1813 Y28.2427 F120.00
G01 X56.1727 Y28.2274 F120.00
G01 X56.1648 Y28.2117 F120.00
G01 X56.1333 Y28.1452 F120.00
G01 X56.1262 Y28.1291 F120.00
G01 X56.1198 Y28.1127 F120.00
G01 X56.0950 Y28.0434 F120.00
G01 X56.0895 Y28.0267 F120.00
G01 X56.0848 Y28.0097 F120.00
G01 X56.0669 Y27.9384 F120.00
G01 X56.0631 Y27.9212 F120.00
G01 X56.0601 Y27.9039 F120.00
G01 X56.0493 Y27.8311 F120.00
G01 X56.0471 Y27.8136 F120.00
G01 X56.0458 Y27.7961 F120.00
G01 X56.0422 Y27.7226 F120.00
G01 X56.0418 Y27.7050 F120.00
G01 X56.0419 Y27.1962 F120.00
G01 X56.0458 Y27.1139 F120.00
G01 X56.0471 Y27.0964 F120.00
G01 X56.0493 Y27.0789 F120.00
G01 X56.0615 Y26.9974 F120.00
G01 X56.0669 Y26.9716 F120.00
G01 X56.0848 Y26.9003 F120.00
G01 X56.0895 Y26.8833 F120.00
G01 X56.0950 Y26.8666 F120.00
G01 X56.1198 Y26.7973 F120.00
G01 X56.1262 Y26.7809 F120.00
G01 X56.1333 Y26.7648 F120.00
G01 X56.1648 Y26.6983 F120.00
G01 X56.1727 Y26.6826 F120.00
G01 X56.1813 Y26.6673 F120.00
G01 X56.2192 Y26.6042 F120.00
G01 X56.2286 Y26.5893 F120.00
G01 X56.2387 Y26.5749 F120.00
G01 X56.2825 Y26.5158 F120.00
G01 X56.2933 Y26.5020 F120.00
G01 X56.3048 Y26.4887 F120.00
G01 X56.3543 Y26.4341 F120.00
G01 X56.3664 Y26.4214 F120.00
G01 X56.3791 Y26.4093 F120.00
G01 X56.4337 Y26.3598 F120.00
G01 X56.4470 Y26.3483 F120.00
G01 X56.4608 Y26.3375 F120.00
G01 X56.5199 Y26.2937 F120.00
G01 X56.5343 Y26.2836 F120.00
G01 X56.5492 Y26.2742 F120.00
G01 X56.6123 Y26.2363 F120.00
G01 X56.6276 Y26.2277 F120.00
G01 X56.6433 Y26.2198 F120.00
G01 X56.7098 Y26.1883 F120.00
G01 X56.7259 Y26.1812 F120.00
G01 X56.7423 Y26.1748 F120.00
G01 X56.8116 Y26.1500 F120.00
G01 X56.8283 Y26.1445 F120.00
G01 X56.8453 Y26.1398 F120.00
G01 X56.9252 Y26.1199 F120.00
G01 X56.9511 Y26.1151 F120.00
G01 X57.0239 Y26.1043 F120.00
G01 X57.0414 Y26.1021 F120.00
G01 X57.0589 Y26.1008 F120.00
G01 X57.1324 Y26.0972 F120.00
G00 Z2.0000
G00 X57.1383 Y26.2165
G01 F60.00
G01 Z-0.1100
G01 F120.00
G01 X57.1500 Y26.2162 F120.00
G01 X57.1617 Y26.2165 F120.00
G01 X57.2469 Y26.2210 F120.00
G01 X57.3314 Y26.2332 F120.00
G01 X57.3429 Y26.2352 F120.00
G01 X57.3543 Y26.2378 F120.00
G01 X57.4370 Y26.2588 F120.00
G01 X57.5175 Y26.2872 F120.00
G01 X57.5284 Y26.2915 F120.00
G01 X57.5391 Y26.2962 F120.00
G01 X57.6161 Y26.3330 F120.00
G01 X57.6263 Y26.3387 F120.00
G01 X57.6993 Y26.3828 F120.00
G01 X57.7089 Y26.3896 F120.00
G01 X57.7773 Y26.4406 F120.00
G01 X57.8407 Y26.4977 F120.00
G01 X57.8492 Y26.5058 F120.00
G01 X57.8573 Y26.5143 F120.00
G01 X57.9144 Y26.5777 F120.00
G01 X57.9654 Y26.6461 F120.00
G01 X57.9722 Y26.6557 F120.00
G01 X58.0163 Y26.7287 F120.00
G01 X58.0220 Y26.7389 F120.00
G01 X58.0273 Y26.7494 F120.00
G01 X58.0635 Y26.8266 F120.00
G01 X58.0678 Y26.8375 F120.00
G01 X58.0962 Y26.9180 F120.00
G01 X58.1172 Y27.0007 F120.00
G01 X58.1198 Y27.0121 F120.00
G01 X58.1218 Y27.0236 F120.00
G01 X58.1340 Y27.1081 F120.00
G01 X58.1385 Y27.1933 F120.00
G01 X58.1388 Y27.2050 F120.00
G01 X58.1387 Y27.7109 F120.00
G01 X58.1349 Y27.7902 F120.00
G01 X58.1340 Y27.8019 F120.00
G01 X58.1218 Y27.8864 F120.00
G01 X58.1198 Y27.8979 F120.00
G01 X58.1172 Y27.9093 F120.00
G01 X58.0962 Y27.9920 F120.00
G01 X58.0678 Y28.0725 F120.00
G01 X58.0635 Y28.0834 F120.00
G01 X58.0588 Y28.0941 F120.00
G01 X58.0220 Y28.1711 F120.00
G01 X58.0163 Y28.1813 F120.00
G01 X57.9722 Y28.2543 F120.00
G01 X57.9654 Y28.2639 F120.00
G01 X57.9144 Y28.3323 F120.00
G01 X57.8573 Y28.3957 F120.00
G01 X57.8492 Y28.4042 F120.00
G01 X57.8407 Y28.4123 F120.00
G01 X57.7773 Y28.4694 F120.00
G01 X57.7089 Y28.5204 F120.00
G01 X57.6993 Y28.5272 F120.00
G01 X57.6894 Y28.5334 F120.00
G01 X57.6161 Y28.5770 F120.00
G01 X57.5391 Y28.6138 F120.00
G01 X57.5284 Y28.6185 F120.00
G01 X57.5175 Y28.6228 F120.00
G01 X57.4370 Y28.6512 F120.00
G01 X57.3543 Y28.6722 F120.00
G01 X57.3429 Y28.6748 F120.00
G01 X57.3314 Y28.6768 F120.00
G01 X57.2469 Y28.6890 F120.00
G01 X57.1617 Y28.6935 F120.00
G01 X57.1500 Y28.6938 F120.00
G01 X57.1383 Y28.6935 F120.00
G01 X57.0531 Y28.6890 F120.00
G01 X56.9686 Y28.6768 F120.00
G01 X56.9571 Y28.6748 F120.00
G01 X56.9457 Y28.6722 F120.00
G01 X56.8630 Y28.6512 F120.00
G01 X56.7825 Y28.6228 F120.00
G01 X56.7716 Y28.6185 F120.00
G01 X56.7609 Y28.6138 F120.00
G01 X56.6839 Y28.5770 F120.00
G01 X56.6737 Y28.5713 F120.00
G01 X56.6007 Y28.5272 F120.00
G01 X56.5911 Y28.5204 F120.00
G01 X56.5227 Y28.4694 F120.00
G01 X56.4593 Y28.4123 F120.00
G01 X56.4508 Y28.4042 F120.00
G01 X56.4427 Y28.3957 F120.00
G01 X56.3856 Y28.3323 F120.00
G01 X56.3346 Y28.2639 F120.00
G01 X56.3278 Y28.2543 F120.00
G01 X56.2837 Y28.1813 F120.00
G01 X56.2780 Y28.1711 F120.00
G01 X56.2727 Y28.1606 F120.00
G01 X56.2365 Y28.0834 F120.00
G01 X56.2322 Y28.0725 F120.00
G01 X56.2038 Y27.9920 F120.00
G01 X56.1828 Y27.9093 F120.00
G01 X56.1802 Y27.8979 F120.00
G01 X56.1782 Y27.8864 F120.00
G01 X56.1660 Y27.8019 F120.00
G01 X56.1615 Y27.7167 F120.00
G01 X56.1612 Y27.7050 F120.00
G01 X56.1613 Y27.1991 F120.00
G01 X56.1651 Y27.1198 F120.00
G01 X56.1660 Y27.1081 F120.00
G01 X56.1782 Y27.0236 F120.00
G01 X56.1802 Y27.0121 F120.00
G01 X56.1828 Y27.0007 F120.00
G01 X56.2038 Y26.9180 F120.00
G01 X56.2322 Y26.8375 F120.00
G01 X56.2365 Y26.8266 F120.00
G01 X56.2412 Y26.8159 F120.00
G01 X56.2780 Y26.7389 F120.00
G01 X56.2837 Y26.7287 F120.00
G01 X56.3278 Y26.6557 F120.00
G01 X56.3346 Y26.6461 F120.00
G01 X56.3856 Y26.5777 F120.00
G01 X56.4427 Y26.5143 F120.00
G01 X56.4508 Y26.5058 F120.00
G01 X56.4593 Y26.4977 F120.00
G01 X56.5227 Y26.4406 F120.00
G01 X56.5911 Y26.3896 F120.00
G01 X56.6007 Y26.3828 F120.00
G01 X56.6106 Y26.3766 F120.00
G01 X56.6839 Y26.3330 F120.00
G01 X56.6944 Y26.3277 F120.00
G01 X56.7716 Y26.2915 F120.00
G01 X56.8518 Y26.2625 F120.00
G01 X56.8630 Y26.2588 F120.00
G01 X56.8743 Y26.2557 F120.00
G01 X56.9457 Y26.2378 F120.00
G01 X56.9571 Y26.2352 F120.00
G01 X56.9686 Y26.2332 F120.00
G01 X57.0531 Y26.2210 F120.00
G01 X57.1383 Y26.2165 F120.00
G00 Z2.0000
G00 X57.1441 Y26.3357
G01 F60.00
G01 Z-0.1100
G01 F120.00
G01 X57.1559 Y26.3357 F120.00
G01 X57.2352 Y26.3398 F120.00
G01 X57.3196 Y26.3523 F120.00
G01 X57.4024 Y26.3730 F120.00
G01 X57.4827 Y26.4018 F120.00
G01 X57.5598 Y26.4383 F120.00
G01 X57.6330 Y26.4821 F120.00
G01 X57.7015 Y26.5329 F120.00
G01 X57.7648 Y26.5902 F120.00
G01 X57.8221 Y26.6535 F120.00
G01 X57.8729 Y26.7220 F120.00
G01 X57.9167 Y26.7952 F120.00
G01 X57.9532 Y26.8723 F120.00
G01 X57.9820 Y26.9526 F120.00
G01 X58.0027 Y27.0354 F120.00
G01 X58.0152 Y27.1198 F120.00
G01 X58.0194 Y27.2050 F120.00
G01 X58.0194 Y27.7050 F120.00
G01 X58.0156 Y27.7844 F120.00
G01 X58.0145 Y27.7960 F120.00
G01 X58.0037 Y27.8688 F120.00
G01 X58.0014 Y27.8803 F120.00
G01 X57.9820 Y27.9574 F120.00
G01 X57.9553 Y28.0322 F120.00
G01 X57.9508 Y28.0431 F120.00
G01 X57.9167 Y28.1148 F120.00
G01 X57.8745 Y28.1856 F120.00
G01 X57.8695 Y28.1928 F120.00
G01 X57.8221 Y28.2565 F120.00
G01 X57.7688 Y28.3155 F120.00
G01 X57.7605 Y28.3238 F120.00
G01 X57.7015 Y28.3771 F120.00
G01 X57.6378 Y28.4245 F120.00
G01 X57.6281 Y28.4310 F120.00
G01 X57.5598 Y28.4717 F120.00
G01 X57.4881 Y28.5058 F120.00
G01 X57.4772 Y28.5103 F120.00
G01 X57.4024 Y28.5370 F120.00
G01 X57.3253 Y28.5564 F120.00
G01 X57.3138 Y28.5587 F120.00
G01 X57.2352 Y28.5702 F120.00
G01 X57.1500 Y28.5744 F120.00
G01 X57.0648 Y28.5702 F120.00
G01 X56.9804 Y28.5577 F120.00
G01 X56.8976 Y28.5370 F120.00
G01 X56.8173 Y28.5082 F120.00
G01 X56.7402 Y28.4717 F120.00
G01 X56.6670 Y28.4279 F120.00
G01 X56.5985 Y28.3771 F120.00
G01 X56.5352 Y28.3198 F120.00
G01 X56.4779 Y28.2565 F120.00
G01 X56.4271 Y28.1880 F120.00
G01 X56.3833 Y28.1148 F120.00
G01 X56.3468 Y28.0377 F120.00
G01 X56.3180 Y27.9574 F120.00
G01 X56.2973 Y27.8746 F120.00
G01 X56.2848 Y27.7902 F120.00
G01 X56.2806 Y27.7050 F120.00
G01 X56.2806 Y27.2050 F120.00
G01 X56.2844 Y27.1256 F120.00
G01 X56.2855 Y27.1140 F120.00
G01 X56.2963 Y27.0412 F120.00
G01 X56.2986 Y27.0297 F120.00
G01 X56.3180 Y26.9526 F120.00
G01 X56.3447 Y26.8778 F120.00
G01 X56.3492 Y26.8669 F120.00
G01 X56.3833 Y26.7952 F120.00
G01 X56.4255 Y26.7244 F120.00
G01 X56.4305 Y26.7172 F120.00
G01 X56.4779 Y26.6535 F120.00
G01 X56.5312 Y26.5945 F120.00
G01 X56.5395 Y26.5862 F120.00
G01 X56.5985 Y26.5329 F120.00
G01 X56.6622 Y26.4855 F120.00
G01 X56.6719 Y26.4790 F120.00
G01 X56.7402 Y26.4383 F120.00
G01 X56.8173 Y26.4018 F120.00
G01 X56.8921 Y26.3749 F120.00
G01 X56.9033 Y26.3715 F120.00
G01 X56.9747 Y26.3536 F120.00
G01 X56.9862 Y26.3513 F120.00
G01 X57.0648 Y26.3398 F120.00
G01 X57.1441 Y26.3357 F120.00
G00 Z2.0000
G00 X62.6769 Y25.3886
G01 F60.00
G01 Z-0.1100
G01 F120.00
G01 X61.1147 Y25.3886 F120.00
G01 X61.0785 Y25.3938 F120.00
G01 X61.0610 Y25.3956 F120.00
G01 X60.9688 Y25.4001 F120.00
G01 X60.9424 Y25.3998 F120.00
G01 X60.8590 Y25.3956 F120.00
G01 X60.8328 Y25.3927 F120.00
G01 X60.7588 Y25.3817 F120.00
G01 X60.7415 Y25.3787 F120.00
G01 X60.7243 Y25.3748 F120.00
G01 X60.6518 Y25.3567 F120.00
G01 X60.6348 Y25.3520 F120.00
G01 X60.6181 Y25.3464 F120.00
G01 X60.5477 Y25.3213 F120.00
G01 X60.5313 Y25.3149 F120.00
G01 X60.5152 Y25.3078 F120.00
G01 X60.4476 Y25.2758 F120.00
G01 X60.4319 Y25.2679 F120.00
G01 X60.4166 Y25.2593 F120.00
G01 X60.3525 Y25.2208 F120.00
G01 X60.3377 Y25.2114 F120.00
G01 X60.3233 Y25.2013 F120.00
G01 X60.2632 Y25.1567 F120.00
G01 X60.2494 Y25.1459 F120.00
G01 X60.2360 Y25.1344 F120.00
G01 X60.1806 Y25.0842 F120.00
G01 X60.1679 Y25.0721 F120.00
G01 X60.1558 Y25.0594 F120.00
G01 X60.1056 Y25.0040 F120.00
G01 X60.0941 Y24.9906 F120.00
G01 X60.0833 Y24.9768 F120.00
G01 X60.0387 Y24.9167 F120.00
G01 X60.0286 Y24.9023 F120.00
G01 X60.0192 Y24.8875 F120.00
G01 X59.9807 Y24.8234 F120.00
G01 X59.9721 Y24.8081 F120.00
G01 X59.9642 Y24.7924 F120.00
G01 X59.9322 Y24.7248 F120.00
G01 X59.9251 Y24.7087 F120.00
G01 X59.9187 Y24.6923 F120.00
G01 X59.8936 Y24.6219 F120.00
G01 X59.8880 Y24.6052 F120.00
G01 X59.8833 Y24.5882 F120.00
G01 X59.8652 Y24.5157 F120.00
G01 X59.8613 Y24.4985 F120.00
G01 X59.8583 Y24.4812 F120.00
G01 X59.8473 Y24.4072 F120.00
G01 X59.8452 Y24.3898 F120.00
G01 X59.8439 Y24.3723 F120.00
G01 X59.8402 Y24.2976 F120.00
G01 X59.8398 Y24.2800 F120.00
G01 X59.8402 Y24.2624 F120.00
G01 X59.8439 Y24.1877 F120.00
G01 X59.8452 Y24.1702 F120.00
G01 X59.8473 Y24.1528 F120.00
G01 X59.8583 Y24.0788 F120.00
G01 X59.8613 Y24.0615 F120.00
G01 X59.8652 Y24.0443 F120.00
G01 X59.8833 Y23.9718 F120.00
G01 X59.8880 Y23.9548 F120.00
G01 X59.8936 Y23.9381 F120.00
G01 X59.9187 Y23.8677 F120.00
G01 X59.9251 Y23.8513 F120.00
G01 X59.9322 Y23.8352 F120.00
G01 X59.9642 Y23.7676 F120.00
G01 X59.9721 Y23.7519 F120.00
G01 X59.9807 Y23.7366 F120.00
G01 X60.0192 Y23.6725 F120.00
G01 X60.0286 Y23.6577 F120.00
G01 X60.0387 Y23.6433 F120.00
G01 X60.0833 Y23.5832 F120.00
G01 X60.0941 Y23.5694 F120.00
G01 X60.1056 Y23.5560 F120.00
G01 X60.1558 Y23.5006 F120.00
G01 X60.1679 Y23.4879 F120.00
G01 X60.1806 Y23.4758 F120.00
G01 X60.2360 Y23.4256 F120.00
G01 X60.2494 Y23.4141 F120.00
G01 X60.2632 Y23.4033 F120.00
G01 X60.3233 Y23.3587 F120.00
G01 X60.3377 Y23.3486 F120.00
G01 X60.3525 Y23.3392 F120.00
G01 X60.4242 Y23.2963 F120.00
G01 X60.4476 Y23.2842 F120.00
G01 X60.5152 Y23.2522 F120.00
G01 X60.5313 Y23.2451 F120.00
G01 X60.5477 Y23.2387 F120.00
G01 X60.6181 Y23.2136 F120.00
G01 X60.6433 Y23.2056 F120.00
G01 X60.7329 Y23.1831 F120.00
G01 X60.7588 Y23.1783 F120.00
G01 X60.8328 Y23.1673 F120.00
G01 X60.8502 Y23.1652 F120.00
G01 X60.8677 Y23.1639 F120.00
G01 X60.9512 Y23.1599 F120.00
G01 X60.9776 Y23.1602 F120.00
G01 X61.0610 Y23.1644 F120.00
G01 X61.0785 Y23.1662 F120.00
G01 X61.1147 Y23.1714 F120.00
G01 X62.6769 Y23.1714 F120.00
G01 X62.6785 Y23.1449 F120.00
G01 X62.6807 Y23.1274 F120.00
G01 X62.6837 Y23.1101 F120.00
G01 X62.6898 Y23.0845 F120.00
G01 X62.6949 Y23.0676 F120.00
G01 X62.7008 Y23.0511 F120.00
G01 X62.7075 Y23.0348 F120.00
G01 X62.7150 Y23.0189 F120.00
G01 X62.7233 Y23.0034 F120.00
G01 X62.7324 Y22.9884 F120.00
G01 X62.7421 Y22.9737 F120.00
G01 X62.7526 Y22.9596 F120.00
G01 X62.7696 Y22.9394 F120.00
G01 X62.7817 Y22.9267 F120.00
G01 X62.7944 Y22.9146 F120.00
G01 X62.8146 Y22.8976 F120.00
G01 X62.8360 Y22.8822 F120.00
G01 X62.8508 Y22.8728 F120.00
G01 X62.8661 Y22.8641 F120.00
G01 X62.8818 Y22.8562 F120.00
G01 X62.8979 Y22.8491 F120.00
G01 X62.9226 Y22.8399 F120.00
G01 X62.9395 Y22.8348 F120.00
G01 X62.9565 Y22.8305 F120.00
G01 X62.9738 Y22.8271 F120.00
G01 X62.9912 Y22.8245 F120.00
G01 X63.0174 Y22.8222 F120.00
G01 X63.0350 Y22.8218 F120.00
G01 X65.2350 Y22.8218 F120.00
G01 X65.2526 Y22.8222 F120.00
G01 X65.2701 Y22.8235 F120.00
G01 X65.2876 Y22.8257 F120.00
G01 X65.3049 Y22.8287 F120.00
G01 X65.3220 Y22.8325 F120.00
G01 X65.3390 Y22.8372 F120.00
G01 X65.3557 Y22.8427 F120.00
G01 X65.3721 Y22.8491 F120.00
G01 X65.3882 Y22.8562 F120.00
G01 X65.4039 Y22.8641 F120.00
G01 X65.4192 Y22.8728 F120.00
G01 X65.4340 Y22.8822 F120.00
G01 X65.4484 Y22.8923 F120.00
G01 X65.4622 Y22.9031 F120.00
G01 X65.4820 Y22.9206 F120.00
G01 X65.4944 Y22.9330 F120.00
G01 X65.5062 Y22.9460 F120.00
G01 X65.5174 Y22.9596 F120.00
G01 X65.5279 Y22.9737 F120.00
G01 X65.5422 Y22.9958 F120.00
G01 X65.5550 Y23.0189 F120.00
G01 X65.5625 Y23.0348 F120.00
G01 X65.5692 Y23.0511 F120.00
G01 X65.5778 Y23.0760 F120.00
G01 X65.5825 Y23.0930 F120.00
G01 X65.5863 Y23.1101 F120.00
G01 X65.5905 Y23.1362 F120.00
G01 X65.5922 Y23.1536 F120.00
G01 X65.5931 Y23.1712 F120.00
G01 X65.5931 Y25.3888 F120.00
G01 X65.5922 Y25.4064 F120.00
G01 X65.5905 Y25.4238 F120.00
G01 X65.5879 Y25.4412 F120.00
G01 X65.5845 Y25.4585 F120.00
G01 X65.5802 Y25.4755 F120.00
G01 X65.5751 Y25.4924 F120.00
G01 X65.5659 Y25.5171 F120.00
G01 X65.5588 Y25.5332 F120.00
G01 X65.5509 Y25.5489 F120.00
G01 X65.5422 Y25.5642 F120.00
G01 X65.5279 Y25.5863 F120.00
G01 X65.5174 Y25.6004 F120.00
G01 X65.5062 Y25.6140 F120.00
G01 X65.4944 Y25.6270 F120.00
G01 X65.4820 Y25.6394 F120.00
G01 X65.4690 Y25.6512 F120.00
G01 X65.4484 Y25.6677 F120.00
G01 X65.4340 Y25.6778 F120.00
G01 X65.4192 Y25.6872 F120.00
G01 X65.3961 Y25.7000 F120.00
G01 X65.3802 Y25.7075 F120.00
G01 X65.3639 Y25.7142 F120.00
G01 X65.3390 Y25.7228 F120.00
G01 X65.3220 Y25.7275 F120.00
G01 X65.3049 Y25.7313 F120.00
G01 X65.2788 Y25.7355 F120.00
G01 X65.2614 Y25.7372 F120.00
G01 X65.2438 Y25.7381 F120.00
G01 X63.0350 Y25.7382 F120.00
G01 X63.0174 Y25.7378 F120.00
G01 X62.9999 Y25.7365 F120.00
G01 X62.9824 Y25.7343 F120.00
G01 X62.9651 Y25.7313 F120.00
G01 X62.9395 Y25.7252 F120.00
G01 X62.9226 Y25.7201 F120.00
G01 X62.9061 Y25.7142 F120.00
G01 X62.8898 Y25.7075 F120.00
G01 X62.8739 Y25.7000 F120.00
G01 X62.8584 Y25.6917 F120.00
G01 X62.8434 Y25.6826 F120.00
G01 X62.8287 Y25.6729 F120.00
G01 X62.8146 Y25.6624 F120.00
G01 X62.7944 Y25.6454 F120.00
G01 X62.7817 Y25.6333 F120.00
G01 X62.7696 Y25.6206 F120.00
G01 X62.7581 Y25.6072 F120.00
G01 X62.7473 Y25.5934 F120.00
G01 X62.7372 Y25.5790 F120.00
G01 X62.7278 Y25.5642 F120.00
G01 X62.7150 Y25.5411 F120.00
G01 X62.7075 Y25.5252 F120.00
G01 X62.7008 Y25.5089 F120.00
G01 X62.6949 Y25.4924 F120.00
G01 X62.6898 Y25.4755 F120.00
G01 X62.6837 Y25.4499 F120.00
G01 X62.6807 Y25.4326 F120.00
G01 X62.6785 Y25.4151 F120.00
G01 X62.6769 Y25.3886 F120.00
G00 Z2.0000
G00 X62.5749 Y23.0520
G01 F60.00
G01 Z-0.1100
G01 F120.00
G01 X62.5815 Y23.0302 F120.00
G01 X62.5894 Y23.0081 F120.00
G01 X62.5938 Y22.9972 F120.00
G01 X62.6033 Y22.9758 F120.00
G01 X62.6084 Y22.9653 F120.00
G01 X62.6194 Y22.9446 F120.00
G01 X62.6253 Y22.9345 F120.00
G01 X62.6379 Y22.9147 F120.00
G01 X62.6445 Y22.9050 F120.00
G01 X62.6585 Y22.8862 F120.00
G01 X62.6734 Y22.8680 F120.00
G01 X62.6811 Y22.8593 F120.00
G01 X62.6973 Y22.8423 F120.00
G01 X62.7057 Y22.8341 F120.00
G01 X62.7143 Y22.8261 F120.00
G01 X62.7320 Y22.8108 F120.00
G01 X62.7505 Y22.7964 F120.00
G01 X62.7600 Y22.7895 F120.00
G01 X62.7795 Y22.7765 F120.00
G01 X62.7996 Y22.7644 F120.00
G01 X62.8099 Y22.7588 F120.00
G01 X62.8308 Y22.7483 F120.00
G01 X62.8415 Y22.7434 F120.00
G01 X62.8631 Y22.7344 F120.00
G01 X62.8741 Y22.7303 F120.00
G01 X62.8964 Y22.7230 F120.00
G01 X62.9076 Y22.7197 F120.00
G01 X62.9304 Y22.7140 F120.00
G01 X62.9533 Y22.7094 F120.00
G01 X62.9649 Y22.7076 F120.00
G01 X62.9882 Y22.7047 F120.00
G01 X62.9999 Y22.7037 F120.00
G01 X63.0116 Y22.7030 F120.00
G01 X63.0350 Y22.7024 F120.00
G01 X65.2350 Y22.7024 F120.00
G01 X65.2584 Y22.7030 F120.00
G01 X65.2701 Y22.7037 F120.00
G01 X65.2935 Y22.7060 F120.00
G01 X65.3167 Y22.7094 F120.00
G01 X65.3396 Y22.7140 F120.00
G01 X65.3624 Y22.7197 F120.00
G01 X65.3848 Y22.7265 F120.00
G01 X65.3959 Y22.7303 F120.00
G01 X65.4178 Y22.7388 F120.00
G01 X65.4392 Y22.7483 F120.00
G01 X65.4497 Y22.7534 F120.00
G01 X65.4601 Y22.7588 F120.00
G01 X65.4805 Y22.7703 F120.00
G01 X65.5003 Y22.7829 F120.00
G01 X65.5195 Y22.7964 F120.00
G01 X65.5380 Y22.8108 F120.00
G01 X65.5470 Y22.8184 F120.00
G01 X65.5643 Y22.8341 F120.00
G01 X65.5809 Y22.8507 F120.00
G01 X65.5966 Y22.8680 F120.00
G01 X65.6115 Y22.8862 F120.00
G01 X65.6255 Y22.9050 F120.00
G01 X65.6321 Y22.9147 F120.00
G01 X65.6447 Y22.9345 F120.00
G01 X65.6562 Y22.9549 F120.00
G01 X65.6667 Y22.9758 F120.00
G01 X65.6762 Y22.9972 F120.00
G01 X65.6847 Y23.0191 F120.00
G01 X65.6920 Y23.0414 F120.00
G01 X65.6983 Y23.0640 F120.00
G01 X65.7034 Y23.0868 F120.00
G01 X65.7074 Y23.1099 F120.00
G01 X65.7103 Y23.1332 F120.00
G01 X65.7113 Y23.1449 F120.00
G01 X65.7125 Y23.1683 F120.00
G01 X65.7126 Y25.3800 F120.00
G01 X65.7120 Y25.4034 F120.00
G01 X65.7103 Y25.4268 F120.00
G01 X65.7090 Y25.4385 F120.00
G01 X65.7056 Y25.4617 F120.00
G01 X65.7010 Y25.4846 F120.00
G01 X65.6953 Y25.5074 F120.00
G01 X65.6885 Y25.5298 F120.00
G01 X65.6847 Y25.5409 F120.00
G01 X65.6762 Y25.5628 F120.00
G01 X65.6667 Y25.5842 F120.00
G01 X65.6616 Y25.5947 F120.00
G01 X65.6506 Y25.6154 F120.00
G01 X65.6447 Y25.6255 F120.00
G01 X65.6321 Y25.6453 F120.00
G01 X65.6186 Y25.6645 F120.00
G01 X65.6042 Y25.6830 F120.00
G01 X65.5966 Y25.6920 F120.00
G01 X65.5809 Y25.7093 F120.00
G01 X65.5643 Y25.7259 F120.00
G01 X65.5470 Y25.7416 F120.00
G01 X65.5288 Y25.7565 F120.00
G01 X65.5100 Y25.7705 F120.00
G01 X65.4905 Y25.7835 F120.00
G01 X65.4704 Y25.7956 F120.00
G01 X65.4497 Y25.8066 F120.00
G01 X65.4285 Y25.8166 F120.00
G01 X65.4069 Y25.8256 F120.00
G01 X65.3848 Y25.8335 F120.00
G01 X65.3624 Y25.8403 F120.00
G01 X65.3396 Y25.8460 F120.00
G01 X65.3167 Y25.8506 F120.00
G01 X65.2935 Y25.8540 F120.00
G01 X65.2701 Y25.8563 F120.00
G01 X65.2584 Y25.8570 F120.00
G01 X65.2350 Y25.8576 F120.00
G01 X63.0350 Y25.8576 F120.00
G01 X63.0116 Y25.8570 F120.00
G01 X62.9882 Y25.8553 F120.00
G01 X62.9765 Y25.8540 F120.00
G01 X62.9649 Y25.8524 F120.00
G01 X62.9418 Y25.8484 F120.00
G01 X62.9190 Y25.8433 F120.00
G01 X62.9076 Y25.8403 F120.00
G01 X62.8852 Y25.8335 F120.00
G01 X62.8741 Y25.8297 F120.00
G01 X62.8522 Y25.8212 F120.00
G01 X62.8415 Y25.8166 F120.00
G01 X62.8308 Y25.8117 F120.00
G01 X62.8099 Y25.8012 F120.00
G01 X62.7895 Y25.7897 F120.00
G01 X62.7795 Y25.7835 F120.00
G01 X62.7697 Y25.7771 F120.00
G01 X62.7505 Y25.7636 F120.00
G01 X62.7320 Y25.7492 F120.00
G01 X62.7230 Y25.7416 F120.00
G01 X62.7143 Y25.7339 F120.00
G01 X62.6973 Y25.7177 F120.00
G01 X62.6811 Y25.7007 F120.00
G01 X62.6734 Y25.6920 F120.00
G01 X62.6585 Y25.6738 F120.00
G01 X62.6514 Y25.6645 F120.00
G01 X62.6379 Y25.6453 F120.00
G01 X62.6315 Y25.6355 F120.00
G01 X62.6253 Y25.6255 F120.00
G01 X62.6138 Y25.6051 F120.00
G01 X62.6033 Y25.5842 F120.00
G01 X62.5984 Y25.5735 F120.00
G01 X62.5938 Y25.5628 F120.00
G01 X62.5853 Y25.5409 F120.00
G01 X62.5815 Y25.5298 F120.00
G01 X62.5749 Y25.5080 F120.00
G01 X61.1236 Y25.5080 F120.00
G01 X61.0932 Y25.5123 F120.00
G01 X61.0698 Y25.5146 F120.00
G01 X60.9834 Y25.5190 F120.00
G01 X60.9600 Y25.5196 F120.00
G01 X60.9483 Y25.5195 F120.00
G01 X60.8619 Y25.5154 F120.00
G01 X60.8385 Y25.5136 F120.00
G01 X60.8152 Y25.5108 F120.00
G01 X60.7413 Y25.4998 F120.00
G01 X60.7182 Y25.4958 F120.00
G01 X60.7067 Y25.4934 F120.00
G01 X60.6114 Y25.4695 F120.00
G01 X60.6002 Y25.4662 F120.00
G01 X60.5779 Y25.4589 F120.00
G01 X60.5075 Y25.4337 F120.00
G01 X60.4856 Y25.4252 F120.00
G01 X60.4642 Y25.4157 F120.00
G01 X60.3966 Y25.3838 F120.00
G01 X60.3757 Y25.3732 F120.00
G01 X60.3553 Y25.3617 F120.00
G01 X60.2911 Y25.3232 F120.00
G01 X60.2713 Y25.3107 F120.00
G01 X60.2521 Y25.2972 F120.00
G01 X60.1921 Y25.2526 F120.00
G01 X60.1736 Y25.2382 F120.00
G01 X60.1559 Y25.2229 F120.00
G01 X60.1004 Y25.1727 F120.00
G01 X60.0835 Y25.1565 F120.00
G01 X60.0673 Y25.1396 F120.00
G01 X60.0171 Y25.0841 F120.00
G01 X60.0018 Y25.0664 F120.00
G01 X59.9945 Y25.0572 F120.00
G01 X59.9428 Y24.9879 F120.00
G01 X59.9293 Y24.9687 F120.00
G01 X59.9168 Y24.9489 F120.00
G01 X59.8783 Y24.8847 F120.00
G01 X59.8668 Y24.8643 F120.00
G01 X59.8562 Y24.8434 F120.00
G01 X59.8243 Y24.7758 F120.00
G01 X59.8148 Y24.7544 F120.00
G01 X59.8063 Y24.7325 F120.00
G01 X59.7811 Y24.6621 F120.00
G01 X59.7738 Y24.6398 F120.00
G01 X59.7675 Y24.6172 F120.00
G01 X59.7494 Y24.5447 F120.00
G01 X59.7442 Y24.5218 F120.00
G01 X59.7402 Y24.4987 F120.00
G01 X59.7292 Y24.4248 F120.00
G01 X59.7264 Y24.4015 F120.00
G01 X59.7246 Y24.3781 F120.00
G01 X59.7210 Y24.3034 F120.00
G01 X59.7204 Y24.2800 F120.00
G01 X59.7210 Y24.2566 F120.00
G01 X59.7246 Y24.1819 F120.00
G01 X59.7264 Y24.1585 F120.00
G01 X59.7292 Y24.1352 F120.00
G01 X59.7402 Y24.0613 F120.00
G01 X59.7442 Y24.0382 F120.00
G01 X59.7494 Y24.0153 F120.00
G01 X59.7675 Y23.9428 F120.00
G01 X59.7738 Y23.9202 F120.00
G01 X59.7811 Y23.8979 F120.00
G01 X59.8063 Y23.8275 F120.00
G01 X59.8148 Y23.8056 F120.00
G01 X59.8243 Y23.7842 F120.00
G01 X59.8562 Y23.7166 F120.00
G01 X59.8668 Y23.6957 F120.00
G01 X59.8783 Y23.6753 F120.00
G01 X59.9168 Y23.6111 F120.00
G01 X59.9293 Y23.5913 F120.00
G01 X59.9428 Y23.5721 F120.00
G01 X59.9874 Y23.5121 F120.00
G01 X60.0018 Y23.4936 F120.00
G01 X60.0171 Y23.4759 F120.00
G01 X60.0673 Y23.4204 F120.00
G01 X60.0835 Y23.4035 F120.00
G01 X60.1004 Y23.3873 F120.00
G01 X60.1559 Y23.3371 F120.00
G01 X60.1736 Y23.3218 F120.00
G01 X60.1828 Y23.3145 F120.00
G01 X60.2521 Y23.2628 F120.00
G01 X60.2713 Y23.2493 F120.00
G01 X60.2911 Y23.2368 F120.00
G01 X60.3553 Y23.1983 F120.00
G01 X60.3757 Y23.1868 F120.00
G01 X60.3966 Y23.1762 F120.00
G01 X60.4642 Y23.1443 F120.00
G01 X60.4856 Y23.1348 F120.00
G01 X60.5075 Y23.1263 F120.00
G01 X60.5779 Y23.1011 F120.00
G01 X60.6002 Y23.0938 F120.00
G01 X60.6228 Y23.0875 F120.00
G01 X60.6953 Y23.0694 F120.00
G01 X60.7182 Y23.0642 F120.00
G01 X60.7413 Y23.0602 F120.00
G01 X60.8152 Y23.0492 F120.00
G01 X60.8385 Y23.0464 F120.00
G01 X60.8619 Y23.0446 F120.00
G01 X60.9366 Y23.0410 F120.00
G01 X60.9600 Y23.0404 F120.00
G01 X60.9834 Y23.0410 F120.00
G01 X61.0698 Y23.0454 F120.00
G01 X61.0932 Y23.0477 F120.00
G01 X61.1236 Y23.0520 F120.00
G01 X62.5749 Y23.0520 F120.00
G00 Z2.0000
G00 X65.3544 Y25.3800
G01 F60.00
G01 Z-0.1100
G01 F120.00
G01 X65.3538 Y25.3917 F120.00
G01 X65.3521 Y25.4033 F120.00
G01 X65.3493 Y25.4147 F120.00
G01 X65.3453 Y25.4257 F120.00
G01 X65.3403 Y25.4363 F120.00
G01 X65.3343 Y25.4463 F120.00
G01 X65.3273 Y25.4557 F120.00
G01 X65.3215 Y25.4623 F120.00
G01 X65.3130 Y25.4704 F120.00
G01 X65.3038 Y25.4776 F120.00
G01 X65.2939 Y25.4839 F120.00
G01 X65.2834 Y25.4892 F120.00
G01 X65.2725 Y25.4934 F120.00
G01 X65.2640 Y25.4958 F120.00
G01 X65.2525 Y25.4981 F120.00
G01 X65.2409 Y25.4993 F120.00
G01 X63.0291 Y25.4993 F120.00
G01 X63.0204 Y25.4985 F120.00
G01 X63.0117 Y25.4971 F120.00
G01 X63.0003 Y25.4943 F120.00
G01 X62.9920 Y25.4914 F120.00
G01 X62.9840 Y25.4879 F120.00
G01 X62.9761 Y25.4839 F120.00
G01 X62.9687 Y25.4793 F120.00
G01 X62.9615 Y25.4741 F120.00
G01 X62.9548 Y25.4685 F120.00
G01 X62.9485 Y25.4623 F120.00
G01 X62.9427 Y25.4557 F120.00
G01 X62.9374 Y25.4488 F120.00
G01 X62.9326 Y25.4414 F120.00
G01 X62.9283 Y25.4337 F120.00
G01 X62.9247 Y25.4257 F120.00
G01 X62.9216 Y25.4175 F120.00
G01 X62.9192 Y25.4090 F120.00
G01 X62.9174 Y25.4004 F120.00
G01 X62.9162 Y25.3917 F120.00
G01 X62.9156 Y25.3829 F120.00
G01 X62.9156 Y25.1498 F120.00
G01 X61.0971 Y25.1498 F120.00
G01 X61.0522 Y25.1564 F120.00
G01 X61.0435 Y25.1574 F120.00
G01 X60.9600 Y25.1614 F120.00
G01 X60.8736 Y25.1572 F120.00
G01 X60.7938 Y25.1455 F120.00
G01 X60.7823 Y25.1432 F120.00
G01 X60.7041 Y25.1234 F120.00
G01 X60.6227 Y25.0943 F120.00
G01 X60.5445 Y25.0573 F120.00
G01 X60.4703 Y25.0129 F120.00
G01 X60.4008 Y24.9613 F120.00
G01 X60.3368 Y24.9032 F120.00
G01 X60.2787 Y24.8392 F120.00
G01 X60.2271 Y24.7697 F120.00
G01 X60.1827 Y24.6955 F120.00
G01 X60.1457 Y24.6173 F120.00
G01 X60.1166 Y24.5359 F120.00
G01 X60.0955 Y24.4520 F120.00
G01 X60.0828 Y24.3664 F120.00
G01 X60.0786 Y24.2800 F120.00
G01 X60.0828 Y24.1936 F120.00
G01 X60.0945 Y24.1138 F120.00
G01 X60.0968 Y24.1023 F120.00
G01 X60.1166 Y24.0241 F120.00
G01 X60.1436 Y23.9482 F120.00
G01 X60.1481 Y23.9373 F120.00
G01 X60.1827 Y23.8645 F120.00
G01 X60.2240 Y23.7953 F120.00
G01 X60.2305 Y23.7855 F120.00
G01 X60.2787 Y23.7208 F120.00
G01 X60.3368 Y23.6568 F120.00
G01 X60.4008 Y23.5987 F120.00
G01 X60.4655 Y23.5505 F120.00
G01 X60.4753 Y23.5440 F120.00
G01 X60.5445 Y23.5027 F120.00
G01 X60.6173 Y23.4681 F120.00
G01 X60.6282 Y23.4636 F120.00
G01 X60.7041 Y23.4366 F120.00
G01 X60.7880 Y23.4155 F120.00
G01 X60.8736 Y23.4028 F120.00
G01 X60.9600 Y23.3986 F120.00
G01 X61.0435 Y23.4026 F120.00
G01 X61.0522 Y23.4036 F120.00
G01 X61.0971 Y23.4102 F120.00
G01 X62.9156 Y23.4102 F120.00
G01 X62.9156 Y23.1771 F120.00
G01 X62.9162 Y23.1683 F120.00
G01 X62.9174 Y23.1596 F120.00
G01 X62.9207 Y23.1453 F120.00
G01 X62.9236 Y23.1370 F120.00
G01 X62.9271 Y23.1290 F120.00
G01 X62.9311 Y23.1211 F120.00
G01 X62.9357 Y23.1137 F120.00
G01 X62.9409 Y23.1065 F120.00
G01 X62.9465 Y23.0998 F120.00
G01 X62.9527 Y23.0935 F120.00
G01 X62.9593 Y23.0877 F120.00
G01 X62.9662 Y23.0824 F120.00
G01 X62.9761 Y23.0761 F120.00
G01 X62.9840 Y23.0721 F120.00
G01 X62.9920 Y23.0686 F120.00
G01 X63.0003 Y23.0657 F120.00
G01 X63.0088 Y23.0635 F120.00
G01 X63.0175 Y23.0619 F120.00
G01 X63.0262 Y23.0609 F120.00
G01 X63.0350 Y23.0606 F120.00
G01 X65.2350 Y23.0606 F120.00
G01 X65.2496 Y23.0615 F120.00
G01 X65.2640 Y23.0642 F120.00
G01 X65.2752 Y23.0676 F120.00
G01 X65.2834 Y23.0708 F120.00
G01 X65.2913 Y23.0747 F120.00
G01 X65.2989 Y23.0791 F120.00
G01 X65.3061 Y23.0841 F120.00
G01 X65.3130 Y23.0896 F120.00
G01 X65.3194 Y23.0956 F120.00
G01 X65.3273 Y23.1043 F120.00
G01 X65.3326 Y23.1112 F120.00
G01 X65.3389 Y23.1211 F120.00
G01 X65.3429 Y23.1290 F120.00
G01 X65.3464 Y23.1370 F120.00
G01 X65.3493 Y23.1453 F120.00
G01 X65.3515 Y23.1538 F120.00
G01 X65.3535 Y23.1654 F120.00
G01 X65.3543 Y23.1741 F120.00
G01 X65.3544 Y25.3800 F120.00
G00 Z2.0000
G00 X65.4738 Y25.3800
G01 F60.00
G01 Z-0.1100
G01 F120.00
G01 X65.4735 Y25.3917 F120.00
G01 X65.4726 Y25.4034 F120.00
G01 X65.4712 Y25.4150 F120.00
G01 X65.4692 Y25.4266 F120.00
G01 X65.4651 Y25.4437 F120.00
G01 X65.4617 Y25.4549 F120.00
G01 X65.4578 Y25.4659 F120.00
G01 X65.4533 Y25.4768 F120.00
G01 X65.4483 Y25.4874 F120.00
G01 X65.4398 Y25.5028 F120.00
G01 X65.4336 Y25.5127 F120.00
G01 X65.4268 Y25.5223 F120.00
G01 X65.4196 Y25.5315 F120.00
G01 X65.4119 Y25.5404 F120.00
G01 X65.3997 Y25.5530 F120.00
G01 X65.3910 Y25.5608 F120.00
G01 X65.3819 Y25.5683 F120.00
G01 X65.3725 Y25.5752 F120.00
G01 X65.3628 Y25.5818 F120.00
G01 X65.3527 Y25.5878 F120.00
G01 X65.3424 Y25.5933 F120.00
G01 X65.3318 Y25.5983 F120.00
G01 X65.3209 Y25.6028 F120.00
G01 X65.3099 Y25.6067 F120.00
G01 X65.2987 Y25.6101 F120.00
G01 X65.2816 Y25.6142 F120.00
G01 X65.2700 Y25.6162 F120.00
G01 X65.2584 Y25.6176 F120.00
G01 X65.2467 Y25.6185 F120.00
G01 X65.2350 Y25.6188 F120.00
G01 X63.0291 Y25.6187 F120.00
G01 X63.0116 Y25.6176 F120.00
G01 X63.0000 Y25.6162 F120.00
G01 X62.9827 Y25.6130 F120.00
G01 X62.9713 Y25.6101 F120.00
G01 X62.9601 Y25.6067 F120.00
G01 X62.9436 Y25.6006 F120.00
G01 X62.9276 Y25.5933 F120.00
G01 X62.9173 Y25.5878 F120.00
G01 X62.9023 Y25.5786 F120.00
G01 X62.8927 Y25.5718 F120.00
G01 X62.8790 Y25.5608 F120.00
G01 X62.8703 Y25.5530 F120.00
G01 X62.8620 Y25.5447 F120.00
G01 X62.8504 Y25.5315 F120.00
G01 X62.8432 Y25.5223 F120.00
G01 X62.8364 Y25.5127 F120.00
G01 X62.8302 Y25.5028 F120.00
G01 X62.8217 Y25.4874 F120.00
G01 X62.8167 Y25.4768 F120.00
G01 X62.8122 Y25.4659 F120.00
G01 X62.8083 Y25.4549 F120.00
G01 X62.8049 Y25.4437 F120.00
G01 X62.8020 Y25.4323 F120.00
G01 X62.7997 Y25.4208 F120.00
G01 X62.7974 Y25.4034 F120.00
G01 X62.7963 Y25.3859 F120.00
G01 X62.7962 Y25.2692 F120.00
G01 X61.1059 Y25.2692 F120.00
G01 X61.0697 Y25.2745 F120.00
G01 X61.0523 Y25.2765 F120.00
G01 X60.9717 Y25.2805 F120.00
G01 X60.9600 Y25.2808 F120.00
G01 X60.9483 Y25.2805 F120.00
G01 X60.8619 Y25.2760 F120.00
G01 X60.7763 Y25.2636 F120.00
G01 X60.7590 Y25.2604 F120.00
G01 X60.6808 Y25.2408 F120.00
G01 X60.6695 Y25.2377 F120.00
G01 X60.5879 Y25.2088 F120.00
G01 X60.5770 Y25.2046 F120.00
G01 X60.5663 Y25.1999 F120.00
G01 X60.4882 Y25.1626 F120.00
G01 X60.4139 Y25.1184 F120.00
G01 X60.4040 Y25.1121 F120.00
G01 X60.3944 Y25.1054 F120.00
G01 X60.3251 Y25.0536 F120.00
G01 X60.2608 Y24.9958 F120.00
G01 X60.2523 Y24.9877 F120.00
G01 X60.2442 Y24.9792 F120.00
G01 X60.1864 Y24.9149 F120.00
G01 X60.1346 Y24.8456 F120.00
G01 X60.1279 Y24.8360 F120.00
G01 X60.1216 Y24.8261 F120.00
G01 X60.0774 Y24.7518 F120.00
G01 X60.0401 Y24.6737 F120.00
G01 X60.0354 Y24.6630 F120.00
G01 X60.0312 Y24.6521 F120.00
G01 X60.0023 Y24.5705 F120.00
G01 X59.9810 Y24.4867 F120.00
G01 X59.9784 Y24.4752 F120.00
G01 X59.9764 Y24.4637 F120.00
G01 X59.9640 Y24.3781 F120.00
G01 X59.9595 Y24.2917 F120.00
G01 X59.9592 Y24.2800 F120.00
G01 X59.9595 Y24.2683 F120.00
G01 X59.9640 Y24.1819 F120.00
G01 X59.9764 Y24.0963 F120.00
G01 X59.9796 Y24.0790 F120.00
G01 X59.9992 Y24.0008 F120.00
G01 X60.0023 Y23.9895 F120.00
G01 X60.0312 Y23.9079 F120.00
G01 X60.0354 Y23.8970 F120.00
G01 X60.0401 Y23.8863 F120.00
G01 X60.0774 Y23.8082 F120.00
G01 X60.1216 Y23.7339 F120.00
G01 X60.1279 Y23.7240 F120.00
G01 X60.1346 Y23.7144 F120.00
G01 X60.1864 Y23.6451 F120.00
G01 X60.2442 Y23.5808 F120.00
G01 X60.2523 Y23.5723 F120.00
G01 X60.2608 Y23.5642 F120.00
G01 X60.3251 Y23.5064 F120.00
G01 X60.3944 Y23.4546 F120.00
G01 X60.4040 Y23.4479 F120.00
G01 X60.4139 Y23.4416 F120.00
G01 X60.4882 Y23.3974 F120.00
G01 X60.5663 Y23.3601 F120.00
G01 X60.5770 Y23.3554 F120.00
G01 X60.5879 Y23.3512 F120.00
G01 X60.6695 Y23.3223 F120.00
G01 X60.6808 Y23.3192 F120.00
G01 X60.7590 Y23.2996 F120.00
G01 X60.7763 Y23.2964 F120.00
G01 X60.8619 Y23.2840 F120.00
G01 X60.9483 Y23.2795 F120.00
G01 X60.9600 Y23.2792 F120.00
G01 X60.9717 Y23.2795 F120.00
G01 X61.0523 Y23.2835 F120.00
G01 X61.0697 Y23.2855 F120.00
G01 X61.1059 Y23.2908 F120.00
G01 X62.7962 Y23.2908 F120.00
G01 X62.7963 Y23.1741 F120.00
G01 X62.7974 Y23.1566 F120.00
G01 X62.7988 Y23.1450 F120.00
G01 X62.8008 Y23.1334 F120.00
G01 X62.8034 Y23.1220 F120.00
G01 X62.8065 Y23.1107 F120.00
G01 X62.8102 Y23.0996 F120.00
G01 X62.8144 Y23.0886 F120.00
G01 X62.8217 Y23.0726 F120.00
G01 X62.8272 Y23.0623 F120.00
G01 X62.8332 Y23.0522 F120.00
G01 X62.8432 Y23.0377 F120.00
G01 X62.8504 Y23.0285 F120.00
G01 X62.8581 Y23.0196 F120.00
G01 X62.8703 Y23.0070 F120.00
G01 X62.8790 Y22.9992 F120.00
G01 X62.8881 Y22.9917 F120.00
G01 X62.8975 Y22.9848 F120.00
G01 X62.9122 Y22.9752 F120.00
G01 X62.9224 Y22.9694 F120.00
G01 X62.9329 Y22.9641 F120.00
G01 X62.9491 Y22.9572 F120.00
G01 X62.9601 Y22.9533 F120.00
G01 X62.9770 Y22.9484 F120.00
G01 X62.9884 Y22.9458 F120.00
G01 X63.0058 Y22.9430 F120.00
G01 X63.0174 Y22.9418 F120.00
G01 X63.0350 Y22.9412 F120.00
G01 X65.2350 Y22.9412 F120.00
G01 X65.2526 Y22.9418 F120.00
G01 X65.2642 Y22.9430 F120.00
G01 X65.2758 Y22.9447 F120.00
G01 X65.2873 Y22.9470 F120.00
G01 X65.2987 Y22.9499 F120.00
G01 X65.3099 Y22.9533 F120.00
G01 X65.3264 Y22.9594 F120.00
G01 X65.3424 Y22.9667 F120.00
G01 X65.3578 Y22.9752 F120.00
G01 X65.3725 Y22.9848 F120.00
G01 X65.3819 Y22.9917 F120.00
G01 X65.3910 Y22.9992 F120.00
G01 X65.4039 Y23.0111 F120.00
G01 X65.4158 Y23.0240 F120.00
G01 X65.4268 Y23.0377 F120.00
G01 X65.4336 Y23.0473 F120.00
G01 X65.4398 Y23.0572 F120.00
G01 X65.4483 Y23.0726 F120.00
G01 X65.4556 Y23.0886 F120.00
G01 X65.4617 Y23.1051 F120.00
G01 X65.4666 Y23.1220 F120.00
G01 X65.4703 Y23.1392 F120.00
G01 X65.4720 Y23.1508 F120.00
G01 X65.4732 Y23.1624 F120.00
G01 X65.4738 Y23.1800 F120.00
G01 X65.4738 Y25.3800 F120.00
G00 Z2.0000
G00 X69.3000 Y9.9534
G01 F60.00
G01 Z-0.1100
G01 F120.00
G01 X69.2591 Y9.9414 F120.00
G01 X69.2509 Y9.9393 F120.00
G01 X69.2397 Y9.9374 F120.00
G01 X69.2255 Y9.9366 F120.00
G01 X63.8734 Y9.9366 F120.00
G01 X63.8747 Y0.6245 F120.00
G01 X63.8742 Y0.6132 F120.00
G01 X63.8722 Y0.6000 F120.00
G00 Z2.0000
G00 X69.3000 Y9.8290
G01 F60.00
G01 Z-0.1100
G01 F120.00
G01 X69.2818 Y9.8239 F120.00
G01 X69.2651 Y9.8205 F120.00
G01 X69.2482 Y9.8183 F120.00
G01 X69.2369 Y9.8175 F120.00
G01 X69.2255 Y9.8172 F120.00
G01 X63.9928 Y9.8172 F120.00
G01 X63.9941 Y0.6246 F120.00
G01 X63.9939 Y0.6132 F120.00
G01 X63.9929 Y0.6000 F120.00
G00 Z2.0000
G00 X69.3000 Y9.7056
G01 F60.00
G01 Z-0.1100
G01 F120.00
G01 X69.2765 Y9.7014 F120.00
G01 X69.2595 Y9.6994 F120.00
G01 X69.2425 Y9.6982 F120.00
G01 X69.2255 Y9.6978 F120.00
G01 X64.1123 Y9.6978 F120.00
G01 X64.1135 Y0.6246 F120.00
G01 X64.1127 Y0.6000 F120.00
G00 Z2.0000
G00 X69.3000 Y9.5843
G01 F60.00
G01 Z-0.1100
G01 F120.00
G01 X69.2822 Y9.5818 F120.00
G01 X69.2596 Y9.5796 F120.00
G01 X69.2482 Y9.5789 F120.00
G01 X69.2255 Y9.5784 F120.00
G01 X64.2317 Y9.5784 F120.00
G01 X64.2329 Y0.6246 F120.00
G01 X64.2323 Y0.6000 F120.00
G00 Z2.0000
G00 X57.3600 Y1.7206
G01 F60.00
G01 Z-0.1100
G01 F120.00
G01 X57.3688 Y1.7209 F120.00
G01 X57.3804 Y1.7224 F120.00
G01 X57.3890 Y1.7242 F120.00
G01 X57.3975 Y1.7266 F120.00
G01 X57.4057 Y1.7297 F120.00
G01 X57.4137 Y1.7333 F120.00
G01 X57.4239 Y1.7391 F120.00
G01 X57.4311 Y1.7441 F120.00
G01 X57.4402 Y1.7515 F120.00
G01 X57.4465 Y1.7577 F120.00
G01 X57.4523 Y1.7643 F120.00
G01 X57.4576 Y1.7712 F120.00
G01 X57.4624 Y1.7786 F120.00
G01 X57.4667 Y1.7863 F120.00
G01 X57.4703 Y1.7943 F120.00
G01 X57.4743 Y1.8053 F120.00
G01 X57.4765 Y1.8138 F120.00
G01 X57.4781 Y1.8225 F120.00
G01 X57.4794 Y1.8371 F120.00
G01 X57.4794 Y2.1313 F120.00
G01 X57.4948 Y2.1570 F120.00
G01 X57.4990 Y2.1647 F120.00
G01 X57.5435 Y2.2587 F120.00
G01 X57.5468 Y2.2669 F120.00
G01 X57.5808 Y2.3621 F120.00
G01 X57.5832 Y2.3706 F120.00
G01 X57.6084 Y2.4715 F120.00
G01 X57.6238 Y2.5744 F120.00
G01 X57.6249 Y2.5861 F120.00
G01 X57.6299 Y2.6900 F120.00
G01 X57.6249 Y2.7939 F120.00
G01 X57.6238 Y2.8056 F120.00
G01 X57.6094 Y2.9027 F120.00
G01 X57.6078 Y2.9113 F120.00
G01 X57.5817 Y3.0151 F120.00
G01 X57.5457 Y3.1158 F120.00
G01 X57.5423 Y3.1239 F120.00
G01 X57.4990 Y3.2153 F120.00
G01 X57.4948 Y3.2230 F120.00
G01 X57.4794 Y3.2487 F120.00
G01 X57.4794 Y3.5429 F120.00
G01 X57.4788 Y3.5517 F120.00
G01 X57.4776 Y3.5604 F120.00
G01 X57.4751 Y3.5718 F120.00
G01 X57.4724 Y3.5802 F120.00
G01 X57.4667 Y3.5937 F120.00
G01 X57.4593 Y3.6063 F120.00
G01 X57.4504 Y3.6180 F120.00
G01 X57.4402 Y3.6285 F120.00
G01 X57.4288 Y3.6376 F120.00
G01 X57.4163 Y3.6453 F120.00
G01 X57.4030 Y3.6514 F120.00
G01 X57.3890 Y3.6558 F120.00
G01 X57.3746 Y3.6585 F120.00
G01 X57.3600 Y3.6594 F120.00
G01 X57.0687 Y3.6594 F120.00
G01 X57.0430 Y3.6748 F120.00
G01 X57.0353 Y3.6790 F120.00
G01 X56.9413 Y3.7235 F120.00
G01 X56.9331 Y3.7268 F120.00
G01 X56.8379 Y3.7608 F120.00
G01 X56.8294 Y3.7632 F120.00
G01 X56.7285 Y3.7884 F120.00
G01 X56.6227 Y3.8042 F120.00
G01 X56.6139 Y3.8049 F120.00
G01 X56.5100 Y3.8099 F120.00
G01 X50.1700 Y3.8099 F120.00
G01 X50.0661 Y3.8049 F120.00
G01 X50.0573 Y3.8042 F120.00
G01 X49.9515 Y3.7884 F120.00
G01 X49.8506 Y3.7632 F120.00
G01 X49.8421 Y3.7608 F120.00
G01 X49.7469 Y3.7268 F120.00
G01 X49.7387 Y3.7235 F120.00
G01 X49.6447 Y3.6790 F120.00
G01 X49.6370 Y3.6748 F120.00
G01 X49.6113 Y3.6594 F120.00
G01 X49.3200 Y3.6594 F120.00
G01 X49.3083 Y3.6588 F120.00
G01 X49.2996 Y3.6576 F120.00
G01 X49.2882 Y3.6551 F120.00
G01 X49.2770 Y3.6514 F120.00
G01 X49.2690 Y3.6479 F120.00
G01 X49.2611 Y3.6439 F120.00
G01 X49.2512 Y3.6376 F120.00
G01 X49.2420 Y3.6304 F120.00
G01 X49.2356 Y3.6244 F120.00
G01 X49.2296 Y3.6180 F120.00
G01 X49.2224 Y3.6088 F120.00
G01 X49.2161 Y3.5989 F120.00
G01 X49.2121 Y3.5910 F120.00
G01 X49.2076 Y3.5802 F120.00
G01 X49.2049 Y3.5718 F120.00
G01 X49.2029 Y3.5633 F120.00
G01 X49.2012 Y3.5517 F120.00
G01 X49.2006 Y3.5400 F120.00
G01 X49.2006 Y3.2487 F120.00
G01 X49.1852 Y3.2230 F120.00
G01 X49.1810 Y3.2153 F120.00
G01 X49.1365 Y3.1213 F120.00
G01 X49.1332 Y3.1131 F120.00
G01 X49.0992 Y3.0179 F120.00
G01 X49.0968 Y3.0094 F120.00
G01 X49.0716 Y2.9085 F120.00
G01 X49.0558 Y2.8027 F120.00
G01 X49.0551 Y2.7939 F120.00
G01 X49.0502 Y2.6959 F120.00
G01 X49.0502 Y2.6841 F120.00
G01 X49.0555 Y2.5802 F120.00
G01 X49.0711 Y2.4744 F120.00
G01 X49.0729 Y2.4658 F120.00
G01 X49.0983 Y2.3649 F120.00
G01 X49.1343 Y2.2642 F120.00
G01 X49.1377 Y2.2561 F120.00
G01 X49.1810 Y2.1647 F120.00
G01 X49.1852 Y2.1570 F120.00
G01 X49.2006 Y2.1313 F120.00
G01 X49.2006 Y1.8400 F120.00
G01 X49.2009 Y1.8312 F120.00
G01 X49.2019 Y1.8225 F120.00
G01 X49.2042 Y1.8110 F120.00
G01 X49.2066 Y1.8025 F120.00
G01 X49.2097 Y1.7943 F120.00
G01 X49.2133 Y1.7863 F120.00
G01 X49.2176 Y1.7786 F120.00
G01 X49.2224 Y1.7712 F120.00
G01 X49.2277 Y1.7643 F120.00
G01 X49.2335 Y1.7577 F120.00
G01 X49.2420 Y1.7496 F120.00
G01 X49.2512 Y1.7424 F120.00
G01 X49.2611 Y1.7361 F120.00
G01 X49.2716 Y1.7308 F120.00
G01 X49.2825 Y1.7266 F120.00
G01 X49.2938 Y1.7235 F120.00
G01 X49.3054 Y1.7215 F120.00
G01 X49.3200 Y1.7206 F120.00
G01 X49.6113 Y1.7206 F120.00
G01 X49.6370 Y1.7052 F120.00
G01 X49.6447 Y1.7010 F120.00
G01 X49.7387 Y1.6565 F120.00
G01 X49.7469 Y1.6532 F120.00
G01 X49.8421 Y1.6192 F120.00
G01 X49.8506 Y1.6168 F120.00
G01 X49.9515 Y1.5916 F120.00
G01 X50.0573 Y1.5758 F120.00
G01 X50.0661 Y1.5751 F120.00
G01 X50.1700 Y1.5701 F120.00
G01 X56.5129 Y1.5701 F120.00
G01 X56.6139 Y1.5751 F120.00
G01 X56.6256 Y1.5762 F120.00
G01 X56.7285 Y1.5916 F120.00
G01 X56.8323 Y1.6175 F120.00
G01 X56.8407 Y1.6202 F120.00
G01 X56.9331 Y1.6532 F120.00
G01 X56.9413 Y1.6565 F120.00
G01 X57.0353 Y1.7010 F120.00
G01 X57.0430 Y1.7052 F120.00
G01 X57.0687 Y1.7206 F120.00
G01 X57.3600 Y1.7206 F120.00
G00 Z2.0000
G00 X49.0812 Y2.0984
G01 F60.00
G01 Z-0.1100
G01 F120.00
G01 X49.0813 Y1.8341 F120.00
G01 X49.0818 Y1.8224 F120.00
G01 X49.0830 Y1.8108 F120.00
G01 X49.0847 Y1.7992 F120.00
G01 X49.0870 Y1.7877 F120.00
G01 X49.0899 Y1.7763 F120.00
G01 X49.0933 Y1.7651 F120.00
G01 X49.0994 Y1.7486 F120.00
G01 X49.1041 Y1.7379 F120.00
G01 X49.1094 Y1.7274 F120.00
G01 X49.1152 Y1.7172 F120.00
G01 X49.1214 Y1.7073 F120.00
G01 X49.1282 Y1.6977 F120.00
G01 X49.1354 Y1.6885 F120.00
G01 X49.1431 Y1.6796 F120.00
G01 X49.1511 Y1.6711 F120.00
G01 X49.1596 Y1.6631 F120.00
G01 X49.1685 Y1.6554 F120.00
G01 X49.1777 Y1.6482 F120.00
G01 X49.1873 Y1.6414 F120.00
G01 X49.2023 Y1.6322 F120.00
G01 X49.2126 Y1.6267 F120.00
G01 X49.2286 Y1.6194 F120.00
G01 X49.2396 Y1.6152 F120.00
G01 X49.2507 Y1.6115 F120.00
G01 X49.2677 Y1.6070 F120.00
G01 X49.2850 Y1.6038 F120.00
G01 X49.2966 Y1.6024 F120.00
G01 X49.3083 Y1.6015 F120.00
G01 X49.3200 Y1.6012 F120.00
G01 X49.5784 Y1.6012 F120.00
G01 X49.5963 Y1.5918 F120.00
G01 X49.6850 Y1.5498 F120.00
G01 X49.6957 Y1.5450 F120.00
G01 X49.7067 Y1.5408 F120.00
G01 X49.7991 Y1.5077 F120.00
G01 X49.8103 Y1.5041 F120.00
G01 X49.8215 Y1.5009 F120.00
G01 X49.9168 Y1.4771 F120.00
G01 X49.9282 Y1.4745 F120.00
G01 X49.9398 Y1.4725 F120.00
G01 X50.0369 Y1.4581 F120.00
G01 X50.0544 Y1.4562 F120.00
G01 X50.1583 Y1.4510 F120.00
G01 X50.1700 Y1.4507 F120.00
G01 X56.5100 Y1.4507 F120.00
G01 X56.5217 Y1.4510 F120.00
G01 X56.6256 Y1.4562 F120.00
G01 X56.6431 Y1.4581 F120.00
G01 X56.7402 Y1.4725 F120.00
G01 X56.7518 Y1.4745 F120.00
G01 X56.7632 Y1.4771 F120.00
G01 X56.8585 Y1.5009 F120.00
G01 X56.8697 Y1.5041 F120.00
G01 X56.8809 Y1.5077 F120.00
G01 X56.9733 Y1.5408 F120.00
G01 X56.9843 Y1.5450 F120.00
G01 X56.9950 Y1.5498 F120.00
G01 X57.0837 Y1.5918 F120.00
G01 X57.1016 Y1.6012 F120.00
G01 X57.3659 Y1.6013 F120.00
G01 X57.3776 Y1.6018 F120.00
G01 X57.3950 Y1.6038 F120.00
G01 X57.4066 Y1.6058 F120.00
G01 X57.4180 Y1.6084 F120.00
G01 X57.4349 Y1.6133 F120.00
G01 X57.4514 Y1.6194 F120.00
G01 X57.4621 Y1.6241 F120.00
G01 X57.4726 Y1.6294 F120.00
G01 X57.4878 Y1.6382 F120.00
G01 X57.4975 Y1.6448 F120.00
G01 X57.5069 Y1.6517 F120.00
G01 X57.5204 Y1.6631 F120.00
G01 X57.5330 Y1.6753 F120.00
G01 X57.5446 Y1.6885 F120.00
G01 X57.5552 Y1.7025 F120.00
G01 X57.5648 Y1.7172 F120.00
G01 X57.5733 Y1.7326 F120.00
G01 X57.5806 Y1.7486 F120.00
G01 X57.5867 Y1.7651 F120.00
G01 X57.5901 Y1.7763 F120.00
G01 X57.5942 Y1.7934 F120.00
G01 X57.5970 Y1.8108 F120.00
G01 X57.5982 Y1.8224 F120.00
G01 X57.5988 Y1.8400 F120.00
G01 X57.5988 Y2.0984 F120.00
G01 X57.6082 Y2.1163 F120.00
G01 X57.6502 Y2.2050 F120.00
G01 X57.6550 Y2.2157 F120.00
G01 X57.6592 Y2.2267 F120.00
G01 X57.6923 Y2.3191 F120.00
G01 X57.6959 Y2.3303 F120.00
G01 X57.6991 Y2.3415 F120.00
G01 X57.7229 Y2.4368 F120.00
G01 X57.7266 Y2.4540 F120.00
G01 X57.7419 Y2.5569 F120.00
G01 X57.7433 Y2.5685 F120.00
G01 X57.7442 Y2.5802 F120.00
G01 X57.7490 Y2.6783 F120.00
G01 X57.7493 Y2.6900 F120.00
G01 X57.7490 Y2.7017 F120.00
G01 X57.7438 Y2.8056 F120.00
G01 X57.7419 Y2.8231 F120.00
G01 X57.7275 Y2.9202 F120.00
G01 X57.7255 Y2.9318 F120.00
G01 X57.7229 Y2.9432 F120.00
G01 X57.6991 Y3.0385 F120.00
G01 X57.6959 Y3.0497 F120.00
G01 X57.6923 Y3.0609 F120.00
G01 X57.6592 Y3.1533 F120.00
G01 X57.6550 Y3.1643 F120.00
G01 X57.6502 Y3.1750 F120.00
G01 X57.6082 Y3.2637 F120.00
G01 X57.5988 Y3.2816 F120.00
G01 X57.5987 Y3.5459 F120.00
G01 X57.5982 Y3.5576 F120.00
G01 X57.5970 Y3.5692 F120.00
G01 X57.5953 Y3.5808 F120.00
G01 X57.5916 Y3.5980 F120.00
G01 X57.5867 Y3.6149 F120.00
G01 X57.5806 Y3.6314 F120.00
G01 X57.5733 Y3.6474 F120.00
G01 X57.5678 Y3.6577 F120.00
G01 X57.5586 Y3.6727 F120.00
G01 X57.5518 Y3.6823 F120.00
G01 X57.5408 Y3.6960 F120.00
G01 X57.5289 Y3.7089 F120.00
G01 X57.5160 Y3.7208 F120.00
G01 X57.5069 Y3.7283 F120.00
G01 X57.4927 Y3.7386 F120.00
G01 X57.4777 Y3.7478 F120.00
G01 X57.4674 Y3.7533 F120.00
G01 X57.4514 Y3.7606 F120.00
G01 X57.4349 Y3.7667 F120.00
G01 X57.4180 Y3.7716 F120.00
G01 X57.4066 Y3.7742 F120.00
G01 X57.3950 Y3.7762 F120.00
G01 X57.3776 Y3.7782 F120.00
G01 X57.3659 Y3.7787 F120.00
G01 X57.1016 Y3.7788 F120.00
G01 X57.0837 Y3.7882 F120.00
G01 X56.9950 Y3.8302 F120.00
G01 X56.9843 Y3.8350 F120.00
G01 X56.9733 Y3.8392 F120.00
G01 X56.8809 Y3.8723 F120.00
G01 X56.8697 Y3.8759 F120.00
G01 X56.8585 Y3.8791 F120.00
G01 X56.7632 Y3.9029 F120.00
G01 X56.7518 Y3.9055 F120.00
G01 X56.7402 Y3.9075 F120.00
G01 X56.6431 Y3.9219 F120.00
G01 X56.6315 Y3.9233 F120.00
G01 X56.6198 Y3.9242 F120.00
G01 X56.5217 Y3.9290 F120.00
G01 X56.5100 Y3.9293 F120.00
G01 X50.1700 Y3.9293 F120.00
G01 X50.1583 Y3.9290 F120.00
G01 X50.0544 Y3.9238 F120.00
G01 X50.0369 Y3.9219 F120.00
G01 X49.9398 Y3.9075 F120.00
G01 X49.9282 Y3.9055 F120.00
G01 X49.9168 Y3.9029 F120.00
G01 X49.8215 Y3.8791 F120.00
G01 X49.8103 Y3.8759 F120.00
G01 X49.7991 Y3.8723 F120.00
G01 X49.7067 Y3.8392 F120.00
G01 X49.6957 Y3.8350 F120.00
G01 X49.6850 Y3.8302 F120.00
G01 X49.5963 Y3.7882 F120.00
G01 X49.5784 Y3.7788 F120.00
G01 X49.3141 Y3.7787 F120.00
G01 X49.2966 Y3.7776 F120.00
G01 X49.2850 Y3.7762 F120.00
G01 X49.2677 Y3.7730 F120.00
G01 X49.2563 Y3.7701 F120.00
G01 X49.2451 Y3.7667 F120.00
G01 X49.2341 Y3.7628 F120.00
G01 X49.2232 Y3.7583 F120.00
G01 X49.2126 Y3.7533 F120.00
G01 X49.2023 Y3.7478 F120.00
G01 X49.1922 Y3.7418 F120.00
G01 X49.1825 Y3.7352 F120.00
G01 X49.1731 Y3.7283 F120.00
G01 X49.1640 Y3.7208 F120.00
G01 X49.1553 Y3.7130 F120.00
G01 X49.1470 Y3.7047 F120.00
G01 X49.1392 Y3.6960 F120.00
G01 X49.1317 Y3.6869 F120.00
G01 X49.1214 Y3.6727 F120.00
G01 X49.1152 Y3.6628 F120.00
G01 X49.1094 Y3.6526 F120.00
G01 X49.1041 Y3.6421 F120.00
G01 X49.0994 Y3.6314 F120.00
G01 X49.0952 Y3.6204 F120.00
G01 X49.0915 Y3.6093 F120.00
G01 X49.0884 Y3.5980 F120.00
G01 X49.0858 Y3.5866 F120.00
G01 X49.0830 Y3.5692 F120.00
G01 X49.0818 Y3.5576 F120.00
G01 X49.0812 Y3.5400 F120.00
G01 X49.0812 Y3.2816 F120.00
G01 X49.0718 Y3.2637 F120.00
G01 X49.0298 Y3.1750 F120.00
G01 X49.0250 Y3.1643 F120.00
G01 X49.0208 Y3.1533 F120.00
G01 X48.9877 Y3.0609 F120.00
G01 X48.9841 Y3.0497 F120.00
G01 X48.9809 Y3.0385 F120.00
G01 X48.9571 Y2.9432 F120.00
G01 X48.9545 Y2.9318 F120.00
G01 X48.9525 Y2.9202 F120.00
G01 X48.9381 Y2.8231 F120.00
G01 X48.9367 Y2.8115 F120.00
G01 X48.9358 Y2.7998 F120.00
G01 X48.9308 Y2.6959 F120.00
G01 X48.9310 Y2.6783 F120.00
G01 X48.9358 Y2.5802 F120.00
G01 X48.9367 Y2.5685 F120.00
G01 X48.9381 Y2.5569 F120.00
G01 X48.9525 Y2.4598 F120.00
G01 X48.9545 Y2.4482 F120.00
G01 X48.9571 Y2.4368 F120.00
G01 X48.9809 Y2.3415 F120.00
G01 X48.9841 Y2.3303 F120.00
G01 X48.9877 Y2.3191 F120.00
G01 X49.0208 Y2.2267 F120.00
G01 X49.0250 Y2.2157 F120.00
G01 X49.0298 Y2.2050 F120.00
G01 X49.0718 Y2.1163 F120.00
G01 X49.0812 Y2.0984 F120.00
G00 Z2.0000
G00 X48.9618 Y1.9740
G01 F60.00
G01 Z-0.1100
G01 F120.00
G01 X48.9618 Y2.0695 F120.00
G01 X48.9182 Y2.1620 F120.00
G01 X48.9115 Y2.1782 F120.00
G01 X48.9000 Y2.2099 F120.00
G01 X48.8885 Y2.1782 F120.00
G01 X48.8818 Y2.1620 F120.00
G01 X48.8362 Y2.0652 F120.00
G01 X48.8240 Y2.0418 F120.00
G01 X48.8058 Y2.0112 F120.00
G01 X48.8293 Y2.0076 F120.00
G01 X48.9148 Y1.9890 F120.00
G01 X48.9400 Y1.9819 F120.00
G01 X48.9618 Y1.9740 F120.00
G00 Z2.0000
G00 X47.6300 Y1.5701
G01 F60.00
G01 Z-0.1100
G01 F120.00
G01 X47.7398 Y1.5755 F120.00
G01 X47.8485 Y1.5916 F120.00
G01 X47.9551 Y1.6183 F120.00
G01 X48.0586 Y1.6553 F120.00
G01 X48.1579 Y1.7023 F120.00
G01 X48.2522 Y1.7588 F120.00
G01 X48.3405 Y1.8243 F120.00
G01 X48.4176 Y1.8941 F120.00
G01 X48.4259 Y1.9024 F120.00
G01 X48.4957 Y1.9795 F120.00
G01 X48.5578 Y2.0630 F120.00
G01 X48.5643 Y2.0728 F120.00
G01 X48.6148 Y2.1570 F120.00
G01 X48.6203 Y2.1673 F120.00
G01 X48.6647 Y2.2614 F120.00
G01 X48.7017 Y2.3649 F120.00
G01 X48.7284 Y2.4715 F120.00
G01 X48.7438 Y2.5744 F120.00
G01 X48.7449 Y2.5861 F120.00
G01 X48.7499 Y2.6900 F120.00
G01 X48.7445 Y2.7998 F120.00
G01 X48.7284 Y2.9085 F120.00
G01 X48.7017 Y3.0151 F120.00
G01 X48.6647 Y3.1186 F120.00
G01 X48.6177 Y3.2179 F120.00
G01 X48.5612 Y3.3122 F120.00
G01 X48.4957 Y3.4005 F120.00
G01 X48.4219 Y3.4819 F120.00
G01 X48.3405 Y3.5557 F120.00
G01 X48.2522 Y3.6212 F120.00
G01 X48.1579 Y3.6777 F120.00
G01 X48.0586 Y3.7247 F120.00
G01 X47.9551 Y3.7617 F120.00
G01 X47.8485 Y3.7884 F120.00
G01 X47.7456 Y3.8038 F120.00
G01 X47.7339 Y3.8049 F120.00
G01 X47.6300 Y3.8099 F120.00
G01 X40.0050 Y3.8099 F120.00
G01 X39.9011 Y3.8049 F120.00
G01 X39.8923 Y3.8042 F120.00
G01 X39.7865 Y3.7884 F120.00
G01 X39.6856 Y3.7632 F120.00
G01 X39.6771 Y3.7608 F120.00
G01 X39.5819 Y3.7268 F120.00
G01 X39.5737 Y3.7235 F120.00
G01 X39.4797 Y3.6790 F120.00
G01 X39.4720 Y3.6748 F120.00
G01 X39.4463 Y3.6594 F120.00
G01 X39.1550 Y3.6594 F120.00
G01 X39.1433 Y3.6588 F120.00
G01 X39.1346 Y3.6576 F120.00
G01 X39.1232 Y3.6551 F120.00
G01 X39.1120 Y3.6514 F120.00
G01 X39.1040 Y3.6479 F120.00
G01 X39.0936 Y3.6424 F120.00
G01 X39.0862 Y3.6376 F120.00
G01 X39.0793 Y3.6323 F120.00
G01 X39.0706 Y3.6244 F120.00
G01 X39.0646 Y3.6180 F120.00
G01 X39.0574 Y3.6088 F120.00
G01 X39.0526 Y3.6014 F120.00
G01 X39.0471 Y3.5910 F120.00
G01 X39.0436 Y3.5830 F120.00
G01 X39.0399 Y3.5718 F120.00
G01 X39.0374 Y3.5604 F120.00
G01 X39.0362 Y3.5517 F120.00
G01 X39.0356 Y3.5400 F120.00
G01 X39.0356 Y3.2487 F120.00
G01 X39.0202 Y3.2230 F120.00
G01 X39.0160 Y3.2153 F120.00
G01 X38.9715 Y3.1213 F120.00
G01 X38.9682 Y3.1131 F120.00
G01 X38.9342 Y3.0179 F120.00
G01 X38.9318 Y3.0094 F120.00
G01 X38.9066 Y2.9085 F120.00
G01 X38.8912 Y2.8056 F120.00
G01 X38.8901 Y2.7939 F120.00
G01 X38.8852 Y2.6959 F120.00
G01 X38.8852 Y2.6841 F120.00
G01 X38.8905 Y2.5802 F120.00
G01 X38.9061 Y2.4744 F120.00
G01 X38.9079 Y2.4658 F120.00
G01 X38.9333 Y2.3649 F120.00
G01 X38.9693 Y2.2642 F120.00
G01 X38.9727 Y2.2561 F120.00
G01 X39.0160 Y2.1647 F120.00
G01 X39.0202 Y2.1570 F120.00
G01 X39.0356 Y2.1313 F120.00
G01 X39.0356 Y1.8400 F120.00
G01 X39.0359 Y1.8312 F120.00
G01 X39.0369 Y1.8225 F120.00
G01 X39.0392 Y1.8110 F120.00
G01 X39.0416 Y1.8025 F120.00
G01 X39.0447 Y1.7943 F120.00
G01 X39.0483 Y1.7863 F120.00
G01 X39.0526 Y1.7786 F120.00
G01 X39.0574 Y1.7712 F120.00
G01 X39.0627 Y1.7643 F120.00
G01 X39.0685 Y1.7577 F120.00
G01 X39.0770 Y1.7496 F120.00
G01 X39.0862 Y1.7424 F120.00
G01 X39.0961 Y1.7361 F120.00
G01 X39.1066 Y1.7308 F120.00
G01 X39.1175 Y1.7266 F120.00
G01 X39.1288 Y1.7235 F120.00
G01 X39.1404 Y1.7215 F120.00
G01 X39.1550 Y1.7206 F120.00
G01 X39.4463 Y1.7206 F120.00
G01 X39.4720 Y1.7052 F120.00
G01 X39.4797 Y1.7010 F120.00
G01 X39.5737 Y1.6565 F120.00
G01 X39.5819 Y1.6532 F120.00
G01 X39.6771 Y1.6192 F120.00
G01 X39.6856 Y1.6168 F120.00
G01 X39.7865 Y1.5916 F120.00
G01 X39.8894 Y1.5762 F120.00
G01 X39.9011 Y1.5751 F120.00
G01 X40.0050 Y1.5701 F120.00
G01 X47.6300 Y1.5701 F120.00
G00 Z2.0000
G00 X48.8042 Y3.3715
G01 F60.00
G01 Z-0.1100
G01 F120.00
G01 X48.8240 Y3.3382 F120.00
G01 X48.8362 Y3.3148 F120.00
G01 X48.8818 Y3.2180 F120.00
G01 X48.8885 Y3.2018 F120.00
G01 X48.9000 Y3.1701 F120.00
G01 X48.9115 Y3.2018 F120.00
G01 X48.9182 Y3.2180 F120.00
G01 X48.9618 Y3.3105 F120.00
G01 X48.9618 Y3.4052 F120.00
G01 X48.9454 Y3.3985 F120.00
G01 X48.9286 Y3.3927 F120.00
G01 X48.9115 Y3.3876 F120.00
G01 X48.8942 Y3.3834 F120.00
G01 X48.8680 Y3.3788 F120.00
G01 X48.8042 Y3.3715 F120.00
G00 Z2.0000
G00 X39.3544 Y4.2107
G01 F60.00
G01 Z-0.1100
G01 F120.00
G01 X39.0121 Y3.8685 F120.00
G01 X39.0261 Y3.8742 F120.00
G01 X39.0426 Y3.8801 F120.00
G01 X39.0680 Y3.8875 F120.00
G01 X39.0851 Y3.8913 F120.00
G01 X39.1024 Y3.8943 F120.00
G01 X39.1286 Y3.8972 F120.00
G01 X39.1550 Y3.8982 F120.00
G01 X39.3845 Y3.8982 F120.00
G01 X39.4690 Y3.9382 F120.00
G01 X39.4850 Y3.9453 F120.00
G01 X39.4993 Y3.9508 F120.00
G01 X39.4808 Y3.9705 F120.00
G01 X39.4640 Y3.9912 F120.00
G01 X39.4169 Y4.0544 F120.00
G01 X39.4070 Y4.0691 F120.00
G01 X39.3978 Y4.0843 F120.00
G01 X39.3894 Y4.1000 F120.00
G01 X39.3817 Y4.1161 F120.00
G01 X39.3749 Y4.1325 F120.00
G01 X39.3689 Y4.1492 F120.00
G01 X39.3637 Y4.1663 F120.00
G01 X39.3594 Y4.1835 F120.00
G01 X39.3559 Y4.2010 F120.00
G01 X39.3544 Y4.2107 F120.00
G00 Z2.0000
G00 X38.7350 Y3.1701
G01 F60.00
G01 Z-0.1100
G01 F120.00
G01 X38.7465 Y3.2018 F120.00
G01 X38.7532 Y3.2180 F120.00
G01 X38.7968 Y3.3105 F120.00
G01 X38.7968 Y3.5400 F120.00
G01 X38.7978 Y3.5664 F120.00
G01 X38.8007 Y3.5926 F120.00
G01 X38.8037 Y3.6099 F120.00
G01 X38.8075 Y3.6270 F120.00
G01 X38.8149 Y3.6524 F120.00
G01 X38.8208 Y3.6689 F120.00
G01 X38.8265 Y3.6829 F120.00
G01 X38.5922 Y3.4485 F120.00
G01 X38.6041 Y3.4300 F120.00
G01 X38.6546 Y3.3458 F120.00
G01 X38.6673 Y3.3227 F120.00
G01 X38.7168 Y3.2180 F120.00
G01 X38.7235 Y3.2018 F120.00
G01 X38.7350 Y3.1701 F120.00
G00 Z2.0000
G00 X38.9162 Y2.0984
G01 F60.00
G01 Z-0.1100
G01 F120.00
G01 X38.9163 Y1.8341 F120.00
G01 X38.9168 Y1.8224 F120.00
G01 X38.9180 Y1.8108 F120.00
G01 X38.9197 Y1.7992 F120.00
G01 X38.9220 Y1.7877 F120.00
G01 X38.9249 Y1.7763 F120.00
G01 X38.9283 Y1.7651 F120.00
G01 X38.9344 Y1.7486 F120.00
G01 X38.9391 Y1.7379 F120.00
G01 X38.9444 Y1.7274 F120.00
G01 X38.9502 Y1.7172 F120.00
G01 X38.9564 Y1.7073 F120.00
G01 X38.9632 Y1.6977 F120.00
G01 X38.9704 Y1.6885 F120.00
G01 X38.9781 Y1.6796 F120.00
G01 X38.9861 Y1.6711 F120.00
G01 X38.9946 Y1.6631 F120.00
G01 X39.0035 Y1.6554 F120.00
G01 X39.0127 Y1.6482 F120.00
G01 X39.0223 Y1.6414 F120.00
G01 X39.0373 Y1.6322 F120.00
G01 X39.0476 Y1.6267 F120.00
G01 X39.0636 Y1.6194 F120.00
G01 X39.0746 Y1.6152 F120.00
G01 X39.0857 Y1.6115 F120.00
G01 X39.1027 Y1.6070 F120.00
G01 X39.1200 Y1.6038 F120.00
G01 X39.1316 Y1.6024 F120.00
G01 X39.1433 Y1.6015 F120.00
G01 X39.1550 Y1.6012 F120.00
G01 X39.4134 Y1.6012 F120.00
G01 X39.4313 Y1.5918 F120.00
G01 X39.5200 Y1.5498 F120.00
G01 X39.5307 Y1.5450 F120.00
G01 X39.5417 Y1.5408 F120.00
G01 X39.6341 Y1.5077 F120.00
G01 X39.6453 Y1.5041 F120.00
G01 X39.6565 Y1.5009 F120.00
G01 X39.7518 Y1.4771 F120.00
G01 X39.7632 Y1.4745 F120.00
G01 X39.7748 Y1.4725 F120.00
G01 X39.8719 Y1.4581 F120.00
G01 X39.8894 Y1.4562 F120.00
G01 X39.9933 Y1.4510 F120.00
G01 X40.0050 Y1.4507 F120.00
G01 X47.6300 Y1.4507 F120.00
G01 X47.6417 Y1.4510 F120.00
G01 X47.7456 Y1.4562 F120.00
G01 X47.7631 Y1.4581 F120.00
G01 X47.8602 Y1.4725 F120.00
G01 X47.8718 Y1.4745 F120.00
G01 X47.8832 Y1.4771 F120.00
G01 X47.9785 Y1.5009 F120.00
G01 X47.9897 Y1.5041 F120.00
G01 X48.0009 Y1.5077 F120.00
G01 X48.0933 Y1.5408 F120.00
G01 X48.1043 Y1.5450 F120.00
G01 X48.1150 Y1.5498 F120.00
G01 X48.2037 Y1.5918 F120.00
G01 X48.2142 Y1.5970 F120.00
G01 X48.2244 Y1.6028 F120.00
G01 X48.3086 Y1.6533 F120.00
G01 X48.3185 Y1.6596 F120.00
G01 X48.3281 Y1.6663 F120.00
G01 X48.4070 Y1.7248 F120.00
G01 X48.4162 Y1.7320 F120.00
G01 X48.4251 Y1.7397 F120.00
G01 X48.4978 Y1.8056 F120.00
G01 X48.5063 Y1.8137 F120.00
G01 X48.5144 Y1.8222 F120.00
G01 X48.5803 Y1.8949 F120.00
G01 X48.5880 Y1.9038 F120.00
G01 X48.5952 Y1.9130 F120.00
G01 X48.6537 Y1.9919 F120.00
G01 X48.6604 Y2.0015 F120.00
G01 X48.6667 Y2.0114 F120.00
G01 X48.7172 Y2.0956 F120.00
G01 X48.7230 Y2.1058 F120.00
G01 X48.7282 Y2.1163 F120.00
G01 X48.7702 Y2.2050 F120.00
G01 X48.7750 Y2.2157 F120.00
G01 X48.7792 Y2.2267 F120.00
G01 X48.8123 Y2.3191 F120.00
G01 X48.8159 Y2.3303 F120.00
G01 X48.8191 Y2.3415 F120.00
G01 X48.8429 Y2.4368 F120.00
G01 X48.8455 Y2.4482 F120.00
G01 X48.8475 Y2.4598 F120.00
G01 X48.8619 Y2.5569 F120.00
G01 X48.8633 Y2.5685 F120.00
G01 X48.8642 Y2.5802 F120.00
G01 X48.8690 Y2.6783 F120.00
G01 X48.8693 Y2.6900 F120.00
G01 X48.8690 Y2.7017 F120.00
G01 X48.8638 Y2.8056 F120.00
G01 X48.8619 Y2.8231 F120.00
G01 X48.8475 Y2.9202 F120.00
G01 X48.8455 Y2.9318 F120.00
G01 X48.8429 Y2.9432 F120.00
G01 X48.8191 Y3.0385 F120.00
G01 X48.8159 Y3.0497 F120.00
G01 X48.8123 Y3.0609 F120.00
G01 X48.7792 Y3.1533 F120.00
G01 X48.7750 Y3.1643 F120.00
G01 X48.7702 Y3.1750 F120.00
G01 X48.7282 Y3.2637 F120.00
G01 X48.7230 Y3.2742 F120.00
G01 X48.7172 Y3.2844 F120.00
G01 X48.6667 Y3.3686 F120.00
G01 X48.6604 Y3.3785 F120.00
G01 X48.6537 Y3.3881 F120.00
G01 X48.5952 Y3.4670 F120.00
G01 X48.5880 Y3.4762 F120.00
G01 X48.5803 Y3.4851 F120.00
G01 X48.5144 Y3.5578 F120.00
G01 X48.5063 Y3.5663 F120.00
G01 X48.4978 Y3.5744 F120.00
G01 X48.4251 Y3.6403 F120.00
G01 X48.4162 Y3.6480 F120.00
G01 X48.4070 Y3.6552 F120.00
G01 X48.3281 Y3.7137 F120.00
G01 X48.3185 Y3.7204 F120.00
G01 X48.3086 Y3.7267 F120.00
G01 X48.2244 Y3.7772 F120.00
G01 X48.2142 Y3.7830 F120.00
G01 X48.2037 Y3.7882 F120.00
G01 X48.1150 Y3.8302 F120.00
G01 X48.1043 Y3.8350 F120.00
G01 X48.0933 Y3.8392 F120.00
G01 X48.0009 Y3.8723 F120.00
G01 X47.9897 Y3.8759 F120.00
G01 X47.9785 Y3.8791 F120.00
G01 X47.8832 Y3.9029 F120.00
G01 X47.8718 Y3.9055 F120.00
G01 X47.8602 Y3.9075 F120.00
G01 X47.7573 Y3.9227 F120.00
G01 X47.7398 Y3.9242 F120.00
G01 X47.6417 Y3.9290 F120.00
G01 X47.6300 Y3.9293 F120.00
G01 X40.0050 Y3.9293 F120.00
G01 X39.9933 Y3.9290 F120.00
G01 X39.8894 Y3.9238 F120.00
G01 X39.8719 Y3.9219 F120.00
G01 X39.7748 Y3.9075 F120.00
G01 X39.7632 Y3.9055 F120.00
G01 X39.7518 Y3.9029 F120.00
G01 X39.6565 Y3.8791 F120.00
G01 X39.6453 Y3.8759 F120.00
G01 X39.6341 Y3.8723 F120.00
G01 X39.5417 Y3.8392 F120.00
G01 X39.5307 Y3.8350 F120.00
G01 X39.5200 Y3.8302 F120.00
G01 X39.4313 Y3.7882 F120.00
G01 X39.4134 Y3.7788 F120.00
G01 X39.1491 Y3.7787 F120.00
G01 X39.1316 Y3.7776 F120.00
G01 X39.1200 Y3.7762 F120.00
G01 X39.1027 Y3.7730 F120.00
G01 X39.0913 Y3.7701 F120.00
G01 X39.0801 Y3.7667 F120.00
G01 X39.0691 Y3.7628 F120.00
G01 X39.0582 Y3.7583 F120.00
G01 X39.0476 Y3.7533 F120.00
G01 X39.0373 Y3.7478 F120.00
G01 X39.0272 Y3.7418 F120.00
G01 X39.0175 Y3.7352 F120.00
G01 X39.0081 Y3.7283 F120.00
G01 X38.9946 Y3.7169 F120.00
G01 X38.9861 Y3.7089 F120.00
G01 X38.9781 Y3.7004 F120.00
G01 X38.9704 Y3.6915 F120.00
G01 X38.9632 Y3.6823 F120.00
G01 X38.9564 Y3.6727 F120.00
G01 X38.9502 Y3.6628 F120.00
G01 X38.9444 Y3.6526 F120.00
G01 X38.9391 Y3.6421 F120.00
G01 X38.9322 Y3.6259 F120.00
G01 X38.9283 Y3.6149 F120.00
G01 X38.9249 Y3.6037 F120.00
G01 X38.9220 Y3.5923 F120.00
G01 X38.9197 Y3.5808 F120.00
G01 X38.9180 Y3.5692 F120.00
G01 X38.9168 Y3.5576 F120.00
G01 X38.9162 Y3.5400 F120.00
G01 X38.9162 Y3.2816 F120.00
G01 X38.9068 Y3.2637 F120.00
G01 X38.8648 Y3.1750 F120.00
G01 X38.8600 Y3.1643 F120.00
G01 X38.8558 Y3.1533 F120.00
G01 X38.8227 Y3.0609 F120.00
G01 X38.8191 Y3.0497 F120.00
G01 X38.8159 Y3.0385 F120.00
G01 X38.7921 Y2.9432 F120.00
G01 X38.7895 Y2.9318 F120.00
G01 X38.7875 Y2.9202 F120.00
G01 X38.7731 Y2.8231 F120.00
G01 X38.7717 Y2.8115 F120.00
G01 X38.7708 Y2.7998 F120.00
G01 X38.7658 Y2.6959 F120.00
G01 X38.7660 Y2.6783 F120.00
G01 X38.7708 Y2.5802 F120.00
G01 X38.7717 Y2.5685 F120.00
G01 X38.7731 Y2.5569 F120.00
G01 X38.7875 Y2.4598 F120.00
G01 X38.7895 Y2.4482 F120.00
G01 X38.7921 Y2.4368 F120.00
G01 X38.8159 Y2.3415 F120.00
G01 X38.8191 Y2.3303 F120.00
G01 X38.8227 Y2.3191 F120.00
G01 X38.8558 Y2.2267 F120.00
G01 X38.8600 Y2.2157 F120.00
G01 X38.8648 Y2.2050 F120.00
G01 X38.9068 Y2.1163 F120.00
G01 X38.9162 Y2.0984 F120.00
G00 Z2.0000
G00 X38.7968 Y2.0695
G01 F60.00
G01 Z-0.1100
G01 F120.00
G01 X38.7532 Y2.1620 F120.00
G01 X38.7465 Y2.1782 F120.00
G01 X38.7350 Y2.2099 F120.00
G01 X38.7235 Y2.1782 F120.00
G01 X38.7168 Y2.1620 F120.00
G01 X38.6712 Y2.0652 F120.00
G01 X38.6590 Y2.0418 F120.00
G01 X38.6408 Y2.0112 F120.00
G01 X38.6643 Y2.0076 F120.00
G01 X38.7498 Y1.9890 F120.00
G01 X38.7750 Y1.9819 F120.00
G01 X38.7968 Y1.9740 F120.00
G01 X38.7968 Y2.0695 F120.00
G00 Z2.0000
G00 X52.2580 Y52.0992
G01 F60.00
G01 Z-0.1100
G01 F120.00
G01 X52.2278 Y52.0781 F120.00
G01 X52.2186 Y52.0706 F120.00
G01 X52.2082 Y52.0600 F120.00
G01 X52.2027 Y52.0531 F120.00
G01 X52.1977 Y52.0457 F120.00
G01 X52.1932 Y52.0380 F120.00
G01 X52.1893 Y52.0300 F120.00
G01 X52.1616 Y51.9626 F120.00
G01 X52.1577 Y51.9515 F120.00
G01 X52.1549 Y51.9400 F120.00
G01 X52.1535 Y51.9312 F120.00
G01 X52.1528 Y51.9223 F120.00
G01 X52.1528 Y51.9134 F120.00
G01 X52.1534 Y51.9045 F120.00
G01 X52.1547 Y51.8957 F120.00
G01 X52.1685 Y51.8212 F120.00
G01 X52.1728 Y51.8070 F120.00
G01 X52.1788 Y51.7935 F120.00
G01 X52.1848 Y51.7833 F120.00
G01 X52.1937 Y51.7714 F120.00
G01 X52.2495 Y51.7118 F120.00
G01 X52.2561 Y51.7059 F120.00
G01 X52.2631 Y51.7005 F120.00
G01 X52.2705 Y51.6956 F120.00
G01 X52.2782 Y51.6913 F120.00
G01 X52.3081 Y51.6777 F120.00
G01 X52.3171 Y51.6741 F120.00
G01 X52.5164 Y51.6093 F120.00
G01 X52.6956 Y51.5128 F120.00
G01 X52.8548 Y51.3859 F120.00
G01 X52.9888 Y51.2325 F120.00
G01 X53.0932 Y51.0578 F120.00
G01 X53.1126 Y51.0063 F120.00
G01 X53.1160 Y50.9985 F120.00
G01 X53.1200 Y50.9910 F120.00
G01 X53.1279 Y50.9791 F120.00
G01 X53.1735 Y50.9187 F120.00
G01 X53.1816 Y50.9099 F120.00
G01 X53.1928 Y50.9002 F120.00
G01 X53.2025 Y50.8935 F120.00
G01 X53.2129 Y50.8878 F120.00
G01 X53.2238 Y50.8831 F120.00
G01 X53.2893 Y50.8588 F120.00
G01 X53.3035 Y50.8545 F120.00
G01 X53.3122 Y50.8528 F120.00
G01 X53.3240 Y50.8516 F120.00
G01 X53.3359 Y50.8515 F120.00
G01 X53.3447 Y50.8522 F120.00
G01 X53.3564 Y50.8541 F120.00
G01 X53.4304 Y50.8706 F120.00
G01 X53.4445 Y50.8753 F120.00
G01 X53.4526 Y50.8790 F120.00
G01 X53.4603 Y50.8833 F120.00
G01 X53.4726 Y50.8917 F120.00
G01 X53.4837 Y50.9015 F120.00
G01 X53.5349 Y50.9531 F120.00
G01 X53.5424 Y50.9617 F120.00
G01 X53.5474 Y50.9686 F120.00
G01 X53.5533 Y50.9783 F120.00
G01 X53.5587 Y50.9888 F120.00
G01 X53.6351 Y51.1475 F120.00
G01 X53.7548 Y51.3122 F120.00
G01 X53.9019 Y51.4529 F120.00
G01 X54.0718 Y51.5651 F120.00
G01 X54.2591 Y51.6451 F120.00
G01 X54.4576 Y51.6904 F120.00
G01 X54.6609 Y51.6995 F120.00
G01 X54.8627 Y51.6722 F120.00
G01 X55.0563 Y51.6093 F120.00
G01 X55.2356 Y51.5128 F120.00
G01 X55.3948 Y51.3859 F120.00
G01 X55.5288 Y51.2325 F120.00
G01 X55.6332 Y51.0578 F120.00
G01 X55.7047 Y50.8671 F120.00
G01 X55.7411 Y50.6668 F120.00
G01 X55.7411 Y50.0142 F120.00
G01 X55.7274 Y49.8622 F120.00
G01 X55.6733 Y49.6660 F120.00
G01 X55.5849 Y49.4825 F120.00
G01 X55.4652 Y49.3178 F120.00
G01 X55.3181 Y49.1771 F120.00
G01 X55.1482 Y49.0649 F120.00
G01 X54.9609 Y48.9849 F120.00
G01 X54.7624 Y48.9396 F120.00
G01 X54.5590 Y48.9305 F120.00
G01 X54.3573 Y48.9578 F120.00
G01 X54.1637 Y49.0207 F120.00
G01 X53.9844 Y49.1172 F120.00
G01 X53.8252 Y49.2441 F120.00
G01 X53.6912 Y49.3975 F120.00
G01 X53.5868 Y49.5723 F120.00
G01 X53.5674 Y49.6237 F120.00
G01 X53.5640 Y49.6315 F120.00
G01 X53.5600 Y49.6390 F120.00
G01 X53.5521 Y49.6509 F120.00
G01 X53.5101 Y49.7067 F120.00
G01 X53.5026 Y49.7158 F120.00
G01 X53.4941 Y49.7241 F120.00
G01 X53.4849 Y49.7316 F120.00
G01 X53.4775 Y49.7365 F120.00
G01 X53.4671 Y49.7422 F120.00
G01 X53.4562 Y49.7469 F120.00
G01 X53.3907 Y49.7712 F120.00
G01 X53.3765 Y49.7755 F120.00
G01 X53.3619 Y49.7780 F120.00
G01 X53.3471 Y49.7786 F120.00
G01 X53.3353 Y49.7778 F120.00
G01 X53.3236 Y49.7759 F120.00
G01 X53.2553 Y49.7609 F120.00
G01 X53.2411 Y49.7568 F120.00
G01 X53.2275 Y49.7510 F120.00
G01 X53.2171 Y49.7452 F120.00
G01 X53.2074 Y49.7383 F120.00
G01 X53.1964 Y49.7285 F120.00
G01 X53.1451 Y49.6770 F120.00
G01 X53.1376 Y49.6683 F120.00
G01 X53.1326 Y49.6614 F120.00
G01 X53.1267 Y49.6517 F120.00
G01 X53.1213 Y49.6411 F120.00
G01 X53.0449 Y49.4825 F120.00
G01 X52.9252 Y49.3178 F120.00
G01 X52.7781 Y49.1771 F120.00
G01 X52.6082 Y49.0649 F120.00
G01 X52.4209 Y48.9849 F120.00
G01 X52.2224 Y48.9396 F120.00
G01 X52.0190 Y48.9305 F120.00
G01 X51.8173 Y48.9578 F120.00
G01 X51.6237 Y49.0207 F120.00
G01 X51.4444 Y49.1172 F120.00
G01 X51.2852 Y49.2441 F120.00
G01 X51.1512 Y49.3975 F120.00
G01 X51.0468 Y49.5723 F120.00
G01 X51.0274 Y49.6237 F120.00
G01 X51.0240 Y49.6315 F120.00
G01 X51.0200 Y49.6390 F120.00
G01 X51.0121 Y49.6509 F120.00
G01 X50.9701 Y49.7067 F120.00
G01 X50.9605 Y49.7180 F120.00
G01 X50.9519 Y49.7261 F120.00
G01 X50.9400 Y49.7349 F120.00
G01 X50.9271 Y49.7422 F120.00
G01 X50.9162 Y49.7469 F120.00
G01 X50.8507 Y49.7712 F120.00
G01 X50.8394 Y49.7748 F120.00
G01 X50.8307 Y49.7767 F120.00
G01 X50.8219 Y49.7780 F120.00
G01 X50.8130 Y49.7786 F120.00
G01 X50.8012 Y49.7784 F120.00
G01 X50.7923 Y49.7774 F120.00
G01 X50.7836 Y49.7759 F120.00
G01 X50.7153 Y49.7609 F120.00
G01 X50.7039 Y49.7577 F120.00
G01 X50.6928 Y49.7535 F120.00
G01 X50.6797 Y49.7467 F120.00
G01 X50.6698 Y49.7401 F120.00
G01 X50.6585 Y49.7306 F120.00
G01 X50.6051 Y49.6770 F120.00
G01 X50.5994 Y49.6705 F120.00
G01 X50.5926 Y49.6614 F120.00
G01 X50.5867 Y49.6517 F120.00
G01 X50.5813 Y49.6411 F120.00
G01 X50.5049 Y49.4825 F120.00
G01 X50.3852 Y49.3178 F120.00
G01 X50.2381 Y49.1771 F120.00
G01 X50.0682 Y49.0649 F120.00
G01 X49.8809 Y48.9849 F120.00
G01 X49.6824 Y48.9396 F120.00
G01 X49.4790 Y48.9305 F120.00
G01 X49.2773 Y48.9578 F120.00
G01 X49.0837 Y49.0207 F120.00
G01 X48.9044 Y49.1172 F120.00
G01 X48.7452 Y49.2441 F120.00
G01 X48.6112 Y49.3975 F120.00
G01 X48.5068 Y49.5723 F120.00
G01 X48.4874 Y49.6237 F120.00
G01 X48.4840 Y49.6315 F120.00
G01 X48.4800 Y49.6390 F120.00
G01 X48.4721 Y49.6509 F120.00
G01 X48.4301 Y49.7067 F120.00
G01 X48.4205 Y49.7180 F120.00
G01 X48.4096 Y49.7280 F120.00
G01 X48.4000 Y49.7349 F120.00
G01 X48.3898 Y49.7409 F120.00
G01 X48.3790 Y49.7458 F120.00
G01 X48.3107 Y49.7712 F120.00
G01 X48.3022 Y49.7740 F120.00
G01 X48.2907 Y49.7767 F120.00
G01 X48.2819 Y49.7780 F120.00
G01 X48.2730 Y49.7786 F120.00
G01 X48.2641 Y49.7785 F120.00
G01 X48.2523 Y49.7774 F120.00
G01 X48.2436 Y49.7759 F120.00
G01 X48.1753 Y49.7609 F120.00
G01 X48.1639 Y49.7577 F120.00
G01 X48.1501 Y49.7523 F120.00
G01 X48.1397 Y49.7467 F120.00
G01 X48.1274 Y49.7383 F120.00
G01 X48.1185 Y49.7306 F120.00
G01 X48.0651 Y49.6770 F120.00
G01 X48.0594 Y49.6705 F120.00
G01 X48.0526 Y49.6614 F120.00
G01 X48.0467 Y49.6517 F120.00
G01 X48.0413 Y49.6411 F120.00
G01 X47.9649 Y49.4825 F120.00
G01 X47.8452 Y49.3178 F120.00
G01 X47.6981 Y49.1771 F120.00
G01 X47.5282 Y49.0649 F120.00
G01 X47.3409 Y48.9849 F120.00
G01 X47.1424 Y48.9396 F120.00
G01 X46.9390 Y48.9305 F120.00
G01 X46.7373 Y48.9578 F120.00
G01 X46.5437 Y49.0207 F120.00
G01 X46.3644 Y49.1172 F120.00
G01 X46.2052 Y49.2441 F120.00
G01 X46.0712 Y49.3975 F120.00
G01 X45.9668 Y49.5723 F120.00
G01 X45.9474 Y49.6237 F120.00
G01 X45.9440 Y49.6315 F120.00
G01 X45.9400 Y49.6390 F120.00
G01 X45.9321 Y49.6509 F120.00
G01 X45.8901 Y49.7067 F120.00
G01 X45.8805 Y49.7180 F120.00
G01 X45.8719 Y49.7261 F120.00
G01 X45.8600 Y49.7349 F120.00
G01 X45.8498 Y49.7409 F120.00
G01 X45.8390 Y49.7458 F120.00
G01 X45.7707 Y49.7712 F120.00
G01 X45.7622 Y49.7740 F120.00
G01 X45.7536 Y49.7761 F120.00
G01 X45.7419 Y49.7780 F120.00
G01 X45.7330 Y49.7786 F120.00
G01 X45.7241 Y49.7785 F120.00
G01 X45.7153 Y49.7778 F120.00
G01 X45.7036 Y49.7759 F120.00
G01 X45.6353 Y49.7609 F120.00
G01 X45.6239 Y49.7577 F120.00
G01 X45.6128 Y49.7535 F120.00
G01 X45.5997 Y49.7467 F120.00
G01 X45.5874 Y49.7383 F120.00
G01 X45.5785 Y49.7306 F120.00
G01 X45.5251 Y49.6770 F120.00
G01 X45.5194 Y49.6705 F120.00
G01 X45.5126 Y49.6614 F120.00
G01 X45.5067 Y49.6517 F120.00
G01 X45.5013 Y49.6411 F120.00
G01 X45.4249 Y49.4825 F120.00
G01 X45.3052 Y49.3178 F120.00
G01 X45.1581 Y49.1771 F120.00
G01 X44.9882 Y49.0649 F120.00
G01 X44.8009 Y48.9849 F120.00
G01 X44.6024 Y48.9396 F120.00
G01 X44.3990 Y48.9305 F120.00
G01 X44.1973 Y48.9578 F120.00
G01 X44.0037 Y49.0207 F120.00
G01 X43.8244 Y49.1172 F120.00
G01 X43.6652 Y49.2441 F120.00
G01 X43.5312 Y49.3975 F120.00
G01 X43.4268 Y49.5723 F120.00
G01 X43.4074 Y49.6237 F120.00
G01 X43.4040 Y49.6315 F120.00
G01 X43.4000 Y49.6390 F120.00
G01 X43.3921 Y49.6509 F120.00
G01 X43.3501 Y49.7067 F120.00
G01 X43.3405 Y49.7180 F120.00
G01 X43.3319 Y49.7261 F120.00
G01 X43.3200 Y49.7349 F120.00
G01 X43.3098 Y49.7409 F120.00
G01 X43.2990 Y49.7458 F120.00
G01 X43.2307 Y49.7712 F120.00
G01 X43.2222 Y49.7740 F120.00
G01 X43.2136 Y49.7761 F120.00
G01 X43.2048 Y49.7776 F120.00
G01 X43.1960 Y49.7784 F120.00
G01 X43.1871 Y49.7786 F120.00
G01 X43.1782 Y49.7781 F120.00
G01 X43.1665 Y49.7765 F120.00
G01 X43.0953 Y49.7609 F120.00
G01 X43.0839 Y49.7577 F120.00
G01 X43.0701 Y49.7523 F120.00
G01 X43.0597 Y49.7467 F120.00
G01 X43.0498 Y49.7401 F120.00
G01 X43.0385 Y49.7306 F120.00
G01 X42.9851 Y49.6770 F120.00
G01 X42.9776 Y49.6683 F120.00
G01 X42.9726 Y49.6614 F120.00
G01 X42.9667 Y49.6517 F120.00
G01 X42.9613 Y49.6411 F120.00
G01 X42.8849 Y49.4825 F120.00
G01 X42.7652 Y49.3178 F120.00
G01 X42.6181 Y49.1771 F120.00
G01 X42.4482 Y49.0649 F120.00
G01 X42.2609 Y48.9849 F120.00
G01 X42.0624 Y48.9396 F120.00
G01 X41.8590 Y48.9305 F120.00
G01 X41.6573 Y48.9578 F120.00
G01 X41.4637 Y49.0207 F120.00
G01 X41.2844 Y49.1172 F120.00
G01 X41.1252 Y49.2441 F120.00
G01 X40.9912 Y49.3975 F120.00
G01 X40.8868 Y49.5723 F120.00
G01 X40.8674 Y49.6237 F120.00
G01 X40.8640 Y49.6315 F120.00
G01 X40.8600 Y49.6390 F120.00
G01 X40.8521 Y49.6509 F120.00
G01 X40.8101 Y49.7067 F120.00
G01 X40.8005 Y49.7180 F120.00
G01 X40.7919 Y49.7261 F120.00
G01 X40.7800 Y49.7349 F120.00
G01 X40.7698 Y49.7409 F120.00
G01 X40.7590 Y49.7458 F120.00
G01 X40.6907 Y49.7712 F120.00
G01 X40.6822 Y49.7740 F120.00
G01 X40.6736 Y49.7761 F120.00
G01 X40.6648 Y49.7776 F120.00
G01 X40.6560 Y49.7784 F120.00
G01 X40.6471 Y49.7786 F120.00
G01 X40.6382 Y49.7781 F120.00
G01 X40.6265 Y49.7765 F120.00
G01 X40.5553 Y49.7609 F120.00
G01 X40.5439 Y49.7577 F120.00
G01 X40.5301 Y49.7523 F120.00
G01 X40.5197 Y49.7467 F120.00
G01 X40.5098 Y49.7401 F120.00
G01 X40.4985 Y49.7306 F120.00
G01 X40.4451 Y49.6770 F120.00
G01 X40.4376 Y49.6683 F120.00
G01 X40.4326 Y49.6614 F120.00
G01 X40.4267 Y49.6517 F120.00
G01 X40.4213 Y49.6411 F120.00
G01 X40.3449 Y49.4825 F120.00
G01 X40.2252 Y49.3178 F120.00
G01 X40.0781 Y49.1771 F120.00
G01 X39.9082 Y49.0649 F120.00
G01 X39.7209 Y48.9849 F120.00
G01 X39.5224 Y48.9396 F120.00
G01 X39.3190 Y48.9305 F120.00
G01 X39.1173 Y48.9578 F120.00
G01 X38.9237 Y49.0207 F120.00
G01 X38.7444 Y49.1172 F120.00
G01 X38.5852 Y49.2441 F120.00
G01 X38.4512 Y49.3975 F120.00
G01 X38.3468 Y49.5723 F120.00
G01 X38.3274 Y49.6237 F120.00
G01 X38.3240 Y49.6315 F120.00
G01 X38.3200 Y49.6390 F120.00
G01 X38.3121 Y49.6509 F120.00
G01 X38.2701 Y49.7067 F120.00
G01 X38.2605 Y49.7180 F120.00
G01 X38.2496 Y49.7280 F120.00
G01 X38.2400 Y49.7349 F120.00
G01 X38.2298 Y49.7409 F120.00
G01 X38.2190 Y49.7458 F120.00
G01 X38.1507 Y49.7712 F120.00
G01 X38.1422 Y49.7740 F120.00
G01 X38.1336 Y49.7761 F120.00
G01 X38.1248 Y49.7776 F120.00
G01 X38.1160 Y49.7784 F120.00
G01 X38.1071 Y49.7786 F120.00
G01 X38.0982 Y49.7781 F120.00
G01 X38.0865 Y49.7765 F120.00
G01 X38.0153 Y49.7609 F120.00
G01 X38.0011 Y49.7568 F120.00
G01 X37.9875 Y49.7510 F120.00
G01 X37.9797 Y49.7467 F120.00
G01 X37.9722 Y49.7419 F120.00
G01 X37.9606 Y49.7326 F120.00
G01 X37.9070 Y49.6790 F120.00
G01 X37.9012 Y49.6727 F120.00
G01 X37.8959 Y49.6661 F120.00
G01 X37.8910 Y49.6590 F120.00
G01 X37.8826 Y49.6437 F120.00
G01 X37.8049 Y49.4825 F120.00
G01 X37.6852 Y49.3178 F120.00
G01 X37.6573 Y49.2909 F120.00
G01 X37.6516 Y49.2845 F120.00
G01 X37.6465 Y49.2777 F120.00
G01 X37.6403 Y49.2682 F120.00
G01 X37.6040 Y49.2050 F120.00
G01 X37.6000 Y49.1969 F120.00
G01 X37.5966 Y49.1885 F120.00
G01 X37.5924 Y49.1740 F120.00
G01 X37.5904 Y49.1621 F120.00
G01 X37.5862 Y49.1246 F120.00
G01 X37.5861 Y48.8240 F120.00
G01 X37.5866 Y48.8127 F120.00
G01 X37.5888 Y48.7986 F120.00
G01 X37.5909 Y48.7904 F120.00
G01 X37.6106 Y48.7233 F120.00
G01 X37.6134 Y48.7150 F120.00
G01 X37.6168 Y48.7069 F120.00
G01 X37.6222 Y48.6965 F120.00
G01 X37.6287 Y48.6867 F120.00
G01 X37.6488 Y48.6614 F120.00
G01 X37.6574 Y48.6519 F120.00
G01 X40.2469 Y46.0624 F120.00
G01 X40.2575 Y46.0530 F120.00
G01 X40.2692 Y46.0449 F120.00
G01 X40.3380 Y46.0072 F120.00
G01 X40.3487 Y46.0023 F120.00
G01 X40.3570 Y45.9994 F120.00
G01 X40.3683 Y45.9964 F120.00
G01 X40.3770 Y45.9950 F120.00
G01 X40.4094 Y45.9915 F120.00
G01 X40.4190 Y45.9911 F120.00
G01 X59.9110 Y45.9911 F120.00
G01 X59.9252 Y45.9919 F120.00
G01 X59.9391 Y45.9945 F120.00
G01 X60.0117 Y46.0156 F120.00
G01 X60.0200 Y46.0184 F120.00
G01 X60.0281 Y46.0218 F120.00
G01 X60.0360 Y46.0258 F120.00
G01 X60.0435 Y46.0303 F120.00
G01 X60.0506 Y46.0354 F120.00
G01 X60.0736 Y46.0538 F120.00
G01 X60.0831 Y46.0624 F120.00
G01 X63.9426 Y49.9219 F120.00
G01 X63.9484 Y49.9281 F120.00
G01 X63.9538 Y49.9348 F120.00
G01 X63.9616 Y49.9466 F120.00
G01 X63.9978 Y50.0130 F120.00
G01 X64.0027 Y50.0237 F120.00
G01 X64.0065 Y50.0348 F120.00
G01 X64.0086 Y50.0433 F120.00
G01 X64.0100 Y50.0520 F120.00
G01 X64.0135 Y50.0844 F120.00
G01 X64.0139 Y50.0940 F120.00
G01 X64.0139 Y64.8084 F120.00
G01 X64.0135 Y64.8207 F120.00
G01 X64.0097 Y64.8671 F120.00
G01 X64.0196 Y64.9401 F120.00
G01 X64.0278 Y65.0155 F120.00
G01 X64.0299 Y65.0245 F120.00
G01 X64.0562 Y65.0962 F120.00
G01 X64.0815 Y65.1711 F120.00
G01 X64.0855 Y65.1795 F120.00
G01 X64.1266 Y65.2438 F120.00
G01 X64.1674 Y65.3115 F120.00
G01 X64.1731 Y65.3188 F120.00
G01 X64.2270 Y65.3728 F120.00
G01 X64.2814 Y65.4302 F120.00
G01 X64.2963 Y65.4426 F120.00
G01 X64.3026 Y65.4483 F120.00
G01 X65.4719 Y66.6177 F120.00
G01 X65.4803 Y66.6267 F120.00
G01 X65.5105 Y66.6622 F120.00
G01 X65.5690 Y66.7067 F120.00
G01 X65.6282 Y66.7543 F120.00
G01 X65.6361 Y66.7592 F120.00
G01 X65.7053 Y66.7913 F120.00
G01 X65.7762 Y66.8264 F120.00
G01 X65.7849 Y66.8294 F120.00
G01 X65.8595 Y66.8459 F120.00
G01 X65.9362 Y66.8649 F120.00
G01 X65.9628 Y66.8682 F120.00
G01 X65.9745 Y66.8705 F120.00
G01 X66.0415 Y66.8911 F120.00
G01 X66.0501 Y66.8942 F120.00
G01 X66.0585 Y66.8978 F120.00
G01 X66.0717 Y66.9054 F120.00
G01 X66.0832 Y66.9133 F120.00
G01 X66.0901 Y66.9186 F120.00
G01 X66.0965 Y66.9243 F120.00
G01 X66.1043 Y66.9325 F120.00
G01 X66.1096 Y66.9391 F120.00
G01 X66.1550 Y66.9998 F120.00
G01 X66.1625 Y67.0126 F120.00
G01 X66.1673 Y67.0234 F120.00
G01 X66.1718 Y67.0375 F120.00
G01 X66.1745 Y67.0521 F120.00
G01 X66.1804 Y67.1336 F120.00
G01 X66.1798 Y67.1484 F120.00
G01 X66.1774 Y67.1630 F120.00
G01 X66.1742 Y67.1744 F120.00
G01 X66.1686 Y67.1881 F120.00
G01 X66.1296 Y67.2597 F120.00
G01 X66.1249 Y67.2668 F120.00
G01 X66.1197 Y67.2736 F120.00
G01 X66.1140 Y67.2800 F120.00
G01 X66.1079 Y67.2859 F120.00
G01 X66.0901 Y67.3014 F120.00
G01 X66.0803 Y67.3087 F120.00
G01 X66.0680 Y67.3160 F120.00
G01 X66.0577 Y67.3207 F120.00
G01 X65.9896 Y67.3461 F120.00
G01 X65.9812 Y67.3489 F120.00
G01 X65.9697 Y67.3516 F120.00
G01 X65.9609 Y67.3529 F120.00
G01 X65.9392 Y67.3539 F120.00
G01 X65.1990 Y67.3539 F120.00
G01 X65.1905 Y67.3536 F120.00
G01 X65.1792 Y67.3522 F120.00
G01 X65.1681 Y67.3498 F120.00
G01 X65.0983 Y67.3294 F120.00
G01 X65.0846 Y67.3244 F120.00
G01 X65.0740 Y67.3192 F120.00
G01 X65.0641 Y67.3130 F120.00
G01 X65.0570 Y67.3078 F120.00
G01 X65.0315 Y67.2870 F120.00
G01 X56.7035 Y58.9590 F120.00
G01 X56.6962 Y58.9502 F120.00
G01 X56.6884 Y58.9384 F120.00
G01 X56.6535 Y58.8746 F120.00
G01 X56.6473 Y58.8613 F120.00
G01 X56.6435 Y58.8502 F120.00
G01 X56.6404 Y58.8359 F120.00
G01 X56.6368 Y58.8038 F120.00
G01 X56.6361 Y58.7942 F120.00
G01 X56.6361 Y56.7031 F120.00
G01 X56.6365 Y56.6908 F120.00
G01 X56.6403 Y56.6444 F120.00
G01 X56.6304 Y56.5715 F120.00
G01 X56.6222 Y56.4960 F120.00
G01 X56.6201 Y56.4869 F120.00
G01 X56.5927 Y56.4123 F120.00
G01 X56.5685 Y56.3404 F120.00
G01 X56.5645 Y56.3320 F120.00
G01 X56.5234 Y56.2677 F120.00
G01 X56.4826 Y56.2000 F120.00
G01 X56.4769 Y56.1927 F120.00
G01 X56.4230 Y56.1387 F120.00
G01 X56.3686 Y56.0813 F120.00
G01 X56.3537 Y56.0689 F120.00
G01 X56.3475 Y56.0632 F120.00
G01 X52.6316 Y52.3473 F120.00
G01 X52.6232 Y52.3383 F120.00
G01 X52.5930 Y52.3028 F120.00
G01 X52.5345 Y52.2583 F120.00
G01 X52.4753 Y52.2107 F120.00
G01 X52.4674 Y52.2058 F120.00
G01 X52.3982 Y52.1737 F120.00
G01 X52.3273 Y52.1386 F120.00
G01 X52.3068 Y52.1313 F120.00
G01 X52.2897 Y52.1234 F120.00
G01 X52.2796 Y52.1174 F120.00
G01 X52.2724 Y52.1123 F120.00
G01 X52.2656 Y52.1067 F120.00
G01 X52.2580 Y52.0992 F120.00
G00 Z2.0000
G00 X52.1811 Y52.1912
G01 F60.00
G01 Z-0.1100
G01 F120.00
G01 X52.1522 Y52.1706 F120.00
G01 X52.1430 Y52.1631 F120.00
G01 X52.1342 Y52.1552 F120.00
G01 X52.1258 Y52.1468 F120.00
G01 X52.1140 Y52.1335 F120.00
G01 X52.1067 Y52.1241 F120.00
G01 X52.0967 Y52.1095 F120.00
G01 X52.0878 Y52.0941 F120.00
G01 X52.0800 Y52.0781 F120.00
G01 X52.0490 Y52.0024 F120.00
G01 X52.0450 Y51.9913 F120.00
G01 X52.0416 Y51.9799 F120.00
G01 X52.0388 Y51.9684 F120.00
G01 X52.0366 Y51.9567 F120.00
G01 X52.0343 Y51.9391 F120.00
G01 X52.0333 Y51.9213 F120.00
G01 X52.0337 Y51.9036 F120.00
G01 X52.0347 Y51.8917 F120.00
G01 X52.0372 Y51.8741 F120.00
G01 X52.0499 Y51.8054 F120.00
G01 X52.0523 Y51.7938 F120.00
G01 X52.0553 Y51.7823 F120.00
G01 X52.0609 Y51.7654 F120.00
G01 X52.0653 Y51.7544 F120.00
G01 X52.0702 Y51.7436 F120.00
G01 X52.0757 Y51.7331 F120.00
G01 X52.0817 Y51.7229 F120.00
G01 X52.0882 Y51.7130 F120.00
G01 X52.0952 Y51.7034 F120.00
G01 X52.1026 Y51.6941 F120.00
G01 X52.1105 Y51.6853 F120.00
G01 X52.1666 Y51.6259 F120.00
G01 X52.1797 Y51.6141 F120.00
G01 X52.1889 Y51.6068 F120.00
G01 X52.1985 Y51.6000 F120.00
G01 X52.2084 Y51.5936 F120.00
G01 X52.2186 Y51.5877 F120.00
G01 X52.2291 Y51.5824 F120.00
G01 X52.2650 Y51.5662 F120.00
G01 X52.2772 Y51.5615 F120.00
G01 X52.4692 Y51.4990 F120.00
G01 X52.6296 Y51.4128 F120.00
G01 X52.7720 Y51.2992 F120.00
G01 X52.8918 Y51.1621 F120.00
G01 X52.9852 Y51.0057 F120.00
G01 X53.0040 Y50.9564 F120.00
G01 X53.0113 Y50.9410 F120.00
G01 X53.0197 Y50.9262 F120.00
G01 X53.0258 Y50.9166 F120.00
G01 X53.0324 Y50.9074 F120.00
G01 X53.0744 Y50.8516 F120.00
G01 X53.0856 Y50.8377 F120.00
G01 X53.0937 Y50.8290 F120.00
G01 X53.1021 Y50.8207 F120.00
G01 X53.1155 Y50.8090 F120.00
G01 X53.1250 Y50.8018 F120.00
G01 X53.1347 Y50.7951 F120.00
G01 X53.1500 Y50.7859 F120.00
G01 X53.1659 Y50.7779 F120.00
G01 X53.1768 Y50.7733 F120.00
G01 X53.2478 Y50.7469 F120.00
G01 X53.2647 Y50.7413 F120.00
G01 X53.2762 Y50.7383 F120.00
G01 X53.2878 Y50.7359 F120.00
G01 X53.3054 Y50.7333 F120.00
G01 X53.3172 Y50.7324 F120.00
G01 X53.3350 Y50.7320 F120.00
G01 X53.3469 Y50.7325 F120.00
G01 X53.3587 Y50.7336 F120.00
G01 X53.3762 Y50.7363 F120.00
G01 X53.4561 Y50.7539 F120.00
G01 X53.4675 Y50.7570 F120.00
G01 X53.4788 Y50.7607 F120.00
G01 X53.4953 Y50.7672 F120.00
G01 X53.5113 Y50.7750 F120.00
G01 X53.5267 Y50.7839 F120.00
G01 X53.5366 Y50.7905 F120.00
G01 X53.5461 Y50.7976 F120.00
G01 X53.5552 Y50.8051 F120.00
G01 X53.5640 Y50.8131 F120.00
G01 X53.6215 Y50.8708 F120.00
G01 X53.6292 Y50.8793 F120.00
G01 X53.6364 Y50.8881 F120.00
G01 X53.6464 Y50.9019 F120.00
G01 X53.6555 Y50.9164 F120.00
G01 X53.6636 Y50.9317 F120.00
G01 X53.7380 Y51.0860 F120.00
G01 X53.8450 Y51.2333 F120.00
G01 X53.9767 Y51.3592 F120.00
G01 X54.1287 Y51.4595 F120.00
G01 X54.2961 Y51.5311 F120.00
G01 X54.4736 Y51.5716 F120.00
G01 X54.6556 Y51.5798 F120.00
G01 X54.8360 Y51.5553 F120.00
G01 X55.0092 Y51.4990 F120.00
G01 X55.1696 Y51.4128 F120.00
G01 X55.3120 Y51.2992 F120.00
G01 X55.4318 Y51.1621 F120.00
G01 X55.5252 Y51.0057 F120.00
G01 X55.5892 Y50.8352 F120.00
G01 X55.6217 Y50.6561 F120.00
G01 X55.6217 Y50.0196 F120.00
G01 X55.6095 Y49.8836 F120.00
G01 X55.5610 Y49.7081 F120.00
G01 X55.4820 Y49.5440 F120.00
G01 X55.3750 Y49.3967 F120.00
G01 X55.2433 Y49.2708 F120.00
G01 X55.0913 Y49.1705 F120.00
G01 X54.9239 Y49.0989 F120.00
G01 X54.7464 Y49.0584 F120.00
G01 X54.5644 Y49.0502 F120.00
G01 X54.3840 Y49.0747 F120.00
G01 X54.2108 Y49.1310 F120.00
G01 X54.0504 Y49.2172 F120.00
G01 X53.9080 Y49.3308 F120.00
G01 X53.7882 Y49.4679 F120.00
G01 X53.6948 Y49.6243 F120.00
G01 X53.6760 Y49.6736 F120.00
G01 X53.6687 Y49.6890 F120.00
G01 X53.6603 Y49.7038 F120.00
G01 X53.6542 Y49.7134 F120.00
G01 X53.6476 Y49.7226 F120.00
G01 X53.6020 Y49.7831 F120.00
G01 X53.5904 Y49.7967 F120.00
G01 X53.5779 Y49.8093 F120.00
G01 X53.5645 Y49.8210 F120.00
G01 X53.5502 Y49.8316 F120.00
G01 X53.5352 Y49.8411 F120.00
G01 X53.5195 Y49.8495 F120.00
G01 X53.5087 Y49.8545 F120.00
G01 X53.4977 Y49.8589 F120.00
G01 X53.4266 Y49.8851 F120.00
G01 X53.4153 Y49.8887 F120.00
G01 X53.4038 Y49.8917 F120.00
G01 X53.3922 Y49.8941 F120.00
G01 X53.3805 Y49.8960 F120.00
G01 X53.3628 Y49.8976 F120.00
G01 X53.3509 Y49.8980 F120.00
G01 X53.3391 Y49.8978 F120.00
G01 X53.3272 Y49.8970 F120.00
G01 X53.3155 Y49.8956 F120.00
G01 X53.3038 Y49.8937 F120.00
G01 X53.2297 Y49.8775 F120.00
G01 X53.2125 Y49.8730 F120.00
G01 X53.1957 Y49.8673 F120.00
G01 X53.1847 Y49.8628 F120.00
G01 X53.1740 Y49.8577 F120.00
G01 X53.1635 Y49.8522 F120.00
G01 X53.1533 Y49.8461 F120.00
G01 X53.1434 Y49.8395 F120.00
G01 X53.1339 Y49.8324 F120.00
G01 X53.1248 Y49.8249 F120.00
G01 X53.1160 Y49.8169 F120.00
G01 X53.0585 Y49.7592 F120.00
G01 X53.0508 Y49.7507 F120.00
G01 X53.0436 Y49.7419 F120.00
G01 X53.0336 Y49.7281 F120.00
G01 X53.0245 Y49.7136 F120.00
G01 X53.0163 Y49.6982 F120.00
G01 X52.9420 Y49.5440 F120.00
G01 X52.8350 Y49.3967 F120.00
G01 X52.7033 Y49.2708 F120.00
G01 X52.5513 Y49.1705 F120.00
G01 X52.3839 Y49.0989 F120.00
G01 X52.2064 Y49.0584 F120.00
G01 X52.0244 Y49.0502 F120.00
G01 X51.8440 Y49.0747 F120.00
G01 X51.6708 Y49.1310 F120.00
G01 X51.5104 Y49.2172 F120.00
G01 X51.3680 Y49.3308 F120.00
G01 X51.2482 Y49.4679 F120.00
G01 X51.1548 Y49.6243 F120.00
G01 X51.1360 Y49.6736 F120.00
G01 X51.1287 Y49.6890 F120.00
G01 X51.1203 Y49.7038 F120.00
G01 X51.1142 Y49.7134 F120.00
G01 X51.1076 Y49.7226 F120.00
G01 X51.0620 Y49.7831 F120.00
G01 X51.0504 Y49.7967 F120.00
G01 X51.0379 Y49.8093 F120.00
G01 X51.0290 Y49.8172 F120.00
G01 X51.0150 Y49.8282 F120.00
G01 X51.0003 Y49.8381 F120.00
G01 X50.9848 Y49.8469 F120.00
G01 X50.9741 Y49.8521 F120.00
G01 X50.9632 Y49.8567 F120.00
G01 X50.8922 Y49.8831 F120.00
G01 X50.8810 Y49.8870 F120.00
G01 X50.8696 Y49.8903 F120.00
G01 X50.8580 Y49.8930 F120.00
G01 X50.8464 Y49.8951 F120.00
G01 X50.8346 Y49.8967 F120.00
G01 X50.8228 Y49.8976 F120.00
G01 X50.8109 Y49.8980 F120.00
G01 X50.7932 Y49.8975 F120.00
G01 X50.7755 Y49.8956 F120.00
G01 X50.7580 Y49.8925 F120.00
G01 X50.6839 Y49.8761 F120.00
G01 X50.6725 Y49.8730 F120.00
G01 X50.6612 Y49.8693 F120.00
G01 X50.6501 Y49.8651 F120.00
G01 X50.6393 Y49.8603 F120.00
G01 X50.6287 Y49.8550 F120.00
G01 X50.6184 Y49.8492 F120.00
G01 X50.6083 Y49.8428 F120.00
G01 X50.5986 Y49.8360 F120.00
G01 X50.5893 Y49.8287 F120.00
G01 X50.5803 Y49.8209 F120.00
G01 X50.5718 Y49.8128 F120.00
G01 X50.5185 Y49.7592 F120.00
G01 X50.5108 Y49.7507 F120.00
G01 X50.5036 Y49.7419 F120.00
G01 X50.4936 Y49.7281 F120.00
G01 X50.4845 Y49.7136 F120.00
G01 X50.4763 Y49.6982 F120.00
G01 X50.4020 Y49.5440 F120.00
G01 X50.2950 Y49.3967 F120.00
G01 X50.1633 Y49.2708 F120.00
G01 X50.0113 Y49.1705 F120.00
G01 X49.8439 Y49.0989 F120.00
G01 X49.6664 Y49.0584 F120.00
G01 X49.4844 Y49.0502 F120.00
G01 X49.3040 Y49.0747 F120.00
G01 X49.1308 Y49.1310 F120.00
G01 X48.9704 Y49.2172 F120.00
G01 X48.8280 Y49.3308 F120.00
G01 X48.7082 Y49.4679 F120.00
G01 X48.6148 Y49.6243 F120.00
G01 X48.5960 Y49.6736 F120.00
G01 X48.5887 Y49.6890 F120.00
G01 X48.5803 Y49.7038 F120.00
G01 X48.5742 Y49.7134 F120.00
G01 X48.5676 Y49.7226 F120.00
G01 X48.5220 Y49.7831 F120.00
G01 X48.5104 Y49.7967 F120.00
G01 X48.4979 Y49.8093 F120.00
G01 X48.4845 Y49.8210 F120.00
G01 X48.4702 Y49.8316 F120.00
G01 X48.4603 Y49.8381 F120.00
G01 X48.4448 Y49.8469 F120.00
G01 X48.4341 Y49.8521 F120.00
G01 X48.4232 Y49.8567 F120.00
G01 X48.3522 Y49.8831 F120.00
G01 X48.3410 Y49.8870 F120.00
G01 X48.3296 Y49.8903 F120.00
G01 X48.3180 Y49.8930 F120.00
G01 X48.3064 Y49.8951 F120.00
G01 X48.2946 Y49.8967 F120.00
G01 X48.2828 Y49.8976 F120.00
G01 X48.2709 Y49.8980 F120.00
G01 X48.2591 Y49.8978 F120.00
G01 X48.2413 Y49.8964 F120.00
G01 X48.2238 Y49.8937 F120.00
G01 X48.1439 Y49.8761 F120.00
G01 X48.1325 Y49.8730 F120.00
G01 X48.1212 Y49.8693 F120.00
G01 X48.1101 Y49.8651 F120.00
G01 X48.0993 Y49.8603 F120.00
G01 X48.0887 Y49.8550 F120.00
G01 X48.0784 Y49.8492 F120.00
G01 X48.0683 Y49.8428 F120.00
G01 X48.0586 Y49.8360 F120.00
G01 X48.0493 Y49.8287 F120.00
G01 X48.0403 Y49.8209 F120.00
G01 X48.0318 Y49.8128 F120.00
G01 X47.9785 Y49.7592 F120.00
G01 X47.9708 Y49.7507 F120.00
G01 X47.9636 Y49.7419 F120.00
G01 X47.9536 Y49.7281 F120.00
G01 X47.9445 Y49.7136 F120.00
G01 X47.9363 Y49.6982 F120.00
G01 X47.8620 Y49.5440 F120.00
G01 X47.7550 Y49.3967 F120.00
G01 X47.6233 Y49.2708 F120.00
G01 X47.4713 Y49.1705 F120.00
G01 X47.3039 Y49.0989 F120.00
G01 X47.1264 Y49.0584 F120.00
G01 X46.9444 Y49.0502 F120.00
G01 X46.7640 Y49.0747 F120.00
G01 X46.5908 Y49.1310 F120.00
G01 X46.4304 Y49.2172 F120.00
G01 X46.2880 Y49.3308 F120.00
G01 X46.1682 Y49.4679 F120.00
G01 X46.0748 Y49.6243 F120.00
G01 X46.0560 Y49.6736 F120.00
G01 X46.0487 Y49.6890 F120.00
G01 X46.0403 Y49.7038 F120.00
G01 X46.0342 Y49.7134 F120.00
G01 X46.0276 Y49.7226 F120.00
G01 X45.9820 Y49.7831 F120.00
G01 X45.9704 Y49.7967 F120.00
G01 X45.9579 Y49.8093 F120.00
G01 X45.9445 Y49.8210 F120.00
G01 X45.9350 Y49.8282 F120.00
G01 X45.9203 Y49.8381 F120.00
G01 X45.9048 Y49.8469 F120.00
G01 X45.8941 Y49.8521 F120.00
G01 X45.8832 Y49.8567 F120.00
G01 X45.8122 Y49.8831 F120.00
G01 X45.8010 Y49.8870 F120.00
G01 X45.7896 Y49.8903 F120.00
G01 X45.7780 Y49.8930 F120.00
G01 X45.7664 Y49.8951 F120.00
G01 X45.7546 Y49.8967 F120.00
G01 X45.7428 Y49.8976 F120.00
G01 X45.7309 Y49.8980 F120.00
G01 X45.7191 Y49.8978 F120.00
G01 X45.7013 Y49.8964 F120.00
G01 X45.6838 Y49.8937 F120.00
G01 X45.6039 Y49.8761 F120.00
G01 X45.5925 Y49.8730 F120.00
G01 X45.5812 Y49.8693 F120.00
G01 X45.5701 Y49.8651 F120.00
G01 X45.5593 Y49.8603 F120.00
G01 X45.5487 Y49.8550 F120.00
G01 X45.5384 Y49.8492 F120.00
G01 X45.5283 Y49.8428 F120.00
G01 X45.5186 Y49.8360 F120.00
G01 X45.5093 Y49.8287 F120.00
G01 X45.5003 Y49.8209 F120.00
G01 X45.4918 Y49.8128 F120.00
G01 X45.4385 Y49.7592 F120.00
G01 X45.4308 Y49.7507 F120.00
G01 X45.4236 Y49.7419 F120.00
G01 X45.4136 Y49.7281 F120.00
G01 X45.4045 Y49.7136 F120.00
G01 X45.3963 Y49.6982 F120.00
G01 X45.3220 Y49.5440 F120.00
G01 X45.2150 Y49.3967 F120.00
G01 X45.0833 Y49.2708 F120.00
G01 X44.9313 Y49.1705 F120.00
G01 X44.7639 Y49.0989 F120.00
G01 X44.5864 Y49.0584 F120.00
G01 X44.4044 Y49.0502 F120.00
G01 X44.2240 Y49.0747 F120.00
G01 X44.0508 Y49.1310 F120.00
G01 X43.8904 Y49.2172 F120.00
G01 X43.7480 Y49.3308 F120.00
G01 X43.6282 Y49.4679 F120.00
G01 X43.5348 Y49.6243 F120.00
G01 X43.5160 Y49.6736 F120.00
G01 X43.5087 Y49.6890 F120.00
G01 X43.5003 Y49.7038 F120.00
G01 X43.4942 Y49.7134 F120.00
G01 X43.4876 Y49.7226 F120.00
G01 X43.4456 Y49.7784 F120.00
G01 X43.4344 Y49.7923 F120.00
G01 X43.4222 Y49.8052 F120.00
G01 X43.4135 Y49.8133 F120.00
G01 X43.4045 Y49.8210 F120.00
G01 X43.3950 Y49.8282 F120.00
G01 X43.3853 Y49.8349 F120.00
G01 X43.3752 Y49.8411 F120.00
G01 X43.3648 Y49.8469 F120.00
G01 X43.3541 Y49.8521 F120.00
G01 X43.3432 Y49.8567 F120.00
G01 X43.2722 Y49.8831 F120.00
G01 X43.2610 Y49.8870 F120.00
G01 X43.2496 Y49.8903 F120.00
G01 X43.2322 Y49.8941 F120.00
G01 X43.2146 Y49.8967 F120.00
G01 X43.2028 Y49.8976 F120.00
G01 X43.1850 Y49.8980 F120.00
G01 X43.1672 Y49.8970 F120.00
G01 X43.1555 Y49.8956 F120.00
G01 X43.1438 Y49.8937 F120.00
G01 X43.0639 Y49.8761 F120.00
G01 X43.0525 Y49.8730 F120.00
G01 X43.0412 Y49.8693 F120.00
G01 X43.0301 Y49.8651 F120.00
G01 X43.0193 Y49.8603 F120.00
G01 X43.0087 Y49.8550 F120.00
G01 X42.9984 Y49.8492 F120.00
G01 X42.9883 Y49.8428 F120.00
G01 X42.9786 Y49.8360 F120.00
G01 X42.9693 Y49.8287 F120.00
G01 X42.9603 Y49.8209 F120.00
G01 X42.9518 Y49.8128 F120.00
G01 X42.8985 Y49.7592 F120.00
G01 X42.8908 Y49.7507 F120.00
G01 X42.8836 Y49.7419 F120.00
G01 X42.8736 Y49.7281 F120.00
G01 X42.8645 Y49.7136 F120.00
G01 X42.8563 Y49.6982 F120.00
G01 X42.7820 Y49.5440 F120.00
G01 X42.6750 Y49.3967 F120.00
G01 X42.5433 Y49.2708 F120.00
G01 X42.3913 Y49.1705 F120.00
G01 X42.2239 Y49.0989 F120.00
G01 X42.0464 Y49.0584 F120.00
G01 X41.8644 Y49.0502 F120.00
G01 X41.6840 Y49.0747 F120.00
G01 X41.5108 Y49.1310 F120.00
G01 X41.3504 Y49.2172 F120.00
G01 X41.2080 Y49.3308 F120.00
G01 X41.0882 Y49.4679 F120.00
G01 X40.9948 Y49.6243 F120.00
G01 X40.9760 Y49.6736 F120.00
G01 X40.9687 Y49.6890 F120.00
G01 X40.9603 Y49.7038 F120.00
G01 X40.9542 Y49.7134 F120.00
G01 X40.9476 Y49.7226 F120.00
G01 X40.9056 Y49.7784 F120.00
G01 X40.8944 Y49.7923 F120.00
G01 X40.8822 Y49.8052 F120.00
G01 X40.8735 Y49.8133 F120.00
G01 X40.8645 Y49.8210 F120.00
G01 X40.8550 Y49.8282 F120.00
G01 X40.8453 Y49.8349 F120.00
G01 X40.8352 Y49.8411 F120.00
G01 X40.8248 Y49.8469 F120.00
G01 X40.8141 Y49.8521 F120.00
G01 X40.8032 Y49.8567 F120.00
G01 X40.7322 Y49.8831 F120.00
G01 X40.7210 Y49.8870 F120.00
G01 X40.7096 Y49.8903 F120.00
G01 X40.6922 Y49.8941 F120.00
G01 X40.6746 Y49.8967 F120.00
G01 X40.6628 Y49.8976 F120.00
G01 X40.6450 Y49.8980 F120.00
G01 X40.6272 Y49.8970 F120.00
G01 X40.6155 Y49.8956 F120.00
G01 X40.6038 Y49.8937 F120.00
G01 X40.5239 Y49.8761 F120.00
G01 X40.5125 Y49.8730 F120.00
G01 X40.5012 Y49.8693 F120.00
G01 X40.4901 Y49.8651 F120.00
G01 X40.4793 Y49.8603 F120.00
G01 X40.4687 Y49.8550 F120.00
G01 X40.4584 Y49.8492 F120.00
G01 X40.4483 Y49.8428 F120.00
G01 X40.4386 Y49.8360 F120.00
G01 X40.4293 Y49.8287 F120.00
G01 X40.4203 Y49.8209 F120.00
G01 X40.4118 Y49.8128 F120.00
G01 X40.3585 Y49.7592 F120.00
G01 X40.3472 Y49.7464 F120.00
G01 X40.3401 Y49.7374 F120.00
G01 X40.3336 Y49.7281 F120.00
G01 X40.3245 Y49.7136 F120.00
G01 X40.3163 Y49.6982 F120.00
G01 X40.2420 Y49.5440 F120.00
G01 X40.1350 Y49.3967 F120.00
G01 X40.0033 Y49.2708 F120.00
G01 X39.8513 Y49.1705 F120.00
G01 X39.6839 Y49.0989 F120.00
G01 X39.5064 Y49.0584 F120.00
G01 X39.3244 Y49.0502 F120.00
G01 X39.1440 Y49.0747 F120.00
G01 X38.9708 Y49.1310 F120.00
G01 X38.8104 Y49.2172 F120.00
G01 X38.6680 Y49.3308 F120.00
G01 X38.5482 Y49.4679 F120.00
G01 X38.4548 Y49.6243 F120.00
G01 X38.4360 Y49.6736 F120.00
G01 X38.4287 Y49.6890 F120.00
G01 X38.4203 Y49.7038 F120.00
G01 X38.4142 Y49.7134 F120.00
G01 X38.4076 Y49.7226 F120.00
G01 X38.3620 Y49.7831 F120.00
G01 X38.3504 Y49.7967 F120.00
G01 X38.3379 Y49.8093 F120.00
G01 X38.3245 Y49.8210 F120.00
G01 X38.3150 Y49.8282 F120.00
G01 X38.3003 Y49.8381 F120.00
G01 X38.2848 Y49.8469 F120.00
G01 X38.2741 Y49.8521 F120.00
G01 X38.2632 Y49.8567 F120.00
G01 X38.1922 Y49.8831 F120.00
G01 X38.1810 Y49.8870 F120.00
G01 X38.1696 Y49.8903 F120.00
G01 X38.1580 Y49.8930 F120.00
G01 X38.1464 Y49.8951 F120.00
G01 X38.1346 Y49.8967 F120.00
G01 X38.1228 Y49.8976 F120.00
G01 X38.1109 Y49.8980 F120.00
G01 X38.0991 Y49.8978 F120.00
G01 X38.0813 Y49.8964 F120.00
G01 X38.0638 Y49.8937 F120.00
G01 X37.9839 Y49.8761 F120.00
G01 X37.9725 Y49.8730 F120.00
G01 X37.9557 Y49.8673 F120.00
G01 X37.9447 Y49.8628 F120.00
G01 X37.9340 Y49.8577 F120.00
G01 X37.9184 Y49.8492 F120.00
G01 X37.9083 Y49.8428 F120.00
G01 X37.8939 Y49.8324 F120.00
G01 X37.8848 Y49.8249 F120.00
G01 X37.8718 Y49.8128 F120.00
G01 X37.8185 Y49.7592 F120.00
G01 X37.8072 Y49.7464 F120.00
G01 X37.7968 Y49.7328 F120.00
G01 X37.7874 Y49.7185 F120.00
G01 X37.7817 Y49.7086 F120.00
G01 X37.7737 Y49.6929 F120.00
G01 X37.7020 Y49.5440 F120.00
G01 X37.5950 Y49.3967 F120.00
G01 X37.5747 Y49.3772 F120.00
G01 X37.5669 Y49.3690 F120.00
G01 X37.5595 Y49.3604 F120.00
G01 X37.5491 Y49.3469 F120.00
G01 X37.5427 Y49.3374 F120.00
G01 X37.5368 Y49.3277 F120.00
G01 X37.4990 Y49.2619 F120.00
G01 X37.4936 Y49.2512 F120.00
G01 X37.4864 Y49.2346 F120.00
G01 X37.4823 Y49.2232 F120.00
G01 X37.4773 Y49.2059 F120.00
G01 X37.4746 Y49.1941 F120.00
G01 X37.4726 Y49.1822 F120.00
G01 X37.4684 Y49.1472 F120.00
G01 X37.4670 Y49.1303 F120.00
G01 X37.4667 Y49.1190 F120.00
G01 X37.4668 Y48.8183 F120.00
G01 X37.4673 Y48.8070 F120.00
G01 X37.4684 Y48.7957 F120.00
G01 X37.4700 Y48.7844 F120.00
G01 X37.4734 Y48.7677 F120.00
G01 X37.4978 Y48.6841 F120.00
G01 X37.5038 Y48.6676 F120.00
G01 X37.5109 Y48.6515 F120.00
G01 X37.5193 Y48.6360 F120.00
G01 X37.5255 Y48.6261 F120.00
G01 X37.5321 Y48.6164 F120.00
G01 X37.5600 Y48.5816 F120.00
G01 X37.5730 Y48.5675 F120.00
G01 X40.1665 Y45.9740 F120.00
G01 X40.1749 Y45.9663 F120.00
G01 X40.1837 Y45.9591 F120.00
G01 X40.1928 Y45.9523 F120.00
G01 X40.2070 Y45.9429 F120.00
G01 X40.2834 Y45.9010 F120.00
G01 X40.2939 Y45.8959 F120.00
G01 X40.3047 Y45.8913 F120.00
G01 X40.3213 Y45.8854 F120.00
G01 X40.3326 Y45.8822 F120.00
G01 X40.3440 Y45.8795 F120.00
G01 X40.3613 Y45.8766 F120.00
G01 X40.3998 Y45.8725 F120.00
G01 X40.4190 Y45.8717 F120.00
G01 X59.9110 Y45.8717 F120.00
G01 X59.9224 Y45.8720 F120.00
G01 X59.9393 Y45.8734 F120.00
G01 X59.9506 Y45.8750 F120.00
G01 X59.9618 Y45.8772 F120.00
G01 X59.9783 Y45.8814 F120.00
G01 X60.0453 Y45.9011 F120.00
G01 X60.0620 Y45.9066 F120.00
G01 X60.0782 Y45.9134 F120.00
G01 X60.0939 Y45.9214 F120.00
G01 X60.1089 Y45.9305 F120.00
G01 X60.1233 Y45.9406 F120.00
G01 X60.1485 Y45.9609 F120.00
G01 X60.1583 Y45.9692 F120.00
G01 X60.1675 Y45.9780 F120.00
G01 X64.0270 Y49.8375 F120.00
G01 X64.0349 Y49.8457 F120.00
G01 X64.0459 Y49.8587 F120.00
G01 X64.0559 Y49.8725 F120.00
G01 X64.0650 Y49.8869 F120.00
G01 X64.1013 Y49.9532 F120.00
G01 X64.1066 Y49.9636 F120.00
G01 X64.1137 Y49.9797 F120.00
G01 X64.1177 Y49.9907 F120.00
G01 X64.1212 Y50.0019 F120.00
G01 X64.1255 Y50.0190 F120.00
G01 X64.1284 Y50.0363 F120.00
G01 X64.1325 Y50.0748 F120.00
G01 X64.1333 Y50.0940 F120.00
G01 X64.1333 Y64.8084 F120.00
G01 X64.1327 Y64.8280 F120.00
G01 X64.1298 Y64.8638 F120.00
G01 X64.1383 Y64.9271 F120.00
G01 X64.1454 Y64.9927 F120.00
G01 X64.1683 Y65.0550 F120.00
G01 X64.1915 Y65.1236 F120.00
G01 X64.2272 Y65.1795 F120.00
G01 X64.2646 Y65.2415 F120.00
G01 X64.3159 Y65.2930 F120.00
G01 X64.3631 Y65.3428 F120.00
G01 X64.3746 Y65.3523 F120.00
G01 X64.3870 Y65.3639 F120.00
G01 X65.5564 Y66.5333 F120.00
G01 X65.5697 Y66.5476 F120.00
G01 X65.5931 Y66.5750 F120.00
G01 X65.6439 Y66.6137 F120.00
G01 X65.6953 Y66.6550 F120.00
G01 X65.7555 Y66.6829 F120.00
G01 X65.8203 Y66.7150 F120.00
G01 X65.8914 Y66.7307 F120.00
G01 X65.9580 Y66.7473 F120.00
G01 X65.9865 Y66.7511 F120.00
G01 X66.0041 Y66.7549 F120.00
G01 X66.0156 Y66.7581 F120.00
G01 X66.0768 Y66.7771 F120.00
G01 X66.0884 Y66.7810 F120.00
G01 X66.1053 Y66.7879 F120.00
G01 X66.1216 Y66.7961 F120.00
G01 X66.1372 Y66.8056 F120.00
G01 X66.1495 Y66.8139 F120.00
G01 X66.1618 Y66.8230 F120.00
G01 X66.1747 Y66.8340 F120.00
G01 X66.1869 Y66.8459 F120.00
G01 X66.1981 Y66.8585 F120.00
G01 X66.2470 Y66.9233 F120.00
G01 X66.2572 Y66.9379 F120.00
G01 X66.2633 Y66.9481 F120.00
G01 X66.2716 Y66.9639 F120.00
G01 X66.2764 Y66.9747 F120.00
G01 X66.2807 Y66.9857 F120.00
G01 X66.2844 Y66.9970 F120.00
G01 X66.2890 Y67.0142 F120.00
G01 X66.2913 Y67.0258 F120.00
G01 X66.2930 Y67.0376 F120.00
G01 X66.2942 Y67.0494 F120.00
G01 X66.2992 Y67.1190 F120.00
G01 X66.2998 Y67.1309 F120.00
G01 X66.2997 Y67.1427 F120.00
G01 X66.2991 Y67.1546 F120.00
G01 X66.2979 Y67.1664 F120.00
G01 X66.2961 Y67.1781 F120.00
G01 X66.2938 Y67.1897 F120.00
G01 X66.2908 Y67.2012 F120.00
G01 X66.2873 Y67.2126 F120.00
G01 X66.2810 Y67.2292 F120.00
G01 X66.2761 Y67.2400 F120.00
G01 X66.2707 Y67.2505 F120.00
G01 X66.2373 Y67.3119 F120.00
G01 X66.2286 Y67.3266 F120.00
G01 X66.2188 Y67.3406 F120.00
G01 X66.2081 Y67.3539 F120.00
G01 X66.1965 Y67.3664 F120.00
G01 X66.1882 Y67.3743 F120.00
G01 X66.1661 Y67.3935 F120.00
G01 X66.1571 Y67.4005 F120.00
G01 X66.1472 Y67.4076 F120.00
G01 X66.1376 Y67.4138 F120.00
G01 X66.1277 Y67.4195 F120.00
G01 X66.1125 Y67.4271 F120.00
G01 X66.1020 Y67.4316 F120.00
G01 X66.0312 Y67.4580 F120.00
G01 X66.0200 Y67.4618 F120.00
G01 X66.0087 Y67.4651 F120.00
G01 X65.9915 Y67.4690 F120.00
G01 X65.9740 Y67.4716 F120.00
G01 X65.9622 Y67.4726 F120.00
G01 X65.9392 Y67.4733 F120.00
G01 X65.1990 Y67.4733 F120.00
G01 X65.1876 Y67.4730 F120.00
G01 X65.1763 Y67.4722 F120.00
G01 X65.1650 Y67.4709 F120.00
G01 X65.1538 Y67.4690 F120.00
G01 X65.1372 Y67.4652 F120.00
G01 X65.0591 Y67.4422 F120.00
G01 X65.0480 Y67.4384 F120.00
G01 X65.0371 Y67.4340 F120.00
G01 X65.0265 Y67.4291 F120.00
G01 X65.0161 Y67.4236 F120.00
G01 X65.0011 Y67.4145 F120.00
G01 X64.9867 Y67.4044 F120.00
G01 X64.9566 Y67.3800 F120.00
G01 X64.9425 Y67.3670 F120.00
G01 X56.6230 Y59.0475 F120.00
G01 X56.6151 Y59.0393 F120.00
G01 X56.6077 Y59.0307 F120.00
G01 X56.5973 Y59.0172 F120.00
G01 X56.5909 Y59.0078 F120.00
G01 X56.5850 Y58.9981 F120.00
G01 X56.5460 Y58.9266 F120.00
G01 X56.5409 Y58.9161 F120.00
G01 X56.5363 Y58.9053 F120.00
G01 X56.5323 Y58.8943 F120.00
G01 X56.5288 Y58.8831 F120.00
G01 X56.5258 Y58.8718 F120.00
G01 X56.5234 Y58.8603 F120.00
G01 X56.5216 Y58.8487 F120.00
G01 X56.5181 Y58.8165 F120.00
G01 X56.5168 Y58.7974 F120.00
G01 X56.5167 Y56.7031 F120.00
G01 X56.5173 Y56.6835 F120.00
G01 X56.5202 Y56.6477 F120.00
G01 X56.5117 Y56.5844 F120.00
G01 X56.5045 Y56.5187 F120.00
G01 X56.4796 Y56.4505 F120.00
G01 X56.4585 Y56.3879 F120.00
G01 X56.4228 Y56.3320 F120.00
G01 X56.3854 Y56.2700 F120.00
G01 X56.3341 Y56.2185 F120.00
G01 X56.2869 Y56.1687 F120.00
G01 X56.2754 Y56.1592 F120.00
G01 X56.2630 Y56.1476 F120.00
G01 X52.5472 Y52.4317 F120.00
G01 X52.5338 Y52.4174 F120.00
G01 X52.5104 Y52.3900 F120.00
G01 X52.4597 Y52.3513 F120.00
G01 X52.4082 Y52.3100 F120.00
G01 X52.3423 Y52.2793 F120.00
G01 X52.2808 Y52.2488 F120.00
G01 X52.2572 Y52.2400 F120.00
G01 X52.2343 Y52.2291 F120.00
G01 X52.2190 Y52.2204 F120.00
G01 X52.2044 Y52.2106 F120.00
G01 X52.1906 Y52.1997 F120.00
G01 X52.1811 Y52.1912 F120.00
G00 Z2.0000
G00 X50.1596 Y53.2518
G01 F60.00
G01 Z-0.1100
G01 F120.00
G01 X49.9146 Y53.2518 F120.00
G01 X49.9307 Y53.2295 F120.00
G01 X49.9448 Y53.2068 F120.00
G01 X49.9572 Y53.1832 F120.00
G01 X49.9644 Y53.1669 F120.00
G01 X49.9708 Y53.1503 F120.00
G01 X49.9789 Y53.1249 F120.00
G01 X49.9850 Y53.0989 F120.00
G01 X49.9882 Y53.0804 F120.00
G01 X50.1596 Y53.2518 F120.00
G00 Z2.0000
G00 X47.7234 Y53.3881
G01 F60.00
G01 Z-0.1100
G01 F120.00
G01 X47.7378 Y53.3972 F120.00
G01 X47.7234 Y53.4183 F120.00
G01 X47.7234 Y53.3881 F120.00
G00 Z2.0000
G00 X47.7234 Y54.8017
G01 F60.00
G01 Z-0.1100
G01 F120.00
G01 X47.7383 Y54.8234 F120.00
G01 X47.7491 Y54.8372 F120.00
