; generated by PrusaSlicer 2.9.2 on 2025-11-14 at 08:07:53 UTC

; 

; external perimeters extrusion width = 0.42mm
; perimeters extrusion width = 0.44mm
; infill extrusion width = 0.44mm
; solid infill extrusion width = 0.44mm
; top infill extrusion width = 0.40mm
; first layer extrusion width = 0.42mm

M201 X500 Y500 Z100 E5000 ; sets maximum accelerations, mm/sec^2
M203 X500 Y500 Z10 E60 ; sets maximum feedrates, mm / sec
M204 S500 T1000 ; sets acceleration (S) and retract acceleration (R), mm/sec^2
M205 X8.00 Y8.00 Z0.40 E5.00 ; sets the jerk limits, mm/sec
M205 S0 T0 ; sets the minimum extruding and travel feed rate, mm/sec

; printing object BigWheel.stl id:0 copy 0
; stop printing object BigWheel.stl id:0 copy 0

;TYPE:Custom
G90 ; use absolute coordinates
M83 ; extruder relative mode
M104 S150 ; set temporary nozzle temp to prevent oozing during homing
M140 S80 ; set final bed temp
G4 S30 ; allow partial nozzle warmup
G28 ; home all axis
G1 Z50 F240
G1 X2.0 Y10 F3000
M104 S230 ; set final nozzle temp
M190 S80 ; wait for bed temp to stabilize
M109 S230 ; wait for nozzle temp to stabilize
G1 Z0.28 F240
G92 E0
G1 X2.0 Y140 E10 F1500 ; prime the nozzle
G1 X2.3 Y140 F5000
G92 E0
G1 X2.3 Y10 E10 F1200 ; prime the nozzle
G92 E0
G21 ; set units to millimeters
G90 ; use absolute coordinates
M83 ; use relative distances for extrusion
; Filament gcode
M107
;LAYER_CHANGE
;Z:0.4
;HEIGHT:0.4
G1 E-1 F3600
G1 Z.4 F10200
G1 X76.564 Y73.006
G1 Z.4
G1 E1 F2400
M204 S500
;TYPE:Skirt/Brim
;WIDTH:0.42
G1 F1200
G1 X79.226 Y70.513 E.20267
G1 X82.047 Y68.197 E.20283
G1 X85.02 Y66.066 E.20327
G1 X86.243 Y65.567 E.0734
G1 X87.889 Y64.551 E.10749
G1 X90.717 Y63.039 E.17821
G1 X92.477 Y62.235 E.10753
G1 X93.571 Y61.496 E.07337
G1 X96.984 Y60.212 E.20264
G1 X100.467 Y59.154 E.20229
G1 X104.039 Y58.321 E.20383
G1 X105.359 Y58.327 E.07335
G1 X107.269 Y58.018 E.10752
G1 X110.461 Y57.704 E.17824
G1 X112.394 Y57.634 E.10749
G1 X113.687 Y57.37 E.07334
G1 X116.472 Y57.461 E.15485
G1 X120.758 Y57.82 E.23901
G1 X124.569 Y58.441 E.21457
G1 X125.791 Y58.954 E.07365
G1 X127.674 Y59.399 E.10752
G1 X130.743 Y60.33 E.17822
G1 X132.555 Y61.006 E.10747
G1 X133.852 Y61.257 E.07341
G1 X137.173 Y62.762 E.20262
G1 X140.393 Y64.482 E.20287
G1 X143.499 Y66.414 E.20327
G1 X144.428 Y67.352 E.07336
G1 X145.997 Y68.484 E.10751
G1 X148.476 Y70.518 E.1782
G1 X149.892 Y71.836 E.1075
G1 X150.994 Y72.564 E.0734
G1 X153.487 Y75.226 E.20267
G1 X155.803 Y78.047 E.20283
G1 X157.933 Y81.02 E.20324
G1 X158.433 Y82.243 E.07342
G1 X159.449 Y83.889 E.10749
G1 X160.961 Y86.717 E.17821
G1 X161.765 Y88.477 E.10753
G1 X162.504 Y89.571 E.07337
G1 X163.788 Y92.984 E.20264
G1 X164.849 Y96.477 E.20287
G1 X165.679 Y100.039 E.20325
G1 X165.673 Y101.359 E.07335
G1 X165.982 Y103.269 E.10752
G1 X166.296 Y106.461 E.17824
G1 X166.366 Y108.394 E.10749
G1 X166.63 Y109.687 E.07334
G1 X166.51 Y113.332 E.20267
G1 X166.153 Y116.965 E.20286
G1 X165.558 Y120.574 E.20326
G1 X165.046 Y121.791 E.07337
G1 X164.601 Y123.674 E.10752
G1 X163.67 Y126.743 E.17822
G1 X162.994 Y128.556 E.10753
G1 X162.743 Y129.852 E.07336
G1 X161.238 Y133.173 E.20262
G1 X159.512 Y136.403 E.20351
G1 X157.586 Y139.499 E.20262
G1 X156.648 Y140.428 E.07336
G1 X155.516 Y141.997 E.10751
G1 X153.482 Y144.476 E.1782
G1 X152.164 Y145.892 E.1075
G1 X151.436 Y146.994 E.0734
G1 X148.774 Y149.487 E.20267
G1 X145.944 Y151.81 E.20346
G1 X142.98 Y153.934 E.20264
G1 X141.757 Y154.433 E.0734
G1 X140.111 Y155.449 E.10749
G1 X137.283 Y156.961 E.17821
G1 X135.524 Y157.765 E.10748
G1 X134.429 Y158.504 E.07341
G1 X131.016 Y159.788 E.20264
G1 X127.523 Y160.849 E.20287
G1 X123.961 Y161.679 E.20325
G1 X122.641 Y161.673 E.07335
G1 X120.731 Y161.982 E.10752
G1 X117.539 Y162.296 E.17824
G1 X115.606 Y162.366 E.10749
G1 X114.313 Y162.63 E.07334
G1 X110.668 Y162.51 E.20267
G1 X107.035 Y162.153 E.20286
G1 X103.426 Y161.558 E.20326
G1 X102.209 Y161.046 E.07337
G1 X100.326 Y160.601 E.10752
G1 X97.257 Y159.67 E.17822
G1 X95.444 Y158.994 E.10753
G1 X94.148 Y158.743 E.07336
G1 X90.827 Y157.238 E.20262
G1 X87.597 Y155.512 E.20351
G1 X84.501 Y153.586 E.20262
G1 X83.572 Y152.648 E.07336
G1 X82.003 Y151.516 E.10751
G1 X79.524 Y149.482 E.1782
G1 X78.108 Y148.164 E.1075
G1 X77.006 Y147.436 E.0734
G1 X74.513 Y144.774 E.20267
G1 X72.204 Y141.962 E.2022
G1 X70.067 Y138.98 E.20387
G1 X69.567 Y137.757 E.07342
G1 X68.551 Y136.111 E.10749
G1 X67.039 Y133.283 E.17821
G1 X66.235 Y131.523 E.10753
G1 X65.496 Y130.429 E.07337
G1 X64.212 Y127.016 E.20264
G1 X63.154 Y123.534 E.20223
G1 X62.32 Y119.96 E.20395
G1 X62.328 Y118.633 E.07374
G1 X62.011 Y116.657 E.11121
G1 X61.704 Y113.539 E.17411
G1 X61.634 Y111.606 E.10749
G1 X61.37 Y110.313 E.07334
G1 X61.49 Y106.668 E.20267
G1 X61.846 Y103.046 E.20225
G1 X62.442 Y99.426 E.20387
G1 X62.954 Y98.209 E.07337
G1 X63.399 Y96.326 E.10752
G1 X64.33 Y93.257 E.17822
G1 X65.006 Y91.445 E.10747
G1 X65.257 Y90.148 E.07341
G1 X66.762 Y86.827 E.20262
G1 X68.488 Y83.597 E.20351
G1 X70.414 Y80.501 E.20262
G1 X71.352 Y79.572 E.07336
G1 X72.484 Y78.003 E.10751
G1 X74.518 Y75.524 E.1782
G1 X75.836 Y74.108 E.1075
G1 X76.531 Y73.056 E.07007
G1 X76.807 Y73.236 F10200
G1 F1200
G1 X79.45 Y70.761 E.20122
G1 X82.247 Y68.465 E.20109
G1 X85.199 Y66.35 E.2018
G1 X86.394 Y65.866 E.07165
G1 X88.051 Y64.843 E.10822
G1 X90.87 Y63.336 E.17763
G1 X92.641 Y62.527 E.1082
G1 X93.707 Y61.802 E.07164
G1 X97.096 Y60.526 E.20124
G1 X100.558 Y59.476 E.20104
G1 X104.095 Y58.651 E.20183
G1 X105.385 Y58.662 E.07169
G1 X107.307 Y58.35 E.10821
G1 X110.488 Y58.037 E.17762
G1 X112.434 Y57.967 E.10821
G1 X113.697 Y57.705 E.07168
G1 X117.528 Y57.837 E.21302
G1 X120.72 Y58.152 E.17824
G1 X124.495 Y58.768 E.21255
G1 X125.686 Y59.272 E.07187
G1 X127.582 Y59.72 E.10826
G1 X130.641 Y60.648 E.17764
G1 X132.466 Y61.329 E.10825
G1 X133.732 Y61.57 E.07162
G1 X137.03 Y63.064 E.2012
G1 X140.221 Y64.769 E.20105
G1 X143.306 Y66.687 E.20187
G1 X144.21 Y67.606 E.07164
G1 X145.789 Y68.745 E.10819
G1 X148.26 Y70.773 E.17764
G1 X149.686 Y72.1 E.10825
G1 X150.764 Y72.807 E.07164
G1 X153.239 Y75.45 E.20122
G1 X155.534 Y78.246 E.20101
G1 X157.65 Y81.198 E.20184
G1 X158.134 Y82.394 E.0717
G1 X159.157 Y84.051 E.10822
G1 X160.664 Y86.87 E.17763
G1 X161.473 Y88.641 E.1082
G1 X162.198 Y89.707 E.07164
G1 X163.474 Y93.096 E.20124
G1 X164.524 Y96.558 E.20104
G1 X165.349 Y100.095 E.20183
G1 X165.339 Y101.385 E.07169
G1 X165.65 Y103.307 E.1082
G1 X165.963 Y106.488 E.17762
G1 X166.033 Y108.434 E.10821
G1 X166.295 Y109.697 E.07168
G1 X166.177 Y113.316 E.20122
G1 X165.821 Y116.927 E.20164
G1 X165.231 Y120.5 E.20124
G1 X164.728 Y121.687 E.07164
G1 X164.28 Y123.582 E.10821
G1 X163.352 Y126.641 E.17764
G1 X162.671 Y128.466 E.10825
G1 X162.43 Y129.732 E.07162
G1 X160.936 Y133.03 E.2012
G1 X159.225 Y136.231 E.2017
G1 X157.313 Y139.306 E.20122
G1 X156.394 Y140.21 E.07164
G1 X155.255 Y141.789 E.10819
G1 X153.227 Y144.26 E.17764
G1 X151.9 Y145.686 E.10825
G1 X151.193 Y146.764 E.07164
G1 X148.55 Y149.239 E.20122
G1 X145.745 Y151.541 E.20165
G1 X142.801 Y153.65 E.20125
G1 X141.606 Y154.134 E.07165
G1 X139.949 Y155.157 E.10822
G1 X137.13 Y156.664 E.17763
G1 X135.359 Y157.473 E.1082
G1 X134.293 Y158.198 E.07164
G1 X130.904 Y159.474 E.20124
G1 X127.442 Y160.524 E.20104
G1 X123.905 Y161.349 E.20183
G1 X122.615 Y161.339 E.07169
G1 X120.693 Y161.65 E.1082
G1 X117.512 Y161.963 E.17762
G1 X115.566 Y162.033 E.10821
G1 X114.303 Y162.295 E.07168
G1 X110.684 Y162.177 E.20122
G1 X107.073 Y161.821 E.20164
G1 X103.5 Y161.231 E.20124
G1 X102.313 Y160.728 E.07164
G1 X100.418 Y160.28 E.10821
G1 X97.359 Y159.352 E.17764
G1 X95.534 Y158.671 E.10825
G1 X94.268 Y158.43 E.07162
G1 X90.97 Y156.936 E.2012
G1 X87.769 Y155.225 E.2017
G1 X84.694 Y153.313 E.20122
G1 X83.79 Y152.394 E.07164
G1 X82.211 Y151.255 E.10819
G1 X79.74 Y149.227 E.17764
G1 X78.314 Y147.9 E.10825
G1 X77.236 Y147.193 E.07164
G1 X74.761 Y144.55 E.20122
G1 X72.473 Y141.763 E.20038
G1 X70.35 Y138.802 E.20247
G1 X69.866 Y137.606 E.0717
G1 X68.843 Y135.949 E.10822
G1 X67.336 Y133.13 E.17763
G1 X66.527 Y131.359 E.1082
G1 X65.802 Y130.293 E.07164
G1 X64.526 Y126.904 E.20124
G1 X63.476 Y123.442 E.20104
G1 X62.65 Y119.904 E.2019
G1 X62.662 Y118.608 E.07202
G1 X62.343 Y116.619 E.11194
G1 X62.037 Y113.512 E.17349
G1 X61.967 Y111.566 E.10821
G1 X61.705 Y110.303 E.07168
G1 X61.823 Y106.684 E.20122
G1 X62.176 Y103.095 E.20041
G1 X62.769 Y99.5 E.20248
G1 X63.272 Y98.313 E.07164
G1 X63.72 Y96.418 E.10821
G1 X64.648 Y93.359 E.17764
G1 X65.329 Y91.534 E.10825
G1 X65.57 Y90.268 E.07162
G1 X67.064 Y86.97 E.2012
G1 X68.775 Y83.769 E.2017
G1 X70.687 Y80.694 E.20122
G1 X71.606 Y79.79 E.07164
G1 X72.745 Y78.211 E.10819
G1 X74.773 Y75.74 E.17764
G1 X76.1 Y74.314 E.10825
G1 X76.774 Y73.286 E.06831
G1 X77.051 Y73.466 F10200
G1 F1200
G1 X79.675 Y71.009 E.19976
G1 X82.446 Y68.734 E.19924
G1 X85.377 Y66.633 E.2004
G1 X86.545 Y66.166 E.0699
G1 X88.213 Y65.135 E.10897
G1 X91.023 Y63.633 E.17706
G1 X92.807 Y62.819 E.10897
G1 X93.844 Y62.107 E.0699
G1 X97.209 Y60.841 E.19979
G1 X100.65 Y59.797 E.19983
G1 X104.151 Y58.981 E.19977
G1 X105.409 Y58.996 E.06991
G1 X107.345 Y58.682 E.10899
G1 X110.516 Y58.37 E.17707
G1 X112.475 Y58.3 E.10893
G1 X113.706 Y58.04 E.06992
G1 X116.449 Y58.129 E.15251
G1 X120.682 Y58.484 E.23606
G1 X124.421 Y59.094 E.21053
G1 X125.581 Y59.591 E.07013
G1 X127.49 Y60.042 E.10901
G1 X130.539 Y60.966 E.17705
G1 X132.376 Y61.652 E.10897
G1 X133.613 Y61.882 E.06992
G1 X136.888 Y63.366 E.19981
G1 X140.059 Y65.061 E.19981
G1 X143.112 Y66.96 E.1998
G1 X143.991 Y67.86 E.06991
G1 X145.581 Y69.007 E.10895
G1 X148.044 Y71.028 E.17705
G1 X149.479 Y72.365 E.10899
G1 X150.534 Y73.051 E.06993
G1 X152.991 Y75.674 E.19972
G1 X155.266 Y78.445 E.19924
G1 X157.366 Y81.376 E.20037
G1 X157.834 Y82.545 E.06997
G1 X158.865 Y84.213 E.10897
G1 X160.367 Y87.023 E.17706
G1 X161.181 Y88.807 E.10897
G1 X161.893 Y89.844 E.0699
G1 X163.159 Y93.209 E.19979
G1 X164.203 Y96.65 E.19983
G1 X165.019 Y100.151 E.19977
G1 X165.004 Y101.409 E.06991
G1 X165.318 Y103.345 E.10899
G1 X165.63 Y106.516 E.17707
G1 X165.7 Y108.475 E.10893
G1 X165.96 Y109.706 E.06992
G1 X165.843 Y113.299 E.19977
G1 X165.49 Y116.878 E.19985
G1 X164.905 Y120.425 E.19977
G1 X164.409 Y121.581 E.0699
G1 X163.958 Y123.49 E.10901
G1 X163.034 Y126.539 E.17705
G1 X162.348 Y128.376 E.10897
G1 X162.118 Y129.613 E.06992
G1 X160.634 Y132.888 E.19981
G1 X158.939 Y136.059 E.19981
G1 X157.04 Y139.112 E.1998
G1 X156.14 Y139.991 E.06991
G1 X154.993 Y141.581 E.10895
G1 X152.972 Y144.044 E.17705
G1 X151.635 Y145.479 E.10899
G1 X150.949 Y146.534 E.06993
G1 X148.325 Y148.991 E.19976
G1 X145.546 Y151.273 E.19983
G1 X142.623 Y153.367 E.19981
G1 X141.455 Y153.834 E.0699
G1 X139.787 Y154.865 E.10897
G1 X136.977 Y156.367 E.17706
G1 X135.193 Y157.181 E.10897
G1 X134.156 Y157.893 E.0699
G1 X130.791 Y159.159 E.19979
G1 X127.35 Y160.203 E.19983
G1 X123.849 Y161.019 E.19977
G1 X122.591 Y161.004 E.06991
G1 X120.655 Y161.318 E.10899
G1 X117.484 Y161.63 E.17707
G1 X115.525 Y161.7 E.10893
G1 X114.294 Y161.96 E.06992
G1 X110.701 Y161.843 E.19977
G1 X107.122 Y161.49 E.19985
G1 X103.575 Y160.905 E.19977
G1 X102.419 Y160.409 E.0699
G1 X100.51 Y159.958 E.10901
G1 X97.461 Y159.034 E.17705
G1 X95.624 Y158.348 E.10897
G1 X94.387 Y158.118 E.06992
G1 X91.112 Y156.634 E.19981
G1 X87.941 Y154.939 E.19981
G1 X84.888 Y153.04 E.1998
G1 X84.009 Y152.14 E.06991
G1 X82.419 Y150.993 E.10895
G1 X79.956 Y148.972 E.17705
G1 X78.521 Y147.635 E.10899
G1 X77.466 Y146.949 E.06993
G1 X75.009 Y144.326 E.19972
G1 X72.741 Y141.563 E.19865
G1 X70.634 Y138.624 E.20096
G1 X70.166 Y137.455 E.06997
G1 X69.135 Y135.787 E.10897
G1 X67.633 Y132.977 E.17706
G1 X66.819 Y131.193 E.10897
G1 X66.107 Y130.156 E.0699
G1 X64.841 Y126.791 E.19979
G1 X63.797 Y123.35 E.19983
G1 X62.98 Y119.848 E.19984
G1 X62.997 Y118.584 E.07025
G1 X62.675 Y116.582 E.11268
G1 X62.37 Y113.484 E.17299
G1 X62.3 Y111.525 E.10893
G1 X62.04 Y110.294 E.06992
G1 X62.157 Y106.701 E.19977
G1 X62.508 Y103.133 E.19923
G1 X63.095 Y99.575 E.20039
G1 X63.591 Y98.419 E.0699
G1 X64.042 Y96.51 E.10901
G1 X64.966 Y93.461 E.17705
G1 X65.652 Y91.624 E.10897
G1 X65.882 Y90.387 E.06992
G1 X67.366 Y87.112 E.19981
G1 X69.061 Y83.941 E.19981
G1 X70.96 Y80.888 E.1998
G1 X71.86 Y80.009 E.06991
G1 X73.007 Y78.419 E.10895
G1 X75.028 Y75.956 E.17705
G1 X76.365 Y74.521 E.10899
G1 X77.018 Y73.516 E.0666
G1 X77.294 Y73.696 F10200
G1 F1200
G1 X79.899 Y71.256 E.19835
G1 X82.645 Y69.002 E.19742
G1 X85.554 Y66.917 E.19889
G1 X86.695 Y66.466 E.06818
G1 X88.375 Y65.427 E.10977
G1 X91.176 Y63.93 E.17649
G1 X92.973 Y63.11 E.10977
G1 X93.981 Y62.413 E.0681
G1 X97.321 Y61.156 E.19832
G1 X100.731 Y60.121 E.19803
G1 X104.207 Y59.311 E.19834
G1 X105.433 Y59.331 E.06814
G1 X107.383 Y59.014 E.10979
G1 X110.543 Y58.703 E.17645
G1 X112.517 Y58.633 E.10977
G1 X113.716 Y58.374 E.06817
G1 X117.472 Y58.504 E.20885
G1 X120.644 Y58.816 E.17712
G1 X124.347 Y59.421 E.20851
G1 X125.475 Y59.909 E.0683
G1 X127.398 Y60.363 E.1098
G1 X130.437 Y61.285 E.17648
G1 X132.287 Y61.976 E.10974
G1 X133.494 Y62.195 E.06817
G1 X136.745 Y63.668 E.19834
G1 X139.887 Y65.348 E.198
G1 X142.918 Y67.232 E.19832
G1 X143.771 Y68.114 E.06819
G1 X145.373 Y69.268 E.10972
G1 X147.828 Y71.283 E.1765
G1 X149.274 Y72.63 E.10982
G1 X150.304 Y73.294 E.0681
G1 X152.744 Y75.899 E.19835
G1 X154.997 Y78.644 E.19734
G1 X157.083 Y81.554 E.19897
G1 X157.534 Y82.695 E.06818
G1 X158.573 Y84.375 E.10977
G1 X160.07 Y87.176 E.17649
G1 X160.89 Y88.973 E.10977
G1 X161.587 Y89.981 E.0681
G1 X162.844 Y93.321 E.19832
G1 X163.879 Y96.731 E.19803
G1 X164.689 Y100.207 E.19834
G1 X164.669 Y101.433 E.06814
G1 X164.986 Y103.383 E.10979
G1 X165.297 Y106.543 E.17645
G1 X165.367 Y108.517 E.10977
G1 X165.626 Y109.716 E.06817
G1 X165.509 Y113.283 E.19833
G1 X165.16 Y116.829 E.19801
G1 X164.578 Y120.35 E.19832
G1 X164.091 Y121.475 E.06812
G1 X163.637 Y123.398 E.1098
G1 X162.715 Y126.437 E.17648
G1 X162.024 Y128.287 E.10974
G1 X161.805 Y129.494 E.06817
G1 X160.332 Y132.745 E.19834
G1 X158.652 Y135.887 E.198
G1 X156.768 Y138.918 E.19832
G1 X155.886 Y139.771 E.06819
G1 X154.732 Y141.373 E.10972
G1 X152.717 Y143.828 E.1765
G1 X151.37 Y145.274 E.10982
G1 X150.706 Y146.304 E.0681
G1 X148.101 Y148.744 E.19835
G1 X145.347 Y151.004 E.19798
G1 X142.446 Y153.083 E.19833
G1 X141.305 Y153.534 E.06818
G1 X139.625 Y154.573 E.10977
G1 X136.824 Y156.07 E.17649
G1 X135.027 Y156.89 E.10977
G1 X134.019 Y157.587 E.0681
G1 X130.679 Y158.844 E.19832
G1 X127.269 Y159.879 E.19803
G1 X123.793 Y160.689 E.19834
G1 X122.567 Y160.669 E.06814
G1 X120.617 Y160.986 E.10979
G1 X117.457 Y161.297 E.17645
G1 X115.483 Y161.367 E.10977
G1 X114.284 Y161.626 E.06817
G1 X110.717 Y161.509 E.19833
G1 X107.171 Y161.16 E.19801
G1 X103.65 Y160.578 E.19832
G1 X102.525 Y160.091 E.06812
G1 X100.602 Y159.637 E.1098
G1 X97.563 Y158.715 E.17648
G1 X95.713 Y158.024 E.10974
G1 X94.506 Y157.805 E.06817
G1 X91.255 Y156.332 E.19834
G1 X88.113 Y154.652 E.198
G1 X85.082 Y152.768 E.19832
G1 X84.229 Y151.886 E.06819
G1 X82.627 Y150.732 E.10972
G1 X80.172 Y148.717 E.1765
G1 X78.726 Y147.37 E.10982
G1 X77.696 Y146.706 E.0681
G1 X75.256 Y144.101 E.19835
G1 X73.003 Y141.356 E.19734
G1 X70.917 Y138.446 E.19897
G1 X70.466 Y137.305 E.06818
G1 X69.427 Y135.625 E.10977
G1 X67.93 Y132.824 E.17649
G1 X67.11 Y131.027 E.10977
G1 X66.413 Y130.019 E.0681
G1 X65.156 Y126.679 E.19832
G1 X64.121 Y123.269 E.19803
G1 X63.311 Y119.792 E.19839
G1 X63.332 Y118.56 E.06847
G1 X63.007 Y116.544 E.11348
G1 X62.703 Y113.457 E.17238
G1 X62.633 Y111.483 E.10977
G1 X62.374 Y110.284 E.06817
G1 X62.491 Y106.717 E.19833
G1 X62.839 Y103.182 E.19739
G1 X63.422 Y99.65 E.19893
G1 X63.909 Y98.525 E.06812
G1 X64.363 Y96.602 E.1098
G1 X65.285 Y93.563 E.17648
G1 X65.976 Y91.713 E.10974
G1 X66.195 Y90.506 E.06817
G1 X67.668 Y87.255 E.19834
G1 X69.348 Y84.113 E.198
G1 X71.232 Y81.082 E.19832
G1 X72.114 Y80.229 E.06819
G1 X73.268 Y78.627 E.10972
G1 X75.283 Y76.172 E.1765
G1 X76.63 Y74.727 E.10978
G1 X77.262 Y73.746 E.06485
G1 X77.538 Y73.925 F10200
G1 F1200
G1 X80.123 Y71.504 E.19681
G1 X82.853 Y69.264 E.19624
G1 X85.732 Y67.201 E.19682
G1 X86.844 Y66.766 E.06635
