; generated by PrusaSlicer 2.9.2 on 2025-11-13 at 16:17:28 UTC

; 

; external perimeters extrusion width = 0.42mm
; perimeters extrusion width = 0.44mm
; infill extrusion width = 0.44mm
; solid infill extrusion width = 0.44mm
; top infill extrusion width = 0.40mm
; first layer extrusion width = 0.42mm

; external perimeters extrusion width = 0.42mm
; perimeters extrusion width = 0.44mm
; infill extrusion width = 0.44mm
; solid infill extrusion width = 0.44mm
; top infill extrusion width = 0.40mm
; first layer extrusion width = 0.42mm

M201 X500 Y500 Z100 E5000 ; sets maximum accelerations, mm/sec^2
M203 X500 Y500 Z10 E60 ; sets maximum feedrates, mm / sec
M204 S500 T1000 ; sets acceleration (S) and retract acceleration (R), mm/sec^2
M205 X8.00 Y8.00 Z0.40 E5.00 ; sets the jerk limits, mm/sec
M205 S0 T0 ; sets the minimum extruding and travel feed rate, mm/sec

; printing object MotorCap.stl id:1 copy 0
; stop printing object MotorCap.stl id:1 copy 0
; printing object MotorCap.stl id:1 copy 1
; stop printing object MotorCap.stl id:1 copy 1
; printing object BoltSpacer.stl id:0 copy 0
; stop printing object BoltSpacer.stl id:0 copy 0
; printing object BoltSpacer.stl id:0 copy 1
; stop printing object BoltSpacer.stl id:0 copy 1

;TYPE:Custom
G90 ; use absolute coordinates
M83 ; extruder relative mode
M104 S150 ; set temporary nozzle temp to prevent oozing during homing
M140 S80 ; set final bed temp
G4 S30 ; allow partial nozzle warmup
G28 ; home all axis
G1 Z50 F240
G1 X2.0 Y10 F3000
M104 S230 ; set final nozzle temp
M190 S80 ; wait for bed temp to stabilize
M109 S230 ; wait for nozzle temp to stabilize
G1 Z0.28 F240
G92 E0
G1 X2.0 Y140 E10 F1500 ; prime the nozzle
G1 X2.3 Y140 F5000
G92 E0
G1 X2.3 Y10 E10 F1200 ; prime the nozzle
G92 E0
G21 ; set units to millimeters
G90 ; use absolute coordinates
M83 ; use relative distances for extrusion
; Filament gcode
M107
;LAYER_CHANGE
;Z:0.4
;HEIGHT:0.4
G1 E-1 F3600
G1 Z.4 F10200
G1 X76.677 Y66.633
G1 Z.4
G1 E1 F2400
M204 S500
;TYPE:Skirt/Brim
;WIDTH:0.42
G1 F1200
G1 X77.428 Y65.872 E.05941
G1 X78.968 Y64.886 E.10162
G1 X80.734 Y64.379 E.1021
G1 X106.666 Y64.345 E1.44107
G1 X108.706 Y64.911 E.11765
G1 X110.087 Y65.79 E.09097
G1 X111.336 Y67.121 E.10143
G1 X112.009 Y68.348 E.07777
G1 X112.454 Y70.058 E.09819
G1 X112.47 Y74.673 E.25646
G1 X129.212 Y74.708 E.93037
G1 X130.797 Y75.108 E.09084
G1 X132.227 Y75.907 E.09103
G1 X133.467 Y77.099 E.09558
G1 X134.34 Y78.507 E.09206
G1 X134.843 Y80.309 E.10397
G1 X134.884 Y102.592 E1.23829
G1 X134.624 Y103.702 E.06335
G1 X134.64 Y125.705 E1.22273
G1 X134.263 Y127.389 E.0959
G1 X133.403 Y128.968 E.09992
G1 X132.181 Y130.244 E.09818
G1 X130.752 Y131.11 E.09285
G1 X129.07 Y131.587 E.09716
G1 X112.498 Y131.63 E.92092
G1 X112.45 Y137.418 E.32166
G1 X111.917 Y139.109 E.09853
G1 X110.96 Y140.554 E.09631
G1 X109.603 Y141.762 E.10096
G1 X107.764 Y142.607 E.11247
G1 X106.444 Y142.814 E.07425
G1 X85.616 Y142.814 E1.15743
G1 X83.932 Y142.438 E.09589
G1 X82.356 Y141.579 E.09974
G1 X81.053 Y140.331 E.10026
G1 X80.074 Y138.584 E.11129
G1 X79.728 Y137.166 E.08111
G1 X79.688 Y124.062 E.7282
G1 X80.085 Y122.364 E.0969
G1 X79.715 Y120.966 E.08036
G1 X79.705 Y118.506 E.13671
G1 X78.928 Y118.227 E.04588
G1 X77.843 Y117.577 E.07029
G1 X76.421 Y116.152 E.11187
G1 X75.622 Y114.715 E.09137
G1 X75.215 Y113.085 E.09336
G1 X75.275 Y103.267 E.54561
G1 X75.668 Y101.965 E.07558
G1 X76.319 Y100.788 E.07475
G1 X77.637 Y99.382 E.10709
G1 X78.98 Y98.546 E.08791
G1 X79.647 Y98.325 E.03905
G1 X79.647 Y90.363 E.44246
G1 X80.072 Y88.815 E.08921
G1 X79.673 Y87.32 E.08599
G1 X79.663 Y84.841 E.13776
G1 X78.944 Y84.607 E.04202
G1 X77.557 Y83.737 E.09098
G1 X76.357 Y82.468 E.09706
G1 X75.525 Y80.928 E.09727
G1 X75.145 Y79.223 E.09707
G1 X75.281 Y69.399 E.54598
G1 X76.046 Y67.472 E.11521
G1 X76.64 Y66.681 E.05497
G1 X76.908 Y66.882 F10200
G1 F1200
G1 X76.937 Y66.843 E.0027
G1 X77.652 Y66.12 E.05651
G1 X79.126 Y65.181 E.09712
G1 X80.803 Y64.707 E.09684
G1 X92.08 Y64.67 E.62668
G1 X106.644 Y64.679 E.80933
G1 X108.549 Y65.207 E.10985
G1 X109.859 Y66.035 E.08612
G1 X111.054 Y67.301 E.09674
G1 X111.69 Y68.453 E.07313
G1 X112.125 Y70.122 E.09585
G1 X112.137 Y75.007 E.27146
G1 X129.151 Y75.037 E.94548
G1 X130.654 Y75.411 E.08607
G1 X132.044 Y76.188 E.08849
G1 X133.22 Y77.324 E.09086
G1 X134.043 Y78.662 E.08729
G1 X134.509 Y80.332 E.09635
G1 X134.55 Y102.572 E1.2359
G1 X134.285 Y103.682 E.06342
G1 X134.305 Y125.686 E1.22278
G1 X133.943 Y127.292 E.09149
G1 X133.121 Y128.787 E.09481
G1 X131.956 Y129.996 E.0933
G1 X130.6 Y130.812 E.08795
G1 X129.002 Y131.26 E.09223
G1 X112.167 Y131.297 E.93554
G1 X112.116 Y137.39 E.33861
G1 X111.606 Y138.984 E.093
G1 X110.694 Y140.35 E.09127
G1 X109.401 Y141.495 E.09598
G1 X107.647 Y142.293 E.10709
G1 X106.431 Y142.48 E.06837
G1 X85.635 Y142.48 E1.15565
G1 X84.029 Y142.117 E.0915
G1 X82.537 Y141.298 E.09458
G1 X81.303 Y140.108 E.09527
G1 X80.378 Y138.442 E.10589
G1 X80.058 Y137.108 E.07623
G1 X80.023 Y124.081 E.72392
G1 X80.43 Y122.358 E.09838
G1 X80.049 Y120.942 E.08149
G1 X80.038 Y118.269 E.14854
G1 X79.085 Y117.931 E.05619
G1 X78.033 Y117.301 E.06814
G1 X76.675 Y115.934 E.10708
G1 X75.925 Y114.573 E.08636
G1 X75.545 Y113.025 E.08858
G1 X75.602 Y103.34 E.53821
G1 X75.97 Y102.109 E.0714
G1 X76.577 Y101 E.07026
G1 X77.832 Y99.654 E.10227
G1 X79.139 Y98.841 E.08554
G1 X79.981 Y98.569 E.04917
G1 X79.981 Y90.386 E.45474
G1 X80.419 Y88.816 E.09058
G1 X80.007 Y87.297 E.08746
G1 X79.996 Y84.595 E.15015
G1 X79.102 Y84.312 E.05211
G1 X77.784 Y83.491 E.08629
G1 X76.64 Y82.288 E.09225
G1 X75.846 Y80.832 E.09216
G1 X75.48 Y79.207 E.09256
G1 X75.603 Y69.493 E.53986
G1 X76.327 Y67.654 E.10983
G1 X76.872 Y66.93 E.05036
G1 X77.139 Y67.13 F10200
G1 F1200
G1 X77.197 Y67.053 E.00536
G1 X77.876 Y66.369 E.05356
G1 X79.284 Y65.477 E.09262
G1 X80.871 Y65.035 E.09155
G1 X106.62 Y65.013 E1.4309
G1 X108.434 Y65.522 E.1047
G1 X109.661 Y66.305 E.08089
G1 X110.796 Y67.514 E.09215
G1 X111.387 Y68.595 E.06846
G1 X111.791 Y70.144 E.08896
G1 X111.803 Y75.341 E.2888
G1 X129.092 Y75.366 E.96077
G1 X130.512 Y75.714 E.08125
G1 X131.828 Y76.443 E.0836
G1 X132.972 Y77.55 E.08846
G1 X133.745 Y78.816 E.08243
G1 X134.175 Y80.355 E.0888
G1 X134.215 Y102.553 E1.23357
G1 X133.945 Y103.662 E.06343
G1 X133.971 Y125.667 E1.22284
G1 X133.622 Y127.195 E.0871
G1 X132.84 Y128.605 E.0896
G1 X131.732 Y129.747 E.08842
G1 X130.448 Y130.513 E.08309
G1 X128.935 Y130.932 E.08724
G1 X111.835 Y130.963 E.95026
G1 X111.782 Y137.361 E.35555
G1 X111.296 Y138.858 E.08746
G1 X110.429 Y140.145 E.08623
G1 X109.199 Y141.227 E.09103
G1 X107.574 Y141.966 E.0992
G1 X106.418 Y142.146 E.06501
G1 X85.654 Y142.146 E1.15387
G1 X84.127 Y141.797 E.08704
G1 X82.719 Y141.016 E.08947
G1 X81.554 Y139.886 E.09019
G1 X80.681 Y138.302 E.10051
G1 X80.387 Y137.05 E.07147
G1 X80.357 Y124.1 E.71965
G1 X80.786 Y122.394 E.09776
G1 X80.383 Y120.919 E.08497
G1 X80.372 Y118.032 E.16043
G1 X79.242 Y117.636 E.06654
G1 X78.223 Y117.026 E.066
G1 X76.929 Y115.716 E.10232
G1 X76.229 Y114.433 E.08122
G1 X75.874 Y112.967 E.08382
G1 X75.929 Y103.412 E.53099
G1 X76.272 Y102.253 E.06717
G1 X76.837 Y101.211 E.06587
G1 X78.028 Y99.926 E.09736
G1 X79.297 Y99.136 E.08307
G1 X80.315 Y98.815 E.05932
G1 X80.315 Y90.41 E.46707
G1 X80.766 Y88.817 E.092
G1 X80.341 Y87.273 E.08899
G1 X80.329 Y84.347 E.1626
G1 X79.259 Y84.016 E.06224
G1 X78.01 Y83.245 E.08157
G1 X76.922 Y82.108 E.08745
G1 X76.166 Y80.734 E.08715
G1 X75.814 Y79.191 E.08795
G1 X75.926 Y69.586 E.53379
G1 X76.608 Y67.837 E.10432
G1 X77.103 Y67.178 E.0458
G1 X77.369 Y67.378 F10200
G1 F1200
G1 X77.442 Y67.28 E.00679
G1 X78.1 Y66.618 E.05187
G1 X79.398 Y65.792 E.0855
G1 X80.939 Y65.363 E.08889
G1 X92.107 Y65.339 E.62062
G1 X106.597 Y65.348 E.80522
G1 X108.318 Y65.836 E.09941
G1 X109.462 Y66.574 E.07565
G1 X110.536 Y67.726 E.08752
G1 X111.084 Y68.736 E.06386
G1 X111.457 Y70.166 E.08213
G1 X111.47 Y75.674 E.30609
G1 X129.033 Y75.696 E.97599
G1 X130.371 Y76.018 E.07648
G1 X131.612 Y76.699 E.07866
G1 X132.724 Y77.775 E.08599
G1 X133.448 Y78.969 E.0776
G1 X133.841 Y80.378 E.08129
G1 X133.881 Y102.532 E1.23112
G1 X133.606 Y103.643 E.0636
G1 X133.637 Y125.648 E1.22284
G1 X133.302 Y127.096 E.08259
G1 X132.559 Y128.422 E.08447
G1 X131.509 Y129.497 E.08351
G1 X130.298 Y130.214 E.07821
G1 X128.869 Y130.603 E.0823
G1 X111.504 Y130.629 E.96499
G1 X111.448 Y137.332 E.3725
G1 X110.986 Y138.731 E.08187
G1 X110.165 Y139.939 E.08117
G1 X108.998 Y140.959 E.08613
G1 X107.458 Y141.652 E.09384
G1 X106.406 Y141.812 E.05913
G1 X85.673 Y141.812 E1.15215
G1 X84.226 Y141.477 E.08254
G1 X82.902 Y140.736 E.08432
G1 X81.806 Y139.665 E.08516
G1 X80.986 Y138.163 E.0951
G1 X80.717 Y136.994 E.06666
G1 X80.691 Y124.12 E.71542
G1 X81.142 Y122.426 E.09742
G1 X80.717 Y120.895 E.0883
G1 X80.705 Y117.724 E.17622
G1 X80.419 Y117.694 E.01598
G1 X79.398 Y117.34 E.06005
G1 X78.413 Y116.75 E.06381
G1 X77.184 Y115.499 E.09745
G1 X76.534 Y114.294 E.07608
G1 X76.204 Y112.909 E.07912
G1 X76.256 Y103.483 E.52382
G1 X76.575 Y102.396 E.06295
G1 X77.121 Y101.389 E.06366
G1 X78.257 Y100.171 E.09256
G1 X79.454 Y99.432 E.07817
G1 X80.649 Y99.062 E.06952
G1 X80.649 Y90.434 E.47947
G1 X81.113 Y88.819 E.09338
G1 X80.675 Y87.249 E.09058
G1 X80.663 Y84.098 E.17511
G1 X79.414 Y83.72 E.07252
G1 X78.235 Y82.997 E.07686
G1 X77.203 Y81.926 E.08265
G1 X76.486 Y80.635 E.08206
G1 X76.148 Y79.174 E.08333
G1 X76.248 Y69.678 E.52773
G1 X76.889 Y68.018 E.09889
G1 X77.333 Y67.426 E.04112
G1 X77.6 Y67.626 F10200
G1 F1200
G1 X77.703 Y67.49 E.00948
G1 X78.323 Y66.867 E.04884
G1 X79.555 Y66.088 E.081
G1 X81.005 Y65.691 E.08354
G1 X106.573 Y65.682 E1.42084
G1 X108.201 Y66.15 E.09413
G1 X109.262 Y66.842 E.07039
G1 X110.276 Y67.937 E.08293
G1 X110.78 Y68.876 E.05922
G1 X111.123 Y70.188 E.07536
G1 X111.137 Y76.008 E.32342
G1 X128.973 Y76.025 E.99116
G1 X130.27 Y76.338 E.07414
G1 X131.43 Y76.98 E.07368
G1 X132.475 Y77.998 E.08107
G1 X133.15 Y79.122 E.07286
G1 X133.507 Y80.401 E.07379
G1 X133.547 Y102.512 E1.22873
G1 X133.266 Y103.625 E.06379
G1 X133.303 Y125.629 E1.22278
G1 X132.983 Y126.996 E.07802
G1 X132.28 Y128.238 E.07931
G1 X131.287 Y129.247 E.07867
G1 X130.149 Y129.914 E.0733
G1 X128.803 Y130.275 E.07744
G1 X111.173 Y130.296 E.97972
G1 X111.114 Y137.302 E.38934
G1 X110.677 Y138.602 E.07621
G1 X109.902 Y139.732 E.07614
G1 X108.798 Y140.691 E.08126
G1 X107.385 Y141.325 E.08606
G1 X106.393 Y141.477 E.05577
G1 X85.692 Y141.477 E1.15037
G1 X84.326 Y141.157 E.07796
G1 X83.086 Y140.456 E.07916
G1 X82.058 Y139.445 E.08012
G1 X81.291 Y138.025 E.08969
G1 X81.047 Y136.939 E.06185
G1 X81.025 Y124.14 E.71125
G1 X81.375 Y122.712 E.0817
G1 X81.519 Y122.421 E.01804
G1 X81.051 Y120.87 E.09003
G1 X81.038 Y117.407 E.19244
G1 X80.505 Y117.37 E.02969
G1 X79.524 Y117.03 E.0577
G1 X78.604 Y116.475 E.05971
G1 X77.441 Y115.283 E.09255
G1 X76.839 Y114.156 E.071
G1 X76.538 Y112.891 E.07226
G1 X76.583 Y103.555 E.51882
G1 X76.89 Y102.508 E.06063
G1 X77.403 Y101.569 E.05946
G1 X78.485 Y100.416 E.08787
G1 X79.61 Y99.728 E.07328
G1 X80.983 Y99.357 E.07904
G1 X80.983 Y90.458 E.49453
G1 X81.476 Y88.771 E.09767
G1 X81.009 Y87.225 E.08975
G1 X80.996 Y83.799 E.19039
G1 X79.569 Y83.423 E.08201
G1 X78.46 Y82.749 E.07212
G1 X77.483 Y81.743 E.07793
G1 X76.806 Y80.536 E.0769
G1 X76.483 Y79.157 E.07871
G1 X76.571 Y69.769 E.52172
G1 X77.171 Y68.2 E.09335
G1 X77.565 Y67.674 E.03652
G1 X77.831 Y67.873 F10200
G1 F1200
G1 X77.948 Y67.717 E.01084
G1 X78.546 Y67.116 E.04711
G1 X79.711 Y66.385 E.07643
G1 X81.07 Y66.019 E.07821
G1 X91.466 Y66.01 E.57772
G1 X91.813 Y66.064 E.01952
G1 X92.136 Y66.007 E.01823
G1 X106.549 Y66.016 E.80094
G1 X108.083 Y66.464 E.08881
G1 X109.06 Y67.109 E.06506
G1 X110.016 Y68.147 E.07842
G1 X110.476 Y69.015 E.05459
G1 X110.788 Y70.21 E.06863
G1 X110.803 Y76.342 E.34076
G1 X128.916 Y76.355 E1.00656
G1 X130.13 Y76.642 E.06932
G1 X131.213 Y77.236 E.06864
G1 X132.226 Y78.222 E.07856
G1 X132.851 Y79.273 E.06795
G1 X133.173 Y80.425 E.06647
G1 X133.213 Y102.491 E1.22623
G1 X132.925 Y103.606 E.064
G1 X132.969 Y125.609 E1.22273
G1 X132.663 Y126.894 E.07341
G1 X132.001 Y128.052 E.07412
G1 X131.066 Y128.995 E.0738
G1 X130.001 Y129.613 E.06843
G1 X128.739 Y129.946 E.07253
G1 X110.841 Y129.962 E.99461
G1 X110.78 Y137.272 E.40624
G1 X110.369 Y138.471 E.07044
G1 X109.667 Y139.494 E.06895
G1 X108.598 Y140.422 E.07867
G1 X107.271 Y141.01 E.08066
G1 X106.381 Y141.143 E.05001
G1 X85.712 Y141.143 E1.1486
G1 X84.427 Y140.838 E.07339
G1 X83.271 Y140.178 E.07397
G1 X82.312 Y139.226 E.07509
G1 X81.597 Y137.888 E.0843
G1 X81.378 Y136.886 E.057
G1 X81.359 Y124.16 E.7072
G1 X81.694 Y122.813 E.07713
G1 X81.901 Y122.413 E.02503
G1 X81.762 Y122.161 E.01599
G1 X81.385 Y120.846 E.07602
G1 X81.37 Y117.087 E.20889
G1 X80.59 Y117.046 E.04341
G1 X79.651 Y116.72 E.05524
G1 X78.796 Y116.201 E.05558
G1 X77.697 Y115.068 E.08772
G1 X77.144 Y114.019 E.0659
G1 X76.872 Y112.872 E.06551
G1 X76.911 Y103.625 E.51387
G1 X77.192 Y102.652 E.05628
G1 X77.686 Y101.748 E.05725
G1 X78.712 Y100.662 E.08302
G1 X79.727 Y100.042 E.06609
G1 X80.826 Y99.707 E.06385
G1 X81.317 Y99.683 E.02732
G1 X81.317 Y90.482 E.51131
G1 X81.837 Y88.729 E.10161
G1 X81.343 Y87.2 E.08929
G1 X81.328 Y83.471 E.20723
G1 X80.829 Y83.45 E.02775
G1 X79.685 Y83.108 E.06635
G1 X78.684 Y82.5 E.06508
G1 X77.763 Y81.558 E.07321
G1 X77.125 Y80.435 E.07177
G1 X76.817 Y79.139 E.07403
G1 X76.894 Y69.859 E.51572
G1 X77.453 Y68.38 E.08786
G1 X77.795 Y67.921 E.03181
G1 X78.063 Y68.121 F10200
G1 F1200
G1 X78.208 Y67.927 E.01346
G1 X78.769 Y67.366 E.04409
G1 X79.866 Y66.682 E.07184
G1 X81.134 Y66.348 E.07287
G1 X91.452 Y66.344 E.57338
G1 X91.818 Y66.404 E.02061
G1 X92.152 Y66.341 E.01889
G1 X106.524 Y66.35 E.79867
G1 X107.963 Y66.777 E.08341
G1 X108.857 Y67.375 E.05977
G1 X109.754 Y68.356 E.07387
G1 X110.171 Y69.153 E.04999
G1 X110.454 Y70.232 E.06199
G1 X110.47 Y76.676 E.3581
G1 X128.859 Y76.684 E1.02189
G1 X129.992 Y76.947 E.06464
G1 X130.997 Y77.492 E.06353
G1 X131.976 Y78.446 E.07596
G1 X132.552 Y79.424 E.06307
G1 X132.838 Y80.448 E.05908
G1 X132.879 Y102.469 E1.22373
G1 X132.584 Y103.588 E.06431
G1 X132.635 Y125.589 E1.22262
G1 X132.344 Y126.792 E.06878
G1 X131.723 Y127.865 E.06889
G1 X130.845 Y128.743 E.069
G1 X129.855 Y129.312 E.06345
G1 X128.676 Y129.618 E.06769
G1 X110.509 Y129.628 E1.00956
G1 X110.455 Y137.191 E.42029
G1 X110.079 Y138.303 E.06523
G1 X109.431 Y139.256 E.06404
G1 X108.399 Y140.152 E.07595
G1 X107.158 Y140.695 E.07528
G1 X106.369 Y140.809 E.0443
G1 X85.732 Y140.809 E1.14682
G1 X84.529 Y140.519 E.06877
G1 X83.458 Y139.9 E.06874
G1 X82.566 Y139.008 E.0701
G1 X81.904 Y137.753 E.07885
G1 X81.708 Y136.834 E.05222
G1 X81.693 Y124.181 E.70314
G1 X82.013 Y122.916 E.07251
G1 X82.286 Y122.404 E.03224
G1 X82.076 Y122.045 E.02311
G1 X81.719 Y120.821 E.07085
G1 X81.703 Y116.765 E.2254
G1 X80.676 Y116.722 E.05712
G1 X79.777 Y116.41 E.05288
G1 X79.02 Y115.952 E.04917
G1 X77.981 Y114.889 E.0826
G1 X77.464 Y113.92 E.06103
G1 X77.207 Y112.853 E.06099
G1 X77.238 Y103.696 E.50887
G1 X77.508 Y102.763 E.05398
G1 X77.968 Y101.929 E.05293
G1 X78.939 Y100.908 E.0783
G1 X79.845 Y100.355 E.05898
G1 X80.901 Y100.034 E.06133
G1 X81.651 Y100.008 E.0417
G1 X81.651 Y90.506 E.52803
G1 X82.102 Y88.981 E.08837
G1 X82.238 Y88.749 E.01494
G1 X82.034 Y88.4 E.02246
G1 X81.677 Y87.175 E.07091
G1 X81.661 Y83.143 E.22406
G1 X80.902 Y83.123 E.04219
G1 X79.802 Y82.795 E.06379
G1 X78.877 Y82.226 E.06035
G1 X78.042 Y81.373 E.06633
G1 X77.444 Y80.332 E.06671
G1 X77.151 Y79.121 E.06924
G1 X77.218 Y69.948 E.50977
G1 X77.735 Y68.561 E.08226
G1 X78.027 Y68.169 E.02716
G1 X78.295 Y68.368 F10200
G1 F1200
G1 X78.453 Y68.154 E.01478
G1 X78.991 Y67.617 E.04224
G1 X80.02 Y66.979 E.06728
G1 X81.155 Y66.682 E.0652
G1 X91.438 Y66.679 E.57144
G1 X91.823 Y66.744 E.0217
G1 X92.169 Y66.675 E.01961
G1 X106.499 Y66.684 E.79633
G1 X107.841 Y67.089 E.0779
G1 X108.652 Y67.64 E.05449
G1 X109.491 Y68.564 E.06936
G1 X109.865 Y69.289 E.04533
G1 X110.12 Y70.254 E.05547
G1 X110.137 Y77.011 E.37549
G1 X128.804 Y77.014 E1.03734
G1 X129.855 Y77.252 E.05988
G1 X130.781 Y77.748 E.05838
G1 X131.727 Y78.669 E.07337
G1 X132.237 Y79.536 E.0559
