; generated by PrusaSlicer 2.9.2 on 2025-11-14 at 08:06:38 UTC

; 

; external perimeters extrusion width = 0.42mm
; perimeters extrusion width = 0.44mm
; infill extrusion width = 0.44mm
; solid infill extrusion width = 0.44mm
; top infill extrusion width = 0.40mm
; first layer extrusion width = 0.42mm

M201 X500 Y500 Z100 E5000 ; sets maximum accelerations, mm/sec^2
M203 X500 Y500 Z10 E60 ; sets maximum feedrates, mm / sec
M204 S500 T1000 ; sets acceleration (S) and retract acceleration (R), mm/sec^2
M205 X8.00 Y8.00 Z0.40 E5.00 ; sets the jerk limits, mm/sec
M205 S0 T0 ; sets the minimum extruding and travel feed rate, mm/sec

; printing object BigWheelMold.stl id:0 copy 0
; stop printing object BigWheelMold.stl id:0 copy 0

;TYPE:Custom
G90 ; use absolute coordinates
M83 ; extruder relative mode
M104 S150 ; set temporary nozzle temp to prevent oozing during homing
M140 S100 ; set final bed temp
G4 S30 ; allow partial nozzle warmup
G28 ; home all axis
;G29 ; auto-bed-level (disabled for now)
G1 Z50 F240
G1 X2.0 Y10 F3000
M104 S240 ; set final nozzle temp
M190 S100 ; wait for bed temp to stabilize
M109 S240 ; wait for nozzle temp to stabilize
G1 Z0.28 F240
G92 E0
G1 X2.0 Y140 E10 F1500 ; prime the nozzle
G1 X2.3 Y140 F5000
G92 E0
G1 X2.3 Y10 E10 F1200 ; prime the nozzle
G92 E0
G21 ; set units to millimeters
G90 ; use absolute coordinates
M83 ; use relative distances for extrusion
; Filament gcode
M107
;LAYER_CHANGE
;Z:0.35
;HEIGHT:0.35
G1 E-5 F3600
G1 Z.35 F10200
G1 X68.995 Y68.919
G1 Z.35
G1 E5 F2400
M204 S500
;TYPE:Skirt/Brim
;WIDTH:0.42
G1 F1200
G1 X70.296 Y67.617 E.11025
G1 X71.669 Y66.371 E.11106
G1 X74.641 Y63.93 E.23037
G1 X76.125 Y62.828 E.11072
G1 X79.322 Y60.688 E.23045
G1 X80.912 Y59.734 E.11107
G1 X84.303 Y57.919 E.23039
G1 X85.979 Y57.125 E.11109
G1 X89.537 Y55.649 E.23074
G1 X91.277 Y55.025 E.11073
G1 X94.947 Y53.91 E.22976
G1 X96.756 Y53.455 E.11174
G1 X100.533 Y52.701 E.23071
G1 X102.362 Y52.429 E.11076
G1 X106.196 Y52.049 E.23078
G1 X108.048 Y51.957 E.11107
G1 X111.957 Y51.958 E.23415
G1 X115.749 Y52.21 E.22764
G1 X117.569 Y52.42 E.10974
G1 X119.403 Y52.691 E.11105
G1 X123.182 Y53.441 E.23078
G1 X124.975 Y53.889 E.1107
G1 X128.662 Y55.005 E.23075
G1 X130.403 Y55.627 E.11074
G1 X133.963 Y57.099 E.23076
G1 X137.407 Y58.799 E.23006
G1 X139.088 Y59.735 E.11525
G1 X140.703 Y60.704 E.11282
G1 X143.813 Y62.783 E.22408
G1 X145.308 Y63.89 E.11143
G1 X148.278 Y66.325 E.23005
G1 X149.657 Y67.573 E.11141
G1 X152.379 Y70.292 E.23046
G1 X154.922 Y73.193 E.23109
G1 X156.075 Y74.647 E.11116
G1 X157.194 Y76.155 E.11248
G1 X159.311 Y79.322 E.22819
G1 X161.234 Y82.654 E.23044
G1 X162.087 Y84.315 E.11185
G1 X163.675 Y87.825 E.23077
G1 X164.374 Y89.598 E.11416
G1 X165.583 Y93.17 E.22589
G1 X166.112 Y95.025 E.11555
G1 X166.966 Y98.705 E.22629
G1 X167.309 Y100.597 E.11518
G1 X167.582 Y102.444 E.11184
G1 X167.949 Y106.178 E.22475
G1 X168.042 Y108.042 E.11179
G1 X168.044 Y111.894 E.23074
G1 X167.792 Y115.727 E.2301
G1 X167.571 Y117.638 E.11523
G1 X166.955 Y121.353 E.22557
G1 X166.545 Y123.244 E.1159
G1 X165.573 Y126.864 E.22452
G1 X164.975 Y128.723 E.11698
G1 X163.641 Y132.257 E.22627
G1 X162.875 Y134.021 E.1152
G1 X161.22 Y137.372 E.22387
G1 X160.266 Y139.088 E.11761
G1 X158.281 Y142.275 E.2249
G1 X157.173 Y143.875 E.11658
G1 X154.893 Y146.843 E.22419
G1 X153.625 Y148.336 E.11733
G1 X152.367 Y149.722 E.11212
G1 X149.742 Y152.348 E.22241
G1 X146.806 Y154.923 E.23393
G1 X145.363 Y156.068 E.11034
G1 X142.236 Y158.307 E.23037
G1 X140.618 Y159.348 E.11525
G1 X139.022 Y160.304 E.11144
G1 X135.707 Y162.076 E.22516
G1 X132.181 Y163.673 E.23186
G1 X130.418 Y164.368 E.11351
G1 X126.836 Y165.581 E.22653
G1 X124.975 Y166.112 E.11592
G1 X121.289 Y166.967 E.22666
G1 X119.403 Y167.309 E.11482
G1 X117.551 Y167.582 E.11213
G1 X113.822 Y167.949 E.22445
G1 X111.958 Y168.042 E.11179
G1 X108.111 Y168.045 E.23044
G1 X106.253 Y167.954 E.11143
G1 X102.43 Y167.58 E.23009
G1 X98.63 Y166.951 E.23072
G1 X96.756 Y166.545 E.11486
G1 X93.119 Y165.568 E.22558
G1 X91.277 Y164.974 E.11593
G1 X89.51 Y164.34 E.11245
G1 X86.015 Y162.891 E.22663
G1 X84.323 Y162.091 E.11211
G1 X80.973 Y160.301 E.22752
G1 X79.382 Y159.348 E.11109
G1 X76.187 Y157.217 E.23005
G1 X74.692 Y156.11 E.11143
G1 X71.717 Y153.671 E.23044
G1 X70.343 Y152.427 E.11103
G1 X67.617 Y149.704 E.2308
G1 X65.085 Y146.815 E.23011
G1 X63.89 Y145.308 E.11521
G1 X61.692 Y142.235 E.22631
G1 X60.652 Y140.618 E.11516
G1 X58.777 Y137.366 E.22486
G1 X57.888 Y135.634 E.11662
G1 X56.327 Y132.181 E.22699
G1 X55.627 Y130.403 E.11446
G1 X54.42 Y126.842 E.22523
G1 X53.889 Y124.975 E.11627
G1 X53.435 Y123.159 E.11213
G1 X52.703 Y119.477 E.22487
G1 X52.429 Y117.638 E.11137
G1 X52.05 Y113.811 E.23036
G1 X51.925 Y109.922 E.23307
G1 X51.967 Y107.892 E.12162
G1 X52.208 Y104.273 E.21726
G1 X52.429 Y102.362 E.11523
G1 X53.038 Y98.681 E.22349
G1 X53.455 Y96.756 E.11798
G1 X54.41 Y93.191 E.22108
G1 X55.11 Y91.04 E.1355
G1 X56.326 Y87.822 E.20606
G1 X57.233 Y85.752 E.13537
G1 X58.756 Y82.673 E.20576
G1 X59.734 Y80.912 E.12066
G1 X61.712 Y77.736 E.22412
G1 X62.776 Y76.197 E.11207
G1 X63.89 Y74.693 E.11211
G1 X66.321 Y71.726 E.22976
G1 X67.573 Y70.343 E.11175
G1 X68.952 Y68.962 E.1169
G1 X69.178 Y69.18 F10200
G1 F1200
G1 X69.217 Y69.14 E.00335
G1 X71.899 Y66.628 E.22012
G1 X73.414 Y65.343 E.119
G1 X76.328 Y63.106 E.22005
G1 X77.967 Y61.972 E.11939
G1 X81.087 Y60.031 E.2201
G1 X82.834 Y59.061 E.1197
G1 X86.124 Y57.438 E.21975
G1 X87.958 Y56.643 E.11974
G1 X91.391 Y55.351 E.21972
G1 X93.288 Y54.741 E.11936
G1 X96.837 Y53.79 E.22009
G1 X98.79 Y53.368 E.11969
G1 X102.41 Y52.771 E.21977
G1 X104.396 Y52.542 E.11975
G1 X108.062 Y52.302 E.22007
G1 X110.306 Y52.274 E.13443
G1 X113.722 Y52.39 E.20474
G1 X115.713 Y52.553 E.11966
G1 X119.35 Y53.032 E.21974
G1 X121.316 Y53.39 E.1197
G1 X124.889 Y54.223 E.21976
G1 X126.81 Y54.771 E.11966
G1 X130.284 Y55.95 E.21975
G1 X132.143 Y56.685 E.11974
G1 X135.484 Y58.199 E.21972
G1 X137.242 Y59.101 E.11836
G1 X138.913 Y60.032 E.11458
G1 X142.114 Y62.026 E.2259
G1 X145.1 Y64.166 E.22006
G1 X146.661 Y65.404 E.11934
G1 X149.424 Y67.827 E.22013
G1 X150.86 Y69.217 E.11971
G1 X153.368 Y71.894 E.21973
G1 X154.654 Y73.41 E.11908
G1 X156.915 Y76.358 E.22254
G1 X158.028 Y77.967 E.11719
G1 X159.968 Y81.087 E.22007
G1 X160.929 Y82.814 E.11839
G1 X162.574 Y86.152 E.22291
G1 X163.355 Y87.954 E.11764
G1 X164.05 Y89.717 E.11351
G1 X165.252 Y93.267 E.22451
G1 X165.778 Y95.112 E.11492
G1 X166.627 Y98.769 E.22488
G1 X166.968 Y100.651 E.11457
G1 X167.456 Y104.378 E.22516
G1 X167.698 Y108.056 E.22079
G1 X167.73 Y110.054 E.1197
G1 X167.61 Y113.721 E.21977
G1 X167.449 Y115.69 E.11834
G1 X167.229 Y117.59 E.11457
G1 X166.617 Y121.283 E.22423
G1 X166.21 Y123.163 E.11522
G1 X165.244 Y126.761 E.22316
G1 X164.649 Y128.609 E.11629
G1 X163.324 Y132.122 E.2249
G1 X162.562 Y133.876 E.11455
G1 X160.918 Y137.207 E.22251
G1 X159.968 Y138.913 E.11697
G1 X157.996 Y142.081 E.22353
G1 X156.894 Y143.671 E.11588
G1 X154.628 Y146.622 E.22287
G1 X153.367 Y148.106 E.11665
G1 X150.792 Y150.851 E.22545
G1 X148.425 Y153.079 E.19472
G1 X146.589 Y154.655 E.14494
G1 X143.666 Y156.897 E.22066
G1 X142.047 Y158.019 E.11799
G1 X140.439 Y159.054 E.11455
G1 X137.192 Y160.926 E.22451
G1 X133.876 Y162.562 E.22149
G1 X132.052 Y163.353 E.11909
G1 X128.554 Y164.668 E.22385
G1 X126.739 Y165.251 E.11419
G1 X124.888 Y165.778 E.11528
G1 X121.225 Y166.629 E.22526
G1 X119.349 Y166.968 E.11419
G1 X115.622 Y167.456 E.22516
G1 X111.944 Y167.698 E.22079
G1 X109.945 Y167.73 E.11976
G1 X106.273 Y167.61 E.22007
G1 X104.304 Y167.449 E.11834
G1 X100.638 Y166.966 E.22149
G1 X98.7 Y166.614 E.11799
G1 X96.837 Y166.21 E.11419
G1 X93.222 Y165.239 E.22422
G1 X91.391 Y164.649 E.11523
G1 X87.867 Y163.319 E.22562
G1 X84.473 Y161.78 E.22323
G1 X82.754 Y160.896 E.11579
G1 X79.561 Y159.054 E.22081
G1 X77.891 Y157.977 E.11903
G1 X74.9 Y155.834 E.2204
G1 X73.343 Y154.599 E.11904
G1 X70.576 Y152.173 E.22043
G1 X69.144 Y150.787 E.11938
G1 X66.632 Y148.106 E.22007
G1 X65.353 Y146.599 E.1184
G1 X64.166 Y145.1 E.11453
G1 X61.981 Y142.046 E.22494
G1 X60.946 Y140.439 E.1145
G1 X59.082 Y137.206 E.22354
G1 X58.199 Y135.484 E.11592
G1 X56.647 Y132.052 E.22562
G1 X55.95 Y130.284 E.11384
G1 X54.751 Y126.744 E.22388
G1 X54.222 Y124.888 E.1156
G1 X53.372 Y121.226 E.22519
G1 X52.771 Y117.59 E.22075
G1 X52.543 Y115.616 E.11903
G1 X52.302 Y111.944 E.22043
G1 X52.27 Y109.926 E.12089
G1 X52.39 Y106.28 E.21852
G1 X52.551 Y104.31 E.1184
G1 X52.771 Y102.41 E.11457
G1 X53.376 Y98.751 E.22215
G1 X53.79 Y96.838 E.11724
G1 X54.741 Y93.288 E.22015
G1 X55.436 Y91.155 E.13438
G1 X56.646 Y87.951 E.20515
G1 X57.546 Y85.897 E.13433
G1 X59.061 Y82.833 E.20475
G1 X60.031 Y81.088 E.11959
G1 X62 Y77.925 E.22318
G1 X64.165 Y74.9 E.22283
G1 X65.397 Y73.348 E.1187
G1 X67.827 Y70.576 E.22081
G1 X69.136 Y69.223 E.11277
G1 X69.401 Y69.488 F10200
G1 F1200
G1 X70.772 Y68.116 E.11618
G1 X72.129 Y66.886 E.10971
G1 X75.061 Y64.477 E.22731
G1 X76.532 Y63.385 E.10974
G1 X79.691 Y61.271 E.22769
G1 X81.262 Y60.329 E.10972
G1 X84.608 Y58.538 E.22733
G1 X86.269 Y57.751 E.1101
G1 X89.78 Y56.295 E.22768
G1 X91.505 Y55.677 E.10976
G1 X95.131 Y54.574 E.22703
G1 X96.918 Y54.125 E.11037
G1 X100.64 Y53.383 E.22734
G1 X102.458 Y53.112 E.1101
G1 X106.241 Y52.738 E.22771
G1 X108.076 Y52.647 E.11005
G1 X111.929 Y52.647 E.2308
G1 X115.676 Y52.896 E.22494
G1 X117.479 Y53.104 E.10872
G1 X119.296 Y53.372 E.11002
G1 X123.02 Y54.111 E.22742
G1 X124.802 Y54.556 E.11002
G1 X128.44 Y55.658 E.2277
G1 X130.165 Y56.274 E.10972
G1 X133.678 Y57.727 E.22772
G1 X137.077 Y59.404 E.22704
G1 X138.738 Y60.329 E.11388
G1 X140.334 Y61.287 E.1115
G1 X143.411 Y63.344 E.22171
G1 X144.893 Y64.441 E.11045
G1 X147.824 Y66.844 E.22703
G1 X149.19 Y68.081 E.11039
G1 X151.88 Y70.767 E.22771
G1 X154.385 Y73.626 E.22769
G1 X155.528 Y75.067 E.11017
G1 X156.636 Y76.561 E.11142
G1 X158.726 Y79.687 E.22525
G1 X160.623 Y82.974 E.22733
G1 X161.47 Y84.625 E.11115
G1 X163.035 Y88.083 E.22736
G1 X163.726 Y89.835 E.11281
G1 X164.921 Y93.364 E.22318
G1 X165.444 Y95.198 E.11424
G1 X166.289 Y98.834 E.2236
G1 X166.628 Y100.704 E.11384
G1 X166.897 Y102.528 E.11044
G1 X167.261 Y106.229 E.22276
G1 X167.353 Y108.07 E.11041
G1 X167.355 Y111.872 E.22774
G1 X167.106 Y115.654 E.22703
G1 X166.888 Y117.542 E.11384
G1 X166.279 Y121.213 E.2229
G1 X165.875 Y123.082 E.11454
G1 X164.914 Y126.658 E.2218
G1 X164.323 Y128.495 E.11559
G1 X163.006 Y131.988 E.22361
G1 X162.249 Y133.731 E.11383
G1 X160.612 Y137.047 E.22152
G1 X159.671 Y138.738 E.11592
G1 X157.711 Y141.887 E.22218
G1 X156.615 Y143.468 E.11523
G1 X154.363 Y146.401 E.2215
G1 X153.11 Y147.876 E.11593
G1 X151.867 Y149.246 E.11081
G1 X149.266 Y151.848 E.22038
G1 X146.372 Y154.387 E.23061
G1 X144.943 Y155.521 E.10928
G1 X141.857 Y157.731 E.22737
G1 X140.259 Y158.759 E.11382
G1 X138.682 Y159.703 E.11009
G1 X135.397 Y161.46 E.22315
G1 X131.923 Y163.033 E.22843
G1 X130.17 Y163.724 E.11287
G1 X126.641 Y164.92 E.2232
G1 X124.802 Y165.444 E.11454
G1 X121.161 Y166.29 E.22391
G1 X119.296 Y166.628 E.11353
G1 X117.467 Y166.898 E.11075
G1 X113.771 Y167.261 E.22246
G1 X111.93 Y167.353 E.11041
G1 X108.133 Y167.355 E.22744
G1 X106.293 Y167.266 E.11035
G1 X102.515 Y166.895 E.22739
G1 X98.77 Y166.276 E.22737
G1 X96.918 Y165.875 E.11351
G1 X93.325 Y164.909 E.22287
G1 X91.504 Y164.323 E.11459
G1 X88.002 Y163.002 E.2242
G1 X86.295 Y162.26 E.11149
G1 X84.623 Y161.47 E.11077
G1 X81.318 Y159.704 E.22446
G1 X79.741 Y158.76 E.11009
G1 X76.588 Y156.656 E.22706
G1 X75.107 Y155.559 E.1104
G1 X72.172 Y153.153 E.22733
G1 X70.81 Y151.919 E.11009
G1 X68.124 Y149.237 E.22737
G1 X65.622 Y146.382 E.22739
G1 X64.441 Y144.893 E.11384
G1 X62.269 Y141.857 E.22361
G1 X61.241 Y140.259 E.11382
G1 X59.388 Y137.046 E.22217
G1 X58.509 Y135.334 E.11528
G1 X56.967 Y131.922 E.22428
G1 X56.274 Y130.165 E.11314
G1 X55.082 Y126.647 E.2225
G1 X54.556 Y124.802 E.11492
G1 X54.108 Y123.008 E.11076
G1 X53.384 Y119.365 E.22249
G1 X53.112 Y117.542 E.11041
G1 X52.739 Y113.771 E.22699
G1 X52.615 Y109.93 E.2302
G1 X52.656 Y107.911 E.12096
G1 X52.894 Y104.346 E.21402
G1 X53.112 Y102.458 E.11384
G1 X53.715 Y98.816 E.22113
G1 X54.125 Y96.919 E.11626
G1 X55.072 Y93.386 E.2191
G1 X55.761 Y91.269 E.13336
G1 X56.965 Y88.081 E.20413
G1 X57.858 Y86.043 E.13328
G1 X59.367 Y82.993 E.20383
G1 X60.329 Y81.263 E.11857
G1 X62.285 Y78.119 E.2218
G1 X63.337 Y76.599 E.11073
G1 X64.441 Y75.108 E.11113
G1 X66.836 Y72.185 E.22636
G1 X68.081 Y70.81 E.11111
G1 X69.359 Y69.531 E.1083
G1 X69.586 Y69.75 F10200
G1 F1200
G1 X69.701 Y69.632 E.00987
G1 X72.358 Y67.143 E.21808
G1 X73.847 Y65.88 E.11696
G1 X76.735 Y63.663 E.21809
G1 X78.345 Y62.549 E.11728
G1 X81.437 Y60.626 E.21811
G1 X83.154 Y59.672 E.11766
G1 X86.414 Y58.064 E.21774
G1 X88.217 Y57.283 E.1177
G1 X91.618 Y56.002 E.21769
G1 X93.483 Y55.403 E.11734
G1 X97 Y54.461 E.2181
G1 X98.919 Y54.046 E.11761
G1 X102.506 Y53.454 E.21777
G1 X104.457 Y53.229 E.11764
G1 X108.09 Y52.991 E.21809
G1 X110.299 Y52.963 E.13233
G1 X113.683 Y53.078 E.20282
G1 X115.639 Y53.239 E.11756
G1 X119.243 Y53.713 E.21774
G1 X121.176 Y54.065 E.11769
G1 X124.716 Y54.89 E.21773
G1 X126.605 Y55.43 E.11769
G1 X130.047 Y56.598 E.21773
G1 X131.874 Y57.32 E.11767
G1 X135.184 Y58.82 E.21768
G1 X136.912 Y59.707 E.11635
G1 X138.563 Y60.626 E.11318
G1 X141.726 Y62.596 E.22321
G1 X144.685 Y64.717 E.21808
G1 X146.219 Y65.934 E.11729
G1 X148.957 Y68.334 E.2181
G1 X150.368 Y69.701 E.11768
G1 X152.853 Y72.354 E.21774
G1 X154.117 Y73.843 E.117
G1 X156.358 Y76.764 E.22053
G1 X157.451 Y78.346 E.11518
G1 X159.374 Y81.437 E.21806
G1 X160.318 Y83.134 E.11632
G1 X161.948 Y86.442 E.2209
G1 X162.715 Y88.212 E.11555
G1 X163.402 Y89.954 E.11217
G1 X164.59 Y93.462 E.22185
G1 X165.11 Y95.284 E.1135
G1 X165.95 Y98.898 E.22225
G1 X166.287 Y100.757 E.11317
G1 X166.769 Y104.44 E.2225
G1 X167.008 Y108.084 E.21875
G1 X167.041 Y110.049 E.11772
G1 X166.922 Y113.681 E.21768
G1 X166.763 Y115.617 E.11636
G1 X166.546 Y117.494 E.11318
G1 X165.942 Y121.143 E.22155
G1 X165.539 Y123 E.11382
G1 X164.585 Y126.555 E.22048
G1 X163.998 Y128.381 E.11489
G1 X162.689 Y131.853 E.22227
G1 X161.936 Y133.586 E.11318
G1 X160.309 Y136.881 E.22012
G1 X159.374 Y138.563 E.11527
G1 X157.422 Y141.698 E.22122
G1 X156.337 Y143.265 E.11417
G1 X154.098 Y146.18 E.22017
G1 X152.853 Y147.647 E.11525
G1 X150.308 Y150.36 E.22282
G1 X147.964 Y152.565 E.19277
G1 X146.155 Y154.119 E.14285
G1 X143.26 Y156.34 E.21857
G1 X141.668 Y157.442 E.11598
G1 X140.08 Y158.465 E.11315
G1 X136.872 Y160.315 E.22182
G1 X133.586 Y161.936 E.21948
G1 X131.793 Y162.713 E.11705
G1 X130.046 Y163.402 E.11249
G1 X126.544 Y164.589 E.22149
G1 X124.716 Y165.11 E.11386
G1 X121.096 Y165.951 E.22262
G1 X119.243 Y166.287 E.11281
G1 X115.56 Y166.769 E.2225
G1 X111.916 Y167.008 E.21875
G1 X109.951 Y167.041 E.11772
G1 X106.312 Y166.921 E.2181
G1 X104.378 Y166.763 E.11623
G1 X100.745 Y166.285 E.21949
G1 X98.84 Y165.938 E.11599
G1 X96.999 Y165.539 E.11284
G1 X93.428 Y164.58 E.22148
G1 X91.618 Y163.998 E.11389
G1 X88.136 Y162.684 E.22293
G1 X84.773 Y161.159 E.22119
G1 X83.084 Y160.291 E.11375
G1 X79.921 Y158.465 E.21877
G1 X78.279 Y157.407 E.11701
G1 X75.315 Y155.283 E.21843
G1 X73.785 Y154.07 E.11696
G1 X71.043 Y151.666 E.21843
G1 X69.636 Y150.304 E.1173
G1 X67.147 Y147.646 E.21812
G1 X65.89 Y146.166 E.11631
G1 X64.717 Y144.685 E.11317
G1 X62.558 Y141.668 E.22223
G1 X61.535 Y140.08 E.11315
G1 X59.693 Y136.886 E.22086
G1 X58.82 Y135.184 E.11458
G1 X57.287 Y131.793 E.22292
G1 X56.598 Y130.047 E.11244
G1 X55.413 Y126.55 E.22117
G1 X54.89 Y124.716 E.11424
G1 X54.049 Y121.097 E.22256
G1 X53.454 Y117.494 E.21875
G1 X53.23 Y115.555 E.11692
G1 X52.992 Y111.915 E.2185
G1 X52.96 Y109.934 E.11868
G1 X53.078 Y106.319 E.21666
G1 X53.237 Y104.383 E.11636
G1 X53.454 Y102.506 E.11318
G1 X54.054 Y98.88 E.22015
G1 X54.461 Y97 E.11522
G1 X55.403 Y93.484 E.21804
G1 X56.087 Y91.383 E.13235
G1 X57.285 Y88.211 E.2031
G1 X58.171 Y86.188 E.13229
G1 X59.672 Y83.154 E.20276
G1 X60.626 Y81.438 E.11761
G1 X62.574 Y78.308 E.22083
G1 X64.716 Y75.315 E.22047
G1 X65.926 Y73.79 E.11661
G1 X68.334 Y71.043 E.21882
