; generated by PrusaSlicer 2.9.2 on 2025-11-14 at 04:16:09 UTC

; 

; external perimeters extrusion width = 0.42mm
; perimeters extrusion width = 0.44mm
; infill extrusion width = 0.44mm
; solid infill extrusion width = 0.44mm
; top infill extrusion width = 0.40mm
; first layer extrusion width = 0.42mm

M201 X500 Y500 Z100 E5000 ; sets maximum accelerations, mm/sec^2
M203 X500 Y500 Z10 E60 ; sets maximum feedrates, mm / sec
M204 S500 T1000 ; sets acceleration (S) and retract acceleration (R), mm/sec^2
M205 X8.00 Y8.00 Z0.40 E5.00 ; sets the jerk limits, mm/sec
M205 S0 T0 ; sets the minimum extruding and travel feed rate, mm/sec

; printing object ServoHorn.stl id:0 copy 0
; stop printing object ServoHorn.stl id:0 copy 0
; printing object ServoHorn.stl id:0 copy 2
; stop printing object ServoHorn.stl id:0 copy 2
; printing object ServoHorn.stl id:0 copy 1
; stop printing object ServoHorn.stl id:0 copy 1

;TYPE:Custom
G90 ; use absolute coordinates
M83 ; extruder relative mode
M104 S150 ; set temporary nozzle temp to prevent oozing during homing
M140 S100 ; set final bed temp
G4 S30 ; allow partial nozzle warmup
G28 ; home all axis
;G29 ; auto-bed-level (disabled for now)
G1 Z50 F240
G1 X2.0 Y10 F3000
M104 S240 ; set final nozzle temp
M190 S100 ; wait for bed temp to stabilize
M109 S240 ; wait for nozzle temp to stabilize
G1 Z0.28 F240
G92 E0
G1 X2.0 Y140 E10 F1500 ; prime the nozzle
G1 X2.3 Y140 F5000
G92 E0
G1 X2.3 Y10 E10 F1200 ; prime the nozzle
G92 E0
G21 ; set units to millimeters
G90 ; use absolute coordinates
M83 ; use relative distances for extrusion
; Filament gcode
M107
;LAYER_CHANGE
;Z:0.35
;HEIGHT:0.35
G1 E-5 F3600
G1 Z.35 F10200
G1 X98.127 Y95.203
G1 Z.35
G1 E5 F2400
M204 S500
;TYPE:Skirt/Brim
;WIDTH:0.42
G1 F1200
G1 X100.104 Y93.726 E.14782
G1 X102.24 Y92.844 E.13843
G1 X103.153 Y92.689 E.05547
G1 X104.064 Y90.713 E.13034
G1 X105.798 Y88.515 E.1677
G1 X108.12 Y86.656 E.17817
G1 X111.592 Y85.17 E.22622
G1 X115.354 Y84.77 E.22662
G1 X118.336 Y85.27 E.18112
G1 X121.145 Y86.48 E.18321
G1 X123.789 Y88.535 E.20059
G1 X125.615 Y90.901 E.17902
G1 X126.191 Y92.169 E.08342
G1 X127.741 Y92.435 E.0942
G1 X130.027 Y93.453 E.1499
G1 X131.915 Y94.971 E.14511
G1 X133.367 Y96.912 E.1452
G1 X134.338 Y99.335 E.15636
G1 X137.609 Y119.195 E1.20566
G1 X137.078 Y123.319 E.24907
G1 X135.771 Y126.231 E.19119
G1 X133.793 Y128.709 E.18992
G1 X131.233 Y130.632 E.19179
G1 X128.041 Y131.907 E.20589
G1 X124.655 Y132.277 E.20403
G1 X121.654 Y131.831 E.18174
G1 X118.978 Y130.757 E.17272
G1 X116.08 Y128.595 E.21658
G1 X115.102 Y127.344 E.09512
G1 X113.728 Y129.064 E.13187
G1 X111.152 Y131.038 E.1944
G1 X107.787 Y132.383 E.21707
G1 X104.479 Y132.73 E.19924
G1 X101.235 Y132.214 E.19676
G1 X98.27 Y130.899 E.19429
G1 X95.684 Y128.818 E.19883
G1 X93.727 Y126.128 E.19926
G1 X92.599 Y123.249 E.18522
G1 X92.202 Y120.302 E.17812
G1 X95.595 Y99.391 E1.26897
G1 X96.661 Y97.018 E.15583
G1 X98.089 Y95.25 E.13613
G1 X98.357 Y95.467 F10200
G1 F1200
G1 X98.381 Y95.437 E.0023
G1 X100.256 Y94.036 E.1402
G1 X102.353 Y93.171 E.13588
G1 X103.39 Y93 E.06296
G1 X104.348 Y90.911 E.13766
G1 X106.057 Y88.744 E.16531
G1 X108.316 Y86.941 E.17313
G1 X111.703 Y85.498 E.22053
G1 X115.321 Y85.114 E.21794
G1 X118.219 Y85.595 E.17597
G1 X120.952 Y86.766 E.1781
G1 X123.529 Y88.763 E.19529
G1 X125.33 Y91.095 E.1765
G1 X125.952 Y92.479 E.09089
G1 X127.621 Y92.759 E.10137
G1 X129.829 Y93.736 E.14463
G1 X131.652 Y95.195 E.13987
G1 X133.077 Y97.101 E.14255
G1 X134.001 Y99.41 E.14897
G1 X137.264 Y119.226 E1.20298
G1 X136.753 Y123.202 E.24012
G1 X135.487 Y126.034 E.18582
G1 X133.568 Y128.447 E.18468
G1 X131.084 Y130.32 E.18635
G1 X127.936 Y131.578 E.20307
G1 X124.64 Y131.932 E.19857
G1 X121.764 Y131.503 E.17418
G1 X119.166 Y130.467 E.16754
G1 X116.305 Y128.333 E.2138
G1 X115.106 Y126.784 E.11734
G1 X113.501 Y128.803 E.1545
G1 X110.961 Y130.749 E.19167
G1 X107.682 Y132.054 E.2114
G1 X104.467 Y132.385 E.1936
G1 X101.313 Y131.877 E.19136
G1 X98.431 Y130.593 E.18899
G1 X95.919 Y128.564 E.19342
G1 X94.019 Y125.943 E.19391
G1 X92.938 Y123.181 E.17767
G1 X92.546 Y120.331 E.17232
G1 X95.932 Y99.469 E1.266
G1 X96.966 Y97.18 E.15045
G1 X98.319 Y95.514 E.12856
G1 X98.586 Y95.731 F10200
G1 F1200
G1 X98.635 Y95.672 E.00459
G1 X100.407 Y94.347 E.13254
G1 X102.465 Y93.497 E.13338
G1 X103.628 Y93.312 E.07054
G1 X104.631 Y91.108 E.14505
G1 X106.315 Y88.973 E.16288
G1 X108.513 Y87.225 E.16822
G1 X111.766 Y85.838 E.21183
G1 X115.288 Y85.459 E.21219
G1 X118.103 Y85.921 E.17088
G1 X120.759 Y87.053 E.17294
G1 X123.27 Y88.992 E.19004
G1 X125.044 Y91.289 E.17385
G1 X125.712 Y92.789 E.09836
G1 X127.503 Y93.084 E.10873
G1 X129.632 Y94.02 E.13931
G1 X131.39 Y95.42 E.13462
G1 X132.766 Y97.251 E.1372
G1 X133.663 Y99.485 E.1442
G1 X136.92 Y119.257 E1.20032
G1 X136.427 Y123.085 E.23119
G1 X135.203 Y125.837 E.18042
G1 X133.342 Y128.185 E.17947
G1 X130.934 Y130.009 E.18095
G1 X127.875 Y131.237 E.19745
G1 X124.625 Y131.587 E.1958
G1 X121.872 Y131.175 E.16674
G1 X119.354 Y130.177 E.16225
G1 X116.53 Y128.071 E.21102
G1 X115.11 Y126.222 E.13965
G1 X113.274 Y128.542 E.17722
G1 X110.771 Y130.461 E.18893
G1 X107.578 Y131.724 E.20568
G1 X104.455 Y132.04 E.18803
G1 X101.39 Y131.541 E.18601
G1 X98.593 Y130.288 E.18359
G1 X96.154 Y128.311 E.18807
G1 X94.311 Y125.759 E.18856
G1 X93.276 Y123.113 E.17019
G1 X92.891 Y120.361 E.16645
G1 X96.269 Y99.547 E1.26309
G1 X97.271 Y97.344 E.14497
G1 X98.548 Y95.778 E.12104
G1 X98.815 Y95.996 F10200
G1 F1200
G1 X98.888 Y95.907 E.0069
G1 X100.559 Y94.657 E.125
G1 X102.578 Y93.824 E.13083
G1 X103.865 Y93.625 E.07801
G1 X104.915 Y91.305 E.15254
G1 X106.573 Y89.203 E.16037
G1 X108.708 Y87.51 E.16322
G1 X111.877 Y86.165 E.20622
G1 X115.256 Y85.803 E.20356
G1 X117.988 Y86.246 E.16579
G1 X120.566 Y87.34 E.16775
G1 X123.011 Y89.22 E.18475
G1 X124.758 Y91.483 E.17125
G1 X125.472 Y93.1 E.10588
G1 X127.385 Y93.408 E.11607
G1 X129.435 Y94.304 E.13401
G1 X131.158 Y95.676 E.13193
G1 X132.476 Y97.439 E.13185
G1 X133.326 Y99.559 E.13682
G1 X136.576 Y119.288 E1.19771
G1 X136.102 Y122.968 E.22226
G1 X134.919 Y125.641 E.17509
G1 X133.116 Y127.924 E.17426
G1 X130.783 Y129.698 E.17556
G1 X127.814 Y130.897 E.1918
G1 X124.61 Y131.241 E.19302
G1 X121.98 Y130.847 E.1593
G1 X119.541 Y129.886 E.15703
G1 X116.756 Y127.809 E.20811
G1 X115.007 Y125.517 E.1727
G1 X114.691 Y126.195 E.04481
G1 X113.047 Y128.282 E.15914
G1 X110.58 Y130.172 E.18616
G1 X107.474 Y131.394 E.19993
G1 X104.444 Y131.694 E.18239
G1 X101.469 Y131.204 E.18061
G1 X98.755 Y129.983 E.17827
G1 X96.389 Y128.058 E.18271
G1 X94.604 Y125.576 E.18313
G1 X93.615 Y123.045 E.16277
G1 X93.236 Y120.39 E.16065
G1 X96.606 Y99.626 E1.26005
G1 X97.575 Y97.508 E.13952
G1 X98.777 Y96.043 E.11351
G1 X99.042 Y96.262 F10200
G1 F1200
G1 X99.141 Y96.142 E.00932
G1 X100.711 Y94.968 E.11743
G1 X102.69 Y94.151 E.12825
G1 X104.102 Y93.938 E.08554
G1 X105.199 Y91.502 E.16003
G1 X106.831 Y89.432 E.1579
G1 X108.904 Y87.795 E.15822
G1 X111.94 Y86.505 E.19759
G1 X115.224 Y86.147 E.19788
G1 X117.873 Y86.572 E.16071
G1 X120.374 Y87.627 E.1626
G1 X122.751 Y89.449 E.1794
G1 X124.472 Y91.677 E.16864
G1 X125.232 Y93.412 E.11346
G1 X127.269 Y93.734 E.12353
G1 X129.239 Y94.588 E.12862
G1 X130.895 Y95.901 E.12659
G1 X132.186 Y97.627 E.12911
G1 X132.989 Y99.634 E.12949
G1 X136.231 Y119.319 E1.19503
G1 X135.776 Y122.852 E.21338
G1 X134.634 Y125.445 E.16972
G1 X132.889 Y127.664 E.1691
G1 X130.631 Y129.387 E.17014
G1 X127.753 Y130.557 E.1861
G1 X124.638 Y130.897 E.1877
G1 X122.088 Y130.519 E.15442
G1 X119.689 Y129.574 E.15445
G1 X116.982 Y127.547 E.20257
G1 X115.245 Y125.26 E.17203
G1 X114.993 Y124.702 E.03668
G1 X114.407 Y125.999 E.08525
G1 X112.789 Y128.051 E.15653
G1 X110.431 Y129.861 E.17806
G1 X107.416 Y131.054 E.19423
G1 X104.433 Y131.349 E.17956
G1 X101.548 Y130.868 E.1752
G1 X98.918 Y129.678 E.17292
G1 X96.626 Y127.806 E.17727
G1 X94.897 Y125.393 E.17782
G1 X93.953 Y122.975 E.15549
G1 X93.58 Y120.419 E.15473
G1 X96.942 Y99.704 E1.25708
G1 X97.879 Y97.673 E.13398
G1 X99.004 Y96.308 E.10596
G1 X99.269 Y96.528 F10200
G1 F1200
G1 X99.393 Y96.378 E.01166
G1 X100.862 Y95.278 E.10993
G1 X102.801 Y94.478 E.12564
G1 X104.34 Y94.252 E.09318
G1 X105.483 Y91.698 E.16761
G1 X107.089 Y89.662 E.15533
G1 X109.099 Y88.08 E.15322
G1 X112.051 Y86.833 E.19196
G1 X115.193 Y86.491 E.18932
G1 X117.759 Y86.898 E.15563
G1 X120.182 Y87.915 E.15741
G1 X122.492 Y89.678 E.17407
G1 X124.186 Y91.871 E.16599
G1 X125.013 Y93.775 E.12434
G1 X127.153 Y94.059 E.12931
G1 X129.043 Y94.873 E.12327
G1 X130.663 Y96.157 E.12382
G1 X131.896 Y97.815 E.12377
G1 X132.652 Y99.708 E.1221
G1 X135.887 Y119.351 E1.19248
G1 X135.451 Y122.736 E.20444
G1 X134.349 Y125.249 E.16437
G1 X132.662 Y127.403 E.16389
G1 X130.479 Y129.076 E.16475
G1 X127.69 Y130.217 E.1805
G1 X124.667 Y130.553 E.18219
G1 X122.158 Y130.181 E.15193
G1 X119.838 Y129.262 E.14948
G1 X117.242 Y127.32 E.1942
G1 X115.534 Y125.069 E.16926
G1 X115.003 Y123.829 E.0808
G1 X114.122 Y125.803 E.12949
G1 X112.532 Y127.821 E.15389
G1 X110.281 Y129.549 E.16998
G1 X107.357 Y130.713 E.18852
G1 X104.466 Y131.005 E.17405
G1 X101.669 Y130.544 E.1698
G1 X99.118 Y129.396 E.16757
G1 X96.862 Y127.553 E.1745
G1 X95.19 Y125.21 E.17242
G1 X94.291 Y122.905 E.1482
G1 X93.925 Y120.447 E.14886
G1 X97.279 Y99.783 E1.25399
G1 X98.182 Y97.839 E.1284
G1 X99.231 Y96.574 E.09844
G1 X99.492 Y96.791 F10200
G1 F1200
G1 X99.617 Y96.641 E.0117
G1 X101.014 Y95.589 E.10475
G1 X102.913 Y94.805 E.12306
G1 X104.627 Y94.56 E.10371
G1 X105.768 Y91.894 E.17371
G1 X107.319 Y89.92 E.15038
G1 X109.294 Y88.366 E.15053
G1 X112.114 Y87.173 E.18341
G1 X115.163 Y86.835 E.18376
G1 X117.646 Y87.225 E.15056
G1 X119.992 Y88.203 E.15225
G1 X122.233 Y89.907 E.16864
G1 X123.899 Y92.064 E.16326
G1 X124.794 Y94.139 E.13536
G1 X125.229 Y94.11 E.02611
G1 X127.078 Y94.397 E.11208
G1 X128.884 Y95.18 E.11791
G1 X130.43 Y96.412 E.11841
G1 X131.605 Y98.002 E.11843
G1 X132.314 Y99.782 E.11477
G1 X135.542 Y119.382 E1.18987
G1 X135.125 Y122.621 E.19562
G1 X134.064 Y125.055 E.15905
G1 X132.434 Y127.144 E.15872
G1 X130.327 Y128.766 E.15928
G1 X127.627 Y129.877 E.17489
G1 X124.695 Y130.208 E.17674
G1 X122.267 Y129.853 E.14699
G1 X119.986 Y128.95 E.14695
G1 X117.503 Y127.092 E.18576
G1 X115.822 Y124.879 E.16647
G1 X115.012 Y122.955 E.12505
G1 X113.838 Y125.607 E.17373
G1 X112.274 Y127.591 E.15133
G1 X110.13 Y129.238 E.16195
G1 X107.298 Y130.372 E.18273
G1 X104.499 Y130.661 E.16855
G1 X101.789 Y130.22 E.16447
G1 X99.318 Y129.114 E.16216
G1 X97.128 Y127.334 E.16905
G1 X95.504 Y125.064 E.16719
G1 X94.62 Y122.798 E.1457
G1 X94.27 Y120.424 E.14374
G1 X97.615 Y99.862 E1.24787
G1 X98.485 Y98.005 E.12284
G1 X99.454 Y96.838 E.09086
G1 X99.716 Y97.055 F10200
G1 F1200
G1 X99.841 Y96.904 E.01174
G1 X101.167 Y95.899 E.09966
G1 X103.024 Y95.132 E.12035
G1 X104.912 Y94.923 E.11378
G1 X105.001 Y94.463 E.02807
G1 X106.052 Y92.09 E.15546
G1 X107.577 Y90.15 E.14781
G1 X109.489 Y88.651 E.14553
G1 X112.224 Y87.5 E.17774
G1 X115.132 Y87.18 E.17524
G1 X117.533 Y87.551 E.14553
G1 X119.801 Y88.491 E.14706
G1 X121.974 Y90.136 E.16326
G1 X123.613 Y92.258 E.16061
G1 X124.576 Y94.505 E.14644
G1 X125.197 Y94.454 E.03732
G1 X127.003 Y94.734 E.10947
G1 X128.725 Y95.487 E.11258
G1 X130.167 Y96.636 E.11044
G1 X131.294 Y98.151 E.11311
G1 X131.977 Y99.857 E.11008
G1 X135.198 Y119.413 E1.1872
G1 X134.798 Y122.506 E.18682
G1 X133.778 Y124.861 E.15373
G1 X132.205 Y126.884 E.1535
G1 X130.173 Y128.457 E.15393
G1 X127.564 Y129.537 E.16914
G1 X124.722 Y129.864 E.17136
G1 X122.337 Y129.514 E.14439
G1 X120.135 Y128.638 E.14196
G1 X117.763 Y126.864 E.17743
G1 X116.11 Y124.688 E.16369
G1 X115.221 Y122.557 E.13831
G1 X114.702 Y122.571 E.0311
G1 X114.624 Y122.978 E.02482
G1 X113.553 Y125.41 E.15918
G1 X112.016 Y127.361 E.14878
G1 X109.979 Y128.927 E.15391
G1 X107.237 Y130.032 E.17708
G1 X104.531 Y130.316 E.16298
G1 X101.908 Y129.895 E.15913
G1 X99.517 Y128.832 E.15674
G1 X97.395 Y127.113 E.16358
G1 X95.817 Y124.918 E.16193
G1 X94.958 Y122.728 E.14091
G1 X94.615 Y120.4 E.14095
G1 X97.952 Y99.942 E1.24164
G1 X98.787 Y98.172 E.11723
G1 X99.677 Y97.101 E.08341
G1 X99.943 Y97.322 F10200
G1 F1200
G1 X100.094 Y97.14 E.01417
G1 X101.356 Y96.188 E.09469
G1 X103.134 Y95.46 E.11509
G1 X104.66 Y95.252 E.09225
G1 X105.198 Y95.3 E.03235
G1 X105.326 Y94.582 E.04369
G1 X106.337 Y92.286 E.15027
G1 X107.807 Y90.408 E.14286
G1 X109.683 Y88.937 E.1428
G1 X112.288 Y87.84 E.16931
G1 X115.103 Y87.524 E.16968
G1 X117.422 Y87.878 E.14052
G1 X119.612 Y88.78 E.14187
G1 X121.716 Y90.365 E.15779
G1 X123.326 Y92.451 E.15784
G1 X124.312 Y94.877 E.15686
G1 X125.166 Y94.798 E.05137
G1 X126.927 Y95.071 E.10675
G1 X128.565 Y95.793 E.10723
G1 X129.933 Y96.891 E.10507
G1 X131.003 Y98.338 E.1078
G1 X131.64 Y99.932 E.10282
G1 X134.854 Y119.444 E1.18453
G1 X134.472 Y122.392 E.17806
G1 X133.492 Y124.667 E.14838
G1 X131.976 Y126.626 E.14838
G1 X130.019 Y128.147 E.14847
G1 X127.5 Y129.197 E.16347
G1 X124.749 Y129.519 E.16591
G1 X122.445 Y129.186 E.13945
G1 X120.283 Y128.326 E.13938
G1 X118.023 Y126.636 E.16904
G1 X116.398 Y124.497 E.16091
G1 X115.438 Y122.179 E.15029
G1 X114.956 Y122.245 E.02914
G1 X114.415 Y122.191 E.03257
G1 X114.299 Y122.86 E.04067
G1 X113.269 Y125.214 E.15391
G1 X111.759 Y127.13 E.14613
G1 X109.828 Y128.616 E.14595
G1 X107.176 Y129.692 E.17143
G1 X104.562 Y129.972 E.15748
G1 X102.027 Y129.571 E.15374
G1 X99.716 Y128.549 E.15136
G1 X97.661 Y126.892 E.15813
G1 X96.13 Y124.772 E.15664
G1 X95.286 Y122.621 E.13841
G1 X94.96 Y120.376 E.13589
G1 X98.288 Y100.022 E1.23541
G1 X99.066 Y98.376 E.10906
G1 X99.904 Y97.368 E.07852
G1 X100.167 Y97.585 F10200
G1 F1200
G1 X100.318 Y97.403 E.01417
G1 X101.546 Y96.477 E.09213
G1 X103.202 Y95.799 E.10719
G1 X104.686 Y95.596 E.08972
G1 X105.485 Y95.678 E.04811
G1 X105.65 Y94.7 E.05941
G1 X106.622 Y92.481 E.14511
G1 X108.065 Y90.638 E.14021
G1 X109.877 Y89.223 E.13771
G1 X112.351 Y88.18 E.16083
G1 X115.075 Y87.868 E.16424
G1 X117.31 Y88.205 E.13539
G1 X119.423 Y89.07 E.13677
G1 X121.458 Y90.595 E.15233
G1 X123.018 Y92.607 E.1525
G1 X123.934 Y94.76 E.14015
G1 X124.021 Y95.254 E.03005
G1 X125.136 Y95.142 E.06713
G1 X126.851 Y95.408 E.10396
G1 X128.404 Y96.099 E.10182
G1 X129.699 Y97.145 E.09972
G1 X130.691 Y98.487 E.09996
G1 X131.303 Y100.007 E.09815
G1 X134.509 Y119.475 E1.18185
G1 X134.146 Y122.278 E.1693
G1 X133.205 Y124.474 E.14311
G1 X131.747 Y126.368 E.14317
G1 X129.864 Y127.839 E.14313
G1 X127.434 Y128.858 E.15784
G1 X124.775 Y129.174 E.1604
G1 X122.554 Y128.858 E.13438
G1 X120.432 Y128.014 E.13679
G1 X118.283 Y126.408 E.1607
G1 X116.687 Y124.306 E.15809
G1 X115.829 Y122.227 E.13472
G1 X115.75 Y121.789 E.02666
G1 X114.931 Y121.9 E.04951
G1 X114.126 Y121.809 E.04853
G1 X113.974 Y122.743 E.05668
G1 X112.984 Y125.019 E.14867
G1 X111.531 Y126.87 E.14096
G1 X109.636 Y128.329 E.14326
G1 X107.115 Y129.352 E.16297
G1 X104.592 Y129.628 E.15203
G1 X102.145 Y129.246 E.14835
G1 X99.914 Y128.266 E.14596
G1 X97.926 Y126.671 E.15267
G1 X96.443 Y124.625 E.15137
G1 X95.625 Y122.551 E.13355
G1 X95.305 Y120.353 E.13305
G1 X98.625 Y100.101 E1.2293
G1 X99.346 Y98.579 E.10088
G1 X100.129 Y97.631 E.07365
G1 X100.395 Y97.851 F10200
G1 F1200
G1 X100.57 Y97.639 E.01647
G1 X101.735 Y96.766 E.0872
G1 X103.27 Y96.137 E.09937
G1 X104.711 Y95.941 E.08711
G1 X105.774 Y96.059 E.06407
G1 X105.975 Y94.817 E.07536
G1 X106.908 Y92.676 E.1399
G1 X108.294 Y90.896 E.13513
G1 X110.072 Y89.509 E.13508
G1 X112.416 Y88.52 E.15239
G1 X115.047 Y88.213 E.15867
G1 X117.2 Y88.533 E.13038
G1 X119.234 Y89.359 E.1315
G1 X121.232 Y90.857 E.14958
G1 X122.731 Y92.799 E.14695
G1 X123.608 Y94.874 E.13494
G1 X123.731 Y95.633 E.04606
G1 X125.106 Y95.487 E.08283
G1 X126.775 Y95.746 E.10117
G1 X128.241 Y96.404 E.09625
G1 X129.464 Y97.399 E.09444
G1 X130.38 Y98.637 E.09225
G1 X130.965 Y100.082 E.09338
G1 X134.165 Y119.506 E1.1792
G1 X133.819 Y122.165 E.16062
G1 X132.918 Y124.282 E.13782
G1 X131.516 Y126.11 E.138
G1 X129.708 Y127.53 E.13771
G1 X127.369 Y128.518 E.15209
G1 X124.801 Y128.83 E.15496
G1 X122.623 Y128.52 E.13178
G1 X120.581 Y127.702 E.13177
G1 X118.542 Y126.18 E.15241
G1 X116.997 Y124.154 E.15262
