; generated by PrusaSlicer 2.9.2 on 2025-11-13 at 04:24:23 UTC

; 

; external perimeters extrusion width = 0.42mm
; perimeters extrusion width = 0.44mm
; infill extrusion width = 0.44mm
; solid infill extrusion width = 0.44mm
; top infill extrusion width = 0.40mm
; support material extrusion width = 0.36mm
; first layer extrusion width = 0.42mm

M201 X500 Y500 Z100 E5000 ; sets maximum accelerations, mm/sec^2
M203 X500 Y500 Z10 E60 ; sets maximum feedrates, mm / sec
M204 S500 T1000 ; sets acceleration (S) and retract acceleration (R), mm/sec^2
M205 X8.00 Y8.00 Z0.40 E5.00 ; sets the jerk limits, mm/sec
M205 S0 T0 ; sets the minimum extruding and travel feed rate, mm/sec

; printing object WheelMold.stl id:0 copy 0
; stop printing object WheelMold.stl id:0 copy 0

;TYPE:Custom
G90 ; use absolute coordinates
M83 ; extruder relative mode
M104 S150 ; set temporary nozzle temp to prevent oozing during homing
M140 S100 ; set final bed temp
G4 S30 ; allow partial nozzle warmup
G28 ; home all axis
;G29 ; auto-bed-level (disabled for now)
G1 Z50 F240
G1 X2.0 Y10 F3000
M104 S245 ; set final nozzle temp
M190 S100 ; wait for bed temp to stabilize
M109 S245 ; wait for nozzle temp to stabilize
G1 Z0.28 F240
G92 E0
G1 X2.0 Y140 E10 F1500 ; prime the nozzle
G1 X2.3 Y140 F5000
G92 E0
G1 X2.3 Y10 E10 F1200 ; prime the nozzle
G92 E0
G21 ; set units to millimeters
G90 ; use absolute coordinates
M83 ; use relative distances for extrusion
; Filament gcode
M107
;LAYER_CHANGE
;Z:0.35
;HEIGHT:0.35
G1 E-5 F3600
G1 Z.35 F10200
G1 X88.815 Y88.815
G1 Z.35
G1 E5 F2400
M204 S500
;TYPE:Skirt/Brim
;WIDTH:0.42
G1 F1200
G1 X90.69 Y86.94 E.13308
G1 X93.177 Y85.632 E.14102
G1 X94.715 Y85.375 E.07826
G1 X115.443 Y85.378 E1.04025
G1 X117.529 Y85.884 E.10772
G1 X119.366 Y86.996 E.10777
G1 X128.053 Y95.684 E.61658
G1 X129.3 Y97.97 E.13068
G1 X129.625 Y99.698 E.08824
G1 X129.625 Y120.526 E1.04527
G1 X128.854 Y123.091 E.13442
G1 X127.893 Y124.477 E.08464
G1 X119.303 Y133.067 E.60966
G1 X116.428 Y134.488 E.16095
G1 X115.266 Y134.625 E.05872
G1 X94.474 Y134.625 E1.04347
G1 X91.909 Y133.854 E.13442
G1 X90.523 Y132.893 E.08464
G1 X81.933 Y124.303 E.60966
G1 X80.512 Y121.428 E.16095
G1 X80.375 Y120.266 E.05872
G1 X80.375 Y99.474 E1.04347
G1 X81.146 Y96.909 E.13442
G1 X82.107 Y95.523 E.08464
G1 X88.773 Y88.858 E.47307
G1 X89.017 Y89.101 F10200
G1 F1200
G1 X90.916 Y87.202 E.13478
G1 X93.262 Y85.967 E.13305
G1 X94.73 Y85.72 E.07471
G1 X115.422 Y85.723 E1.03845
G1 X117.421 Y86.212 E.10328
G1 X119.137 Y87.255 E.10078
G1 X127.792 Y95.91 E.61428
G1 X128.983 Y98.11 E.12555
G1 X129.28 Y99.714 E.08187
G1 X129.28 Y120.5 E1.04316
G1 X128.532 Y122.965 E.12928
G1 X127.638 Y124.243 E.07827
G1 X119.079 Y132.803 E.6075
G1 X116.358 Y134.149 E.15235
G1 X115.255 Y134.28 E.05574
G1 X94.5 Y134.28 E1.04161
G1 X92.035 Y133.532 E.12928
G1 X90.757 Y132.638 E.07827
G1 X82.197 Y124.079 E.6075
G1 X80.851 Y121.358 E.15235
G1 X80.72 Y120.255 E.05574
G1 X80.72 Y99.5 E1.04161
G1 X81.468 Y97.035 E.12928
G1 X82.362 Y95.757 E.07827
G1 X88.974 Y89.144 E.46931
G1 X89.218 Y89.388 F10200
G1 F1200
G1 X91.141 Y87.465 E.13648
G1 X93.397 Y86.286 E.12775
G1 X94.743 Y86.064 E.06846
G1 X115.401 Y86.068 E1.03674
G1 X117.265 Y86.521 E.09627
G1 X118.908 Y87.513 E.09632
G1 X127.53 Y96.136 E.61197
G1 X128.667 Y98.249 E.12042
G1 X128.936 Y99.729 E.07549
G1 X128.936 Y120.474 E1.04111
G1 X128.211 Y122.837 E.12405
G1 X127.384 Y124.01 E.07203
G1 X118.855 Y132.539 E.60533
G1 X116.287 Y133.81 E.1438
G1 X115.245 Y133.936 E.05267
G1 X94.526 Y133.936 E1.0398
G1 X92.163 Y133.211 E.12405
G1 X90.99 Y132.384 E.07203
G1 X82.461 Y123.855 E.60533
G1 X81.19 Y121.287 E.1438
G1 X81.064 Y120.245 E.05267
G1 X81.064 Y99.526 E1.0398
G1 X81.789 Y97.163 E.12405
G1 X82.616 Y95.99 E.07203
G1 X89.176 Y89.43 E.46559
G1 X89.42 Y89.674 F10200
G1 F1200
G1 X91.366 Y87.728 E.13811
G1 X93.53 Y86.605 E.12236
G1 X94.756 Y86.409 E.06231
G1 X115.381 Y86.413 E1.03508
G1 X117.111 Y86.83 E.08931
G1 X118.679 Y87.772 E.0918
G1 X127.268 Y96.361 E.60959
G1 X128.349 Y98.387 E.11524
G1 X128.591 Y99.744 E.06918
G1 X128.591 Y120.448 E1.03905
G1 X127.89 Y122.708 E.11875
G1 X127.13 Y123.776 E.06578
G1 X118.631 Y132.276 E.60324
G1 X116.217 Y133.472 E.1352
G1 X115.234 Y133.591 E.04969
G1 X94.552 Y133.591 E1.03795
G1 X92.292 Y132.89 E.11875
G1 X91.224 Y132.13 E.06578
G1 X82.724 Y123.631 E.60324
G1 X81.528 Y121.217 E.1352
G1 X81.409 Y120.234 E.04969
G1 X81.409 Y99.552 E1.03795
G1 X82.11 Y97.292 E.11875
G1 X82.87 Y96.224 E.06578
G1 X89.377 Y89.717 E.46183
G1 X89.621 Y89.96 F10200
G1 F1200
G1 X91.591 Y87.991 E.13978
G1 X93.662 Y86.925 E.1169
G1 X94.769 Y86.754 E.05621
G1 X115.36 Y86.758 E1.03338
G1 X117.003 Y87.159 E.08488
G1 X118.45 Y88.031 E.08479
G1 X127.006 Y96.587 E.60725
G1 X128.032 Y98.524 E.11001
G1 X128.246 Y99.758 E.06285
G1 X128.246 Y120.422 E1.03704
G1 X127.569 Y122.578 E.11341
G1 X126.877 Y123.542 E.05955
G1 X118.407 Y132.012 E.60115
G1 X116.145 Y133.133 E.1267
G1 X115.224 Y133.246 E.04657
G1 X94.578 Y133.246 E1.03614
G1 X92.422 Y132.569 E.11341
G1 X91.458 Y131.877 E.05955
G1 X82.988 Y123.407 E.60115
G1 X81.867 Y121.145 E.1267
G1 X81.754 Y120.224 E.04657
G1 X81.754 Y99.578 E1.03614
G1 X82.431 Y97.422 E.11341
G1 X83.123 Y96.458 E.05955
G1 X89.579 Y90.003 E.45817
G1 X89.822 Y90.247 F10200
G1 F1200
G1 X91.816 Y88.253 E.14152
G1 X93.743 Y87.261 E.10877
G1 X94.782 Y87.099 E.05277
G1 X115.339 Y87.102 E1.03167
G1 X116.849 Y87.468 E.07798
G1 X118.221 Y88.29 E.08027
G1 X126.743 Y96.813 E.60487
G1 X127.697 Y98.611 E.10215
G1 X127.901 Y99.773 E.05921
G1 X127.901 Y120.395 E1.03493
G1 X127.273 Y122.399 E.1054
G1 X126.623 Y123.308 E.05608
G1 X118.183 Y131.748 E.59902
G1 X116.074 Y132.794 E.11814
G1 X115.213 Y132.901 E.04354
G1 X94.605 Y132.901 E1.03423
G1 X92.601 Y132.273 E.1054
G1 X91.692 Y131.623 E.05608
G1 X83.252 Y123.183 E.59902
G1 X82.206 Y121.074 E.11814
G1 X82.099 Y120.213 E.04354
G1 X82.099 Y99.605 E1.03423
G1 X82.727 Y97.601 E.1054
G1 X83.377 Y96.692 E.05608
G1 X89.78 Y90.289 E.45444
G1 X90.024 Y90.533 F10200
G1 F1200
G1 X92.04 Y88.517 E.14308
G1 X93.874 Y87.581 E.10333
G1 X94.795 Y87.444 E.04673
G1 X115.318 Y87.447 E1.02997
G1 X116.741 Y87.797 E.07354
G1 X117.992 Y88.549 E.07325
G1 X126.481 Y97.038 E.60249
G1 X127.379 Y98.746 E.09684
G1 X127.556 Y99.787 E.05299
G1 X127.556 Y120.368 E1.03288
G1 X126.953 Y122.268 E.10004
G1 X126.37 Y123.073 E.04988
G1 X117.959 Y131.484 E.59696
G1 X116.002 Y132.456 E.10966
G1 X115.202 Y132.556 E.04046
G1 X94.632 Y132.556 E1.03232
G1 X92.732 Y131.953 E.10004
G1 X91.927 Y131.37 E.04988
G1 X83.516 Y122.959 E.59696
G1 X82.544 Y121.002 E.10966
G1 X82.444 Y120.202 E.04046
G1 X82.444 Y99.632 E1.03232
G1 X83.047 Y97.732 E.10004
G1 X83.63 Y96.927 E.04988
G1 X89.981 Y90.575 E.45079
G1 X90.225 Y90.819 F10200
G1 F1200
G1 X92.265 Y88.78 E.14475
G1 X93.953 Y87.918 E.09512
G1 X94.808 Y87.789 E.04339
G1 X115.298 Y87.792 E1.02831
G1 X116.587 Y88.107 E.06659
G1 X117.763 Y88.808 E.06871
G1 X126.218 Y97.263 E.60008
G1 X127.06 Y98.88 E.09149
G1 X127.211 Y99.801 E.04684
G1 X127.211 Y120.342 E1.03087
G1 X126.657 Y122.089 E.09198
G1 X126.116 Y122.84 E.04645
G1 X117.735 Y131.221 E.59483
G1 X115.93 Y132.117 E.10113
G1 X115.191 Y132.211 E.03739
G1 X94.658 Y132.211 E1.03047
G1 X92.911 Y131.657 E.09198
G1 X92.16 Y131.116 E.04645
G1 X83.779 Y122.735 E.59483
G1 X82.883 Y120.93 E.10113
G1 X82.789 Y120.191 E.03739
G1 X82.789 Y99.658 E1.03047
G1 X83.343 Y97.911 E.09198
G1 X83.884 Y97.16 E.04645
G1 X90.183 Y90.862 E.44703
G1 X90.427 Y91.106 F10200
G1 F1200
G1 X92.489 Y89.043 E.14638
G1 X94.083 Y88.239 E.0896
G1 X94.819 Y88.134 E.03731
G1 X115.276 Y88.137 E1.02665
G1 X116.478 Y88.435 E.06215
G1 X117.534 Y89.067 E.06176
G1 X125.956 Y97.488 E.5977
G1 X126.724 Y98.964 E.0835
G1 X126.866 Y99.815 E.0433
G1 X126.866 Y120.315 E1.02881
G1 X126.337 Y121.956 E.08653
G1 X125.863 Y122.605 E.04033
G1 X117.511 Y130.957 E.59277
G1 X115.857 Y131.779 E.09269
G1 X115.18 Y131.866 E.03426
G1 X94.685 Y131.866 E1.02856
G1 X93.044 Y131.337 E.08653
G1 X92.395 Y130.863 E.04033
G1 X84.043 Y122.511 E.59277
G1 X83.221 Y120.857 E.09269
G1 X83.134 Y120.18 E.03426
G1 X83.134 Y99.685 E1.02856
G1 X83.663 Y98.044 E.08653
G1 X84.137 Y97.395 E.04033
G1 X90.384 Y91.148 E.44337
G1 X90.628 Y91.392 F10200
G1 F1200
G1 X92.714 Y89.307 E.14802
G1 X94.16 Y88.576 E.08131
G1 X94.832 Y88.479 E.03407
G1 X115.256 Y88.482 E1.025
G1 X116.325 Y88.745 E.05525
G1 X117.306 Y89.326 E.05722
G1 X125.693 Y97.713 E.59526
G1 X126.404 Y99.097 E.07809
G1 X126.521 Y99.828 E.03715
G1 X126.521 Y120.288 E1.0268
G1 X126.042 Y121.775 E.0784
G1 X125.609 Y122.371 E.03697
G1 X117.287 Y130.693 E.59064
G1 X115.784 Y131.441 E.08425
G1 X115.169 Y131.521 E.03112
G1 X94.712 Y131.521 E1.02665
G1 X93.225 Y131.042 E.0784
G1 X92.63 Y130.609 E.03693
G1 X84.307 Y122.287 E.59068
G1 X83.559 Y120.784 E.08425
G1 X83.479 Y120.169 E.03112
G1 X83.479 Y99.712 E1.02665
G1 X83.958 Y98.225 E.0784
G1 X84.391 Y97.63 E.03693
G1 X90.586 Y91.434 E.43972
G1 X90.83 Y91.678 F10200
G1 F1200
G1 X92.938 Y89.57 E.14961
G1 X94.238 Y88.913 E.0731
G1 X94.845 Y88.824 E.03079
G1 X115.234 Y88.827 E1.02324
G1 X116.216 Y89.073 E.05081
G1 X117.077 Y89.585 E.05027
G1 X125.43 Y97.938 E.59284
G1 X126.069 Y99.179 E.07005
G1 X126.176 Y99.843 E.03375
G1 X126.176 Y120.26 E1.02465
G1 X125.724 Y121.64 E.07288
G1 X125.357 Y122.135 E.03093
G1 X117.062 Y130.43 E.58873
G1 X115.71 Y131.103 E.07579
G1 X115.157 Y131.176 E.02799
G1 X94.74 Y131.176 E1.02465
G1 X93.36 Y130.724 E.07288
G1 X92.865 Y130.357 E.03093
G1 X84.57 Y122.062 E.58873
G1 X83.897 Y120.71 E.07579
G1 X83.824 Y120.157 E.02799
G1 X83.824 Y99.74 E1.02465
G1 X84.276 Y98.36 E.07288
G1 X84.643 Y97.865 E.03093
G1 X90.787 Y91.721 E.43606
G1 X91.031 Y91.964 F10200
G1 F1200
G1 X93.162 Y89.834 E.15121
G1 X94.365 Y89.235 E.06744
G1 X94.855 Y89.168 E.02482
G1 X115.213 Y89.172 E1.02168
G1 X116.064 Y89.383 E.044
G1 X116.849 Y89.845 E.04571
G1 X125.166 Y98.162 E.59029
G1 X125.748 Y99.309 E.06455
G1 X125.832 Y99.855 E.02772
G1 X125.832 Y120.232 E1.02264
G1 X125.429 Y121.458 E.06477
G1 X125.104 Y121.901 E.02757
G1 X116.838 Y130.166 E.58663
G1 X115.635 Y130.765 E.06744
G1 X115.145 Y130.832 E.02482
G1 X94.768 Y130.832 E1.02264
G1 X93.542 Y130.429 E.06477
G1 X93.099 Y130.104 E.02757
G1 X84.834 Y121.838 E.58663
G1 X84.235 Y120.635 E.06744
G1 X84.168 Y120.145 E.02482
G1 X84.168 Y99.768 E1.02264
G1 X84.571 Y98.542 E.06477
G1 X84.896 Y98.099 E.02757
G1 X90.989 Y92.007 E.43241
G1 X91.233 Y92.251 F10200
G1 F1200
G1 X93.386 Y90.098 E.15281
G1 X94.44 Y89.573 E.05909
G1 X94.867 Y89.513 E.02164
G1 X115.192 Y89.517 E1.02003
G1 X115.913 Y89.694 E.03726
G1 X116.622 Y90.105 E.04113
G1 X124.903 Y98.386 E.58773
G1 X125.412 Y99.39 E.05649
G1 X125.487 Y99.869 E.02433
G1 X125.487 Y120.204 E1.02053
G1 X125.112 Y121.321 E.05913
G1 X124.852 Y121.664 E.0216
G1 X116.614 Y129.902 E.58468
G1 X115.56 Y130.427 E.05909
G1 X115.133 Y130.487 E.02164
G1 X94.796 Y130.487 E1.02063
G1 X93.679 Y130.112 E.05913
G1 X93.336 Y129.852 E.0216
G1 X85.098 Y121.614 E.58468
G1 X84.573 Y120.56 E.05909
G1 X84.513 Y120.133 E.02164
G1 X84.513 Y99.796 E1.02063
G1 X84.888 Y98.679 E.05913
G1 X85.148 Y98.336 E.0216
G1 X91.19 Y92.293 E.42886
G1 X91.434 Y92.537 F10200
G1 F1200
G1 X93.61 Y90.361 E.15444
G1 X94.517 Y89.91 E.05084
G1 X94.88 Y89.858 E.0184
G1 X115.172 Y89.862 E1.01837
G1 X115.763 Y90.006 E.03053
G1 X116.395 Y90.366 E.0365
G1 X124.639 Y98.61 E.58511
G1 X125.09 Y99.517 E.05084
G1 X125.142 Y99.88 E.0184
G1 X125.142 Y120.176 E1.01857
G1 X124.82 Y121.136 E.05082
G1 X124.6 Y121.429 E.01839
G1 X116.39 Y129.639 E.58269
G1 X115.483 Y130.09 E.05084
G1 X115.12 Y130.142 E.0184
G1 X94.824 Y130.142 E1.01857
G1 X93.864 Y129.82 E.05082
G1 X93.571 Y129.6 E.01839
G1 X85.361 Y121.39 E.58269
G1 X84.91 Y120.483 E.05084
G1 X84.858 Y120.12 E.0184
G1 X84.858 Y99.824 E1.01857
G1 X85.18 Y98.864 E.05082
G1 X85.4 Y98.571 E.01839
G1 X91.392 Y92.579 E.42527
G1 X91.645 Y92.831 F10200
G1 F1200
G1 X93.834 Y90.625 E.15597
G1 X94.594 Y90.247 E.0426
G1 X115.152 Y90.206 E1.03172
G1 X115.617 Y90.319 E.02402
G1 X116.168 Y90.627 E.03168
G1 X124.375 Y98.834 E.58248
G1 X124.753 Y99.594 E.0426
G1 X124.797 Y120.148 E1.03152
G1 X124.526 Y120.953 E.04263
G1 X116.166 Y129.375 E.59554
G1 X115.406 Y129.753 E.0426
G1 X94.852 Y129.797 E1.03152
G1 X94.047 Y129.526 E.04263
G1 X85.625 Y121.166 E.59554
G1 X85.247 Y120.406 E.0426
G1 X85.203 Y99.852 E1.03152
G1 X85.474 Y99.047 E.04263
G1 X91.602 Y92.873 E.43656
G1 X91.838 Y93.109 F10200
G1 F1200
G1 X94.058 Y90.889 E.15756
G1 X94.673 Y90.584 E.03445
G1 X94.906 Y90.548 E.01183
G1 X115.132 Y90.551 E1.01506
G1 X115.473 Y90.633 E.0176
G1 X115.942 Y90.889 E.02682
G1 X124.111 Y99.058 E.57978
G1 X124.416 Y99.673 E.03445
G1 X124.452 Y99.906 E.01183
G1 X124.452 Y120.12 E1.01446
G1 X124.232 Y120.77 E.03444
G1 X124.093 Y120.96 E.01181
G1 X115.942 Y129.111 E.57851
G1 X115.327 Y129.416 E.03445
G1 X115.094 Y129.452 E.01183
G1 X94.88 Y129.452 E1.01446
G1 X94.23 Y129.232 E.03444
G1 X94.04 Y129.093 E.01181
G1 X85.889 Y120.942 E.57851
G1 X85.584 Y120.327 E.03445
G1 X85.548 Y120.094 E.01183
G1 X85.548 Y99.88 E1.01446
G1 X85.768 Y99.23 E.03444
G1 X85.907 Y99.04 E.01181
G1 X91.795 Y93.151 E.41793
G1 X92.045 Y93.4 F10200
G1 F1200
G1 X94.282 Y91.153 E.15912
G1 X94.754 Y90.92 E.02642
G1 X115.112 Y90.896 E1.02169
G1 X115.718 Y91.152 E.03302
G1 X123.847 Y99.282 E.57698
G1 X124.08 Y99.754 E.02642
G1 X124.107 Y120.091 E1.02063
G1 X123.938 Y120.59 E.02644
G1 X115.718 Y128.847 E.58472
G1 X115.246 Y129.08 E.02642
G1 X94.909 Y129.107 E1.02063
G1 X94.41 Y128.938 E.02644
G1 X86.153 Y120.718 E.58472
G1 X85.92 Y120.246 E.02642
G1 X85.893 Y99.909 E1.02063
G1 X86.062 Y99.41 E.02644
G1 X92.003 Y93.442 E.42261
G1 X92.241 Y93.681 F10200
G1 F1200
G1 X94.505 Y91.417 E.16068
G1 X94.937 Y91.238 E.02347
G1 X115.197 Y91.266 E1.01677
G1 X115.494 Y91.416 E.0167
G1 X123.583 Y99.505 E.57411
G1 X123.762 Y99.937 E.02347
G1 X123.762 Y120.062 E1.00999
G1 X123.584 Y120.494 E.02345
G1 X115.495 Y128.583 E.57411
G1 X115.063 Y128.762 E.02347
G1 X94.938 Y128.762 E1.00999
G1 X94.506 Y128.584 E.02345
G1 X86.417 Y120.495 E.57411
G1 X86.238 Y120.063 E.02347
G1 X86.238 Y99.938 E1.00999
G1 X86.416 Y99.506 E.02345
G1 X92.199 Y93.723 E.41044
G1 X92.444 Y93.968 F10200
G1 F1200
G1 X94.727 Y91.683 E.1621
G1 X94.927 Y91.588 E.01111
G1 X115.073 Y91.588 E1.01105
G1 X115.273 Y91.683 E.01111
G1 X123.317 Y99.727 E.57091
G1 X123.412 Y99.927 E.01111
G1 X123.417 Y120.031 E1.00894
G1 X123.343 Y120.239 E.01108
G1 X115.273 Y128.317 E.57304
G1 X115.073 Y128.412 E.01111
G1 X94.969 Y128.417 E1.00894
G1 X94.761 Y128.343 E.01108
G1 X86.683 Y120.273 E.57304
G1 X86.588 Y120.073 E.01111
G1 X86.583 Y99.969 E1.00894
G1 X86.657 Y99.761 E.01108
G1 X92.402 Y94.011 E.40792
G1 X92.657 Y94.267 F10200
G1 F1200
G1 X95.007 Y91.928 E.1664
G1 X114.993 Y91.928 E1.00302
G1 X123.072 Y100.007 E.5734
G1 X123.046 Y120.056 E1.00618
G1 X114.993 Y128.072 E.57024
G1 X94.944 Y128.046 E1.00618
G1 X86.928 Y119.993 E.57024
G1 X86.954 Y99.944 E1.00618
G1 X92.614 Y94.309 E.40082
G1 E-3.5 F3600
;WIPE_START
G1 F8160
G1 X92.657 Y94.267 E-.02519
G1 X95.007 Y91.928 E-1.38964
G1 X95.21 Y91.928 E-.08517
;WIPE_END
; printing object WheelMold.stl id:0 copy 0
G1 X97.051 Y99.715 F10200
G1 E5 F2400
;TYPE:Perimeter
;WIDTH:0.42
G1 F1200
G1 X97.064 Y99.704 E.00085
G1 X97.754 Y99.207 E.04268
G1 X98.378 Y98.817 E.03693
G1 X99.225 Y98.354 E.04844
G1 X99.999 Y98.001 E.04269
G1 X100.795 Y97.7 E.04271
G1 X101.608 Y97.451 E.04267
G1 X102.436 Y97.256 E.04269
G1 X103.275 Y97.116 E.04269
G1 X104.122 Y97.03 E.04273
G1 X104.972 Y97.001 E.04268
G1 X105.822 Y97.027 E.04268
G1 X106.669 Y97.108 E.0427
G1 X107.508 Y97.245 E.04266
G1 X108.337 Y97.436 E.04269
G1 X109.152 Y97.681 E.04271
G1 X109.949 Y97.979 E.0427
G1 X110.724 Y98.329 E.04268
G1 X111.475 Y98.728 E.04268
G1 X112.199 Y99.176 E.04273
G1 X112.891 Y99.67 E.04267
G1 X113.55 Y100.208 E.04269
G1 X114.172 Y100.788 E.04268
G1 X114.755 Y101.408 E.04271
G1 X115.296 Y102.064 E.04267
G1 X115.793 Y102.754 E.04268
G1 X116.183 Y103.378 E.03693
G1 X116.646 Y104.225 E.04844
G1 X116.999 Y104.999 E.04269
G1 X117.3 Y105.795 E.04271
G1 X117.549 Y106.608 E.04267
