; generated by PrusaSlicer 2.9.2 on 2025-11-14 at 03:38:04 UTC

; 

; external perimeters extrusion width = 0.42mm
; perimeters extrusion width = 0.44mm
; infill extrusion width = 0.44mm
; solid infill extrusion width = 0.44mm
; top infill extrusion width = 0.40mm
; first layer extrusion width = 0.42mm

; external perimeters extrusion width = 0.42mm
; perimeters extrusion width = 0.44mm
; infill extrusion width = 0.44mm
; solid infill extrusion width = 0.44mm
; top infill extrusion width = 0.40mm
; first layer extrusion width = 0.42mm

M201 X500 Y500 Z100 E5000 ; sets maximum accelerations, mm/sec^2
M203 X500 Y500 Z10 E60 ; sets maximum feedrates, mm / sec
M204 S500 T1000 ; sets acceleration (S) and retract acceleration (R), mm/sec^2
M205 X8.00 Y8.00 Z0.40 E5.00 ; sets the jerk limits, mm/sec
M205 S0 T0 ; sets the minimum extruding and travel feed rate, mm/sec

; printing object BackCap.stl id:0 copy 0
; stop printing object BackCap.stl id:0 copy 0
; printing object FrontScoop.stl id:1 copy 0
; stop printing object FrontScoop.stl id:1 copy 0

;TYPE:Custom
G90 ; use absolute coordinates
M83 ; extruder relative mode
M104 S150 ; set temporary nozzle temp to prevent oozing during homing
M140 S80 ; set final bed temp
G4 S30 ; allow partial nozzle warmup
G28 ; home all axis
G1 Z50 F240
G1 X2.0 Y10 F3000
M104 S230 ; set final nozzle temp
M190 S80 ; wait for bed temp to stabilize
M109 S230 ; wait for nozzle temp to stabilize
G1 Z0.28 F240
G92 E0
G1 X2.0 Y140 E10 F1500 ; prime the nozzle
G1 X2.3 Y140 F5000
G92 E0
G1 X2.3 Y10 E10 F1200 ; prime the nozzle
G92 E0
G21 ; set units to millimeters
G90 ; use absolute coordinates
M83 ; use relative distances for extrusion
; Filament gcode
M107
;LAYER_CHANGE
;Z:0.4
;HEIGHT:0.4
G1 E-1 F3600
G1 Z.4 F10200
G1 X89.946 Y76.347
G1 Z.4
G1 E1 F2400
M204 S500
;TYPE:Skirt/Brim
;WIDTH:0.42
G1 F1200
G1 X91.166 Y75.042 E.09927
G1 X92.668 Y74.108 E.09829
G1 X94.407 Y73.622 E.10034
G1 X115.878 Y73.611 E1.19316
G1 X117.41 Y73.972 E.08747
G1 X118.805 Y74.705 E.08757
G1 X120.12 Y75.918 E.09942
G1 X121.086 Y77.438 E.10008
G1 X121.59 Y79.27 E.10559
G1 X121.565 Y85.912 E.3691
G1 X121.127 Y87.463 E.08956
G1 X120.336 Y88.821 E.08733
G1 X118.889 Y90.233 E.11235
G1 X117.622 Y90.94 E.08063
G1 X115.891 Y91.392 E.09942
G1 X112.49 Y91.409 E.189
G1 X112.49 Y103.097 E.64951
G1 X116.605 Y109.563 E.42592
G1 X121.974 Y109.603 E.29837
G1 X123.379 Y109.976 E.08078
G1 X124.36 Y110.471 E.06106
G1 X125.237 Y111.125 E.06079
G1 X126.349 Y112.41 E.09443
G1 X127.111 Y113.857 E.09088
G1 X127.463 Y115.432 E.08968
G1 X127.406 Y117.012 E.08786
G1 X126.432 Y121.028 E.22964
G1 X124.896 Y126.766 E.33009
G1 X123.048 Y132.053 E.31123
G1 X120.826 Y136.181 E.26052
G1 X119.575 Y137.346 E.095
G1 X118.514 Y137.957 E.06804
G1 X117.351 Y138.38 E.06877
G1 X108.593 Y138.545 E.48678
G1 X106.982 Y138.191 E.09166
G1 X105.64 Y137.548 E.08269
G1 X103.647 Y135.545 E.15702
G1 X103.041 Y134.309 E.0765
G1 X102.919 Y133.838 E.02704
G1 X102.635 Y133.865 E.01585
G1 X102.476 Y136.343 E.13799
G1 X101.638 Y138.417 E.12431
G1 X98.837 Y141.983 E.25199
G1 X98.022 Y143.153 E.07924
G1 X97.353 Y143.978 E.05903
G1 X96.259 Y145.098 E.087
G1 X94.905 Y145.944 E.08872
G1 X93.388 Y146.422 E.08839
G1 X90.418 Y146.21 E.16547
G1 X88.114 Y145.066 E.14295
G1 X87.264 Y144.248 E.06556
G1 X86.555 Y143.285 E.06645
G1 X85.844 Y141.408 E.11154
G1 X85.716 Y139.496 E.10649
G1 X85.962 Y136.627 E.16002
G1 X88.788 Y84.825 E2.88296
G1 X88.788 Y79.588 E.29102
G1 X89.111 Y77.974 E.09147
G1 X89.919 Y76.401 E.09827
G1 X90.215 Y76.554 F10200
G1 F1200
G1 X90.232 Y76.522 E.00201
G1 X91.394 Y75.287 E.09423
G1 X92.823 Y74.405 E.09332
G1 X94.474 Y73.95 E.09517
G1 X115.821 Y73.941 E1.18627
G1 X117.275 Y74.278 E.08294
G1 X118.595 Y74.966 E.08272
G1 X119.877 Y76.149 E.09694
G1 X120.79 Y77.595 E.09503
G1 X121.255 Y79.292 E.09778
G1 X121.231 Y85.887 E.36649
G1 X120.812 Y87.35 E.08457
G1 X120.059 Y88.632 E.08262
G1 X118.706 Y89.953 E.10508
G1 X117.517 Y90.622 E.07581
G1 X115.827 Y91.063 E.09706
G1 X112.156 Y91.076 E.204
G1 X112.156 Y103.194 E.67341
G1 X116.42 Y109.895 E.44138
G1 X121.95 Y109.937 E.30732
G1 X123.244 Y110.282 E.07442
G1 X124.174 Y110.748 E.05781
G1 X124.997 Y111.358 E.05693
G1 X126.063 Y112.584 E.09028
G1 X126.791 Y113.953 E.08616
G1 X127.129 Y115.443 E.0849
G1 X127.078 Y116.95 E.08379
G1 X126.109 Y120.944 E.22839
G1 X124.575 Y126.674 E.32963
G1 X122.737 Y131.93 E.30942
G1 X120.577 Y135.956 E.25389
G1 X119.39 Y137.066 E.09031
G1 X118.384 Y137.649 E.06461
G1 X117.316 Y138.046 E.06332
G1 X108.607 Y138.21 E.48405
G1 X107.073 Y137.869 E.08733
G1 X105.856 Y137.291 E.07487
G1 X103.904 Y135.33 E.15376
G1 X103.35 Y134.181 E.07089
G1 X103.027 Y132.891 E.0739
G1 X103.009 Y127.877 E.27863
G1 X102.686 Y127.868 E.01796
G1 X102.144 Y136.294 E.46921
G1 X101.337 Y138.269 E.11856
G1 X98.569 Y141.784 E.24863
G1 X97.759 Y142.948 E.0788
G1 X97.108 Y143.75 E.0574
G1 X96.034 Y144.85 E.08543
G1 X94.747 Y145.649 E.08418
G1 X93.319 Y146.094 E.08312
G1 X90.536 Y145.896 E.15504
G1 X88.327 Y144.807 E.13686
G1 X87.506 Y144.018 E.06328
G1 X86.838 Y143.107 E.06278
G1 X86.166 Y141.314 E.10641
G1 X86.05 Y139.484 E.1019
G1 X86.296 Y136.648 E.15819
G1 X89.122 Y84.834 E2.88363
G1 X89.122 Y79.605 E.29058
G1 X89.434 Y78.063 E.08743
G1 X90.188 Y76.607 E.09112
G1 X90.48 Y76.757 F10200
G1 F1200
G1 X90.492 Y76.733 E.00149
G1 X91.589 Y75.56 E.08925
G1 X92.978 Y74.702 E.09073
G1 X94.54 Y74.279 E.08993
G1 X115.766 Y74.271 E1.17955
G1 X117.141 Y74.585 E.07838
G1 X118.386 Y75.228 E.07787
G1 X119.607 Y76.346 E.092
G1 X120.494 Y77.752 E.09238
G1 X120.921 Y79.313 E.08993
G1 X120.897 Y85.863 E.36399
G1 X120.497 Y87.236 E.07947
G1 X119.783 Y88.443 E.07793
G1 X118.522 Y89.673 E.09789
G1 X117.411 Y90.305 E.07103
G1 X115.764 Y90.735 E.09459
G1 X111.821 Y90.742 E.21912
G1 X111.821 Y103.291 E.69736
G1 X116.236 Y110.228 E.45695
G1 X121.926 Y110.271 E.31621
G1 X123.11 Y110.589 E.06813
G1 X123.988 Y111.026 E.0545
G1 X124.758 Y111.592 E.05311
G1 X125.778 Y112.759 E.08613
G1 X126.47 Y114.051 E.08145
G1 X126.794 Y115.454 E.08002
G1 X126.749 Y116.889 E.07978
G1 X125.786 Y120.859 E.22701
G1 X124.254 Y126.581 E.32918
G1 X122.426 Y131.807 E.30767
G1 X120.296 Y135.773 E.25017
G1 X119.178 Y136.808 E.08466
G1 X118.252 Y137.342 E.0594
G1 X117.28 Y137.713 E.05782
G1 X108.66 Y137.88 E.47911
G1 X107.164 Y137.547 E.08517
G1 X106.026 Y137.003 E.07009
G1 X104.192 Y135.159 E.14453
G1 X103.67 Y134.083 E.06646
G1 X103.356 Y132.83 E.07178
G1 X103.328 Y121.708 E.61806
G1 X102.748 Y121.707 E.03223
G1 X101.812 Y136.245 E.80956
G1 X101.061 Y138.08 E.11018
G1 X98.3 Y141.585 E.24795
G1 X97.495 Y142.742 E.07833
G1 X96.863 Y143.523 E.05583
G1 X95.839 Y144.578 E.0817
G1 X94.627 Y145.336 E.07944
G1 X93.25 Y145.766 E.08017
G1 X90.654 Y145.582 E.14462
G1 X88.539 Y144.548 E.13083
G1 X87.767 Y143.808 E.05943
G1 X87.122 Y142.928 E.06063
G1 X86.488 Y141.222 E.10114
G1 X86.384 Y139.474 E.09731
G1 X86.629 Y136.668 E.15653
G1 X89.456 Y84.843 E2.88424
G1 X89.456 Y79.621 E.29019
G1 X89.742 Y78.195 E.08082
G1 X90.452 Y76.811 E.08644
G1 X90.749 Y76.964 F10200
G1 F1200
G1 X90.778 Y76.908 E.0035
G1 X91.816 Y75.806 E.08413
G1 X93.131 Y75 E.08571
G1 X94.604 Y74.607 E.08472
G1 X115.711 Y74.601 E1.17294
G1 X117.008 Y74.892 E.07387
G1 X118.177 Y75.49 E.07297
G1 X119.364 Y76.577 E.08944
G1 X120.198 Y77.908 E.08729
G1 X120.587 Y79.334 E.08214
G1 X120.563 Y85.837 E.36138
G1 X120.183 Y87.12 E.07436
G1 X119.508 Y88.252 E.07324
G1 X118.306 Y89.418 E.09306
G1 X117.266 Y90.003 E.06631
G1 X115.742 Y90.4 E.08752
G1 X111.487 Y90.409 E.23645
G1 X111.487 Y103.388 E.72125
G1 X116.052 Y110.561 E.47249
G1 X121.902 Y110.605 E.3251
G1 X122.977 Y110.896 E.06189
G1 X123.803 Y111.305 E.05122
G1 X124.52 Y111.827 E.04929
G1 X125.493 Y112.935 E.08194
G1 X126.15 Y114.149 E.07671
G1 X126.459 Y115.467 E.07523
G1 X126.42 Y116.827 E.07561
G1 X125.463 Y120.775 E.22575
G1 X123.933 Y126.489 E.32872
G1 X122.115 Y131.685 E.30591
G1 X120.048 Y135.547 E.24342
G1 X118.993 Y136.529 E.08009
G1 X118.12 Y137.035 E.05607
G1 X117.188 Y137.39 E.05542
G1 X108.674 Y137.545 E.47321
G1 X107.257 Y137.226 E.08071
G1 X106.197 Y136.714 E.06542
G1 X104.48 Y134.988 E.13529
G1 X103.99 Y133.984 E.06208
G1 X103.685 Y132.768 E.06967
G1 X103.661 Y121.374 E.63318
G1 X102.434 Y121.373 E.06819
G1 X101.481 Y136.196 E.82543
G1 X100.761 Y137.93 E.10434
G1 X98.031 Y141.386 E.24474
G1 X97.231 Y142.537 E.07789
G1 X96.617 Y143.296 E.05425
G1 X95.644 Y144.305 E.07789
G1 X94.468 Y145.041 E.07709
G1 X93.181 Y145.437 E.07483
G1 X90.77 Y145.267 E.13431
G1 X88.751 Y144.288 E.12469
G1 X88.009 Y143.577 E.05711
G1 X87.405 Y142.75 E.05691
G1 X86.81 Y141.13 E.0959
G1 X86.718 Y139.464 E.09272
G1 X86.963 Y136.689 E.15481
G1 X89.79 Y84.852 E2.88491
G1 X89.79 Y79.638 E.28975
G1 X90.065 Y78.285 E.07672
G1 X90.721 Y77.018 E.07929
G1 X91.017 Y77.172 F10200
G1 F1200
G1 X91.063 Y77.084 E.00552
G1 X92.043 Y76.052 E.07909
G1 X93.283 Y75.299 E.08062
G1 X94.668 Y74.936 E.07957
G1 X115.657 Y74.931 E1.16638
G1 X116.877 Y75.2 E.06942
G1 X117.969 Y75.753 E.06802
G1 X119.094 Y76.775 E.08446
G1 X119.882 Y78.022 E.08197
G1 X120.253 Y79.356 E.07695
G1 X120.229 Y85.811 E.35871
G1 X119.87 Y87.003 E.06918
G1 X119.233 Y88.06 E.06858
G1 X118.09 Y89.162 E.08823
G1 X117.122 Y89.7 E.06154
G1 X115.72 Y90.066 E.08052
G1 X111.153 Y90.075 E.25379
G1 X111.153 Y103.486 E.74526
G1 X115.867 Y110.894 E.48795
G1 X121.877 Y110.939 E.33399
G1 X122.872 Y111.213 E.05735
G1 X123.619 Y111.584 E.04635
G1 X124.281 Y112.062 E.04538
G1 X125.23 Y113.142 E.07989
G1 X125.83 Y114.249 E.06997
G1 X126.125 Y115.48 E.07034
G1 X126.091 Y116.766 E.07149
G1 X125.139 Y120.69 E.22439
G1 X123.612 Y126.396 E.32825
G1 X121.804 Y131.563 E.30421
G1 X119.8 Y135.322 E.23672
G1 X118.809 Y136.25 E.07545
G1 X117.988 Y136.728 E.05279
G1 X117.096 Y137.067 E.05303
G1 X108.689 Y137.211 E.46725
G1 X107.351 Y136.904 E.07629
G1 X106.369 Y136.426 E.06069
G1 X104.768 Y134.815 E.12621
G1 X104.31 Y133.885 E.05761
G1 X104.014 Y132.707 E.0675
G1 X103.995 Y121.041 E.64829
G1 X102.121 Y121.038 E.10414
G1 X101.149 Y136.146 E.8413
G1 X100.462 Y137.779 E.09845
G1 X97.763 Y141.186 E.24154
G1 X96.968 Y142.332 E.07751
G1 X95.448 Y144.034 E.12681
G1 X94.349 Y144.729 E.07226
G1 X93.112 Y145.109 E.07191
G1 X90.886 Y144.952 E.12401
G1 X88.962 Y144.028 E.11861
G1 X88.27 Y143.368 E.05314
G1 X87.689 Y142.573 E.05472
G1 X87.133 Y141.04 E.09062
G1 X87.052 Y139.456 E.08814
G1 X87.296 Y136.71 E.1532
G1 X90.124 Y84.862 E2.88552
G1 X90.124 Y79.655 E.28936
G1 X90.387 Y78.375 E.07262
G1 X90.989 Y77.225 E.07213
G1 X91.28 Y77.376 F10200
G1 F1200
G1 X91.322 Y77.296 E.00502
G1 X92.269 Y76.299 E.07641
G1 X93.434 Y75.598 E.07556
G1 X94.73 Y75.265 E.07436
G1 X115.604 Y75.262 E1.15999
G1 X116.747 Y75.508 E.06497
G1 X117.763 Y76.017 E.06315
G1 X118.825 Y76.974 E.07944
G1 X119.568 Y78.137 E.07669
G1 X119.918 Y79.379 E.07171
G1 X119.895 Y85.785 E.35599
G1 X119.557 Y86.884 E.0639
G1 X118.959 Y87.868 E.06399
G1 X117.875 Y88.905 E.08336
G1 X116.98 Y89.397 E.05676
G1 X115.698 Y89.732 E.07363
G1 X110.819 Y89.741 E.27113
G1 X110.819 Y103.583 E.76921
G1 X115.683 Y111.227 E.50349
G1 X121.852 Y111.273 E.34283
G1 X122.766 Y111.53 E.05276
G1 X123.436 Y111.864 E.0416
G1 X124.043 Y112.298 E.04147
G1 X124.967 Y113.348 E.07773
G1 X125.51 Y114.348 E.06323
G1 X125.795 Y115.536 E.06789
G1 X125.762 Y116.704 E.06493
G1 X124.816 Y120.606 E.22312
G1 X123.29 Y126.304 E.3278
G1 X121.492 Y131.44 E.3024
G1 X119.55 Y135.098 E.23015
G1 X118.624 Y135.971 E.07072
G1 X117.832 Y136.432 E.05093
G1 X117.005 Y136.745 E.04914
G1 X108.705 Y136.877 E.4613
G1 X107.446 Y136.583 E.07185
G1 X106.542 Y136.139 E.05597
G1 X105.055 Y134.642 E.11726
G1 X104.629 Y133.786 E.05313
G1 X104.343 Y132.646 E.06531
G1 X104.329 Y120.707 E.66346
G1 X101.808 Y120.704 E.14009
G1 X100.817 Y136.096 E.85712
G1 X100.164 Y137.627 E.09249
G1 X97.495 Y140.987 E.23846
G1 X96.704 Y142.127 E.07711
G1 X95.251 Y143.764 E.12164
G1 X94.228 Y144.416 E.06741
G1 X93.044 Y144.78 E.06884
G1 X91.001 Y144.637 E.11381
G1 X89.173 Y143.767 E.1125
G1 X88.511 Y143.137 E.05078
G1 X87.974 Y142.396 E.05085
G1 X87.456 Y140.951 E.0853
G1 X87.386 Y139.449 E.08356
G1 X87.63 Y136.731 E.15165
G1 X90.458 Y84.871 E2.88619
G1 X90.458 Y79.672 E.28891
G1 X90.695 Y78.508 E.06601
G1 X91.253 Y77.43 E.06746
G1 X91.548 Y77.584 F10200
G1 F1200
G1 X91.606 Y77.473 E.00696
G1 X92.494 Y76.547 E.0713
G1 X93.583 Y75.897 E.07048
G1 X94.791 Y75.594 E.06921
G1 X115.552 Y75.592 E1.15371
G1 X116.618 Y75.818 E.06056
G1 X117.558 Y76.281 E.05823
G1 X118.557 Y77.175 E.0745
G1 X119.254 Y78.254 E.07138
G1 X119.584 Y79.402 E.06638
G1 X119.568 Y85.71 E.35054
G1 X119.244 Y86.765 E.06133
G1 X118.686 Y87.674 E.05927
G1 X117.662 Y88.647 E.0785
G1 X116.839 Y89.094 E.05205
G1 X115.676 Y89.398 E.0668
G1 X110.485 Y89.408 E.28847
G1 X110.485 Y103.68 E.79311
G1 X115.499 Y111.559 E.51898
G1 X121.826 Y111.607 E.35161
G1 X122.658 Y111.847 E.04812
G1 X123.254 Y112.145 E.03703
G1 X123.806 Y112.534 E.03753
G1 X124.704 Y113.555 E.07556
G1 X125.191 Y114.449 E.05657
G1 X125.46 Y115.551 E.06304
G1 X125.433 Y116.643 E.0607
G1 X124.493 Y120.521 E.22174
G1 X122.969 Y126.211 E.32734
G1 X121.181 Y131.318 E.30069
G1 X119.3 Y134.875 E.2236
G1 X118.438 Y135.692 E.066
G1 X117.701 Y136.124 E.04747
G1 X116.914 Y136.422 E.04676
G1 X108.721 Y136.542 E.45534
G1 X107.542 Y136.263 E.06733
G1 X106.715 Y135.852 E.05132
G1 X105.341 Y134.469 E.10834
G1 X104.949 Y133.687 E.04861
G1 X104.673 Y132.584 E.06318
G1 X104.662 Y120.373 E.67858
G1 X101.494 Y120.369 E.17605
G1 X100.486 Y136.045 E.87293
G1 X99.866 Y137.474 E.08656
G1 X97.226 Y140.787 E.23541
G1 X96.44 Y141.922 E.07672
G1 X95.053 Y143.493 E.11646
G1 X94.068 Y144.122 E.06495
G1 X92.977 Y144.452 E.06334
G1 X91.115 Y144.322 E.10372
G1 X89.384 Y143.507 E.10632
G1 X88.753 Y142.905 E.04846
G1 X88.259 Y142.221 E.04689
G1 X87.779 Y140.864 E.07999
G1 X87.72 Y139.444 E.07898
G1 X87.963 Y136.752 E.15021
G1 X90.793 Y84.88 E2.88686
G1 X90.793 Y79.689 E.28847
G1 X91.017 Y78.599 E.06184
G1 X91.52 Y77.637 E.06033
G1 X91.812 Y77.788 F10200
G1 F1200
G1 X91.865 Y77.685 E.00644
G1 X92.687 Y76.821 E.06627
G1 X93.689 Y76.215 E.06507
G1 X94.853 Y75.923 E.06669
G1 X115.535 Y75.926 E1.14932
G1 X116.491 Y76.127 E.05429
G1 X117.354 Y76.547 E.05334
G1 X118.29 Y77.377 E.06952
G1 X118.94 Y78.372 E.06605
G1 X119.25 Y79.426 E.06105
G1 X119.241 Y85.637 E.34515
G1 X118.947 Y86.611 E.05654
G1 X118.44 Y87.447 E.05433
G1 X117.448 Y88.389 E.07602
G1 X116.699 Y88.79 E.04721
G1 X115.654 Y89.064 E.06003
G1 X110.151 Y89.074 E.30581
G1 X110.151 Y103.778 E.81711
G1 X115.314 Y111.892 E.53445
G1 X121.799 Y111.941 E.36039
G1 X122.548 Y112.163 E.04341
G1 X123.569 Y112.77 E.06601
G1 X124.441 Y113.762 E.0734
G1 X124.872 Y114.551 E.04996
G1 X125.126 Y115.567 E.0582
G1 X125.104 Y116.582 E.05642
G1 X124.169 Y120.437 E.22044
G1 X122.648 Y126.119 E.32687
G1 X120.87 Y131.196 E.29893
G1 X119.05 Y134.652 E.21706
G1 X118.251 Y135.414 E.06136
G1 X117.569 Y135.817 E.04402
G1 X116.823 Y136.099 E.04432
G1 X108.738 Y136.208 E.44933
G1 X107.64 Y135.943 E.06277
G1 X106.89 Y135.566 E.04665
G1 X105.627 Y134.294 E.09961
G1 X105.269 Y133.587 E.04404
G1 X105.002 Y132.523 E.06096
G1 X104.997 Y120.039 E.69375
G1 X101.181 Y120.035 E.21206
G1 X100.154 Y135.994 E.88869
G1 X99.57 Y137.318 E.08042
G1 X96.965 Y140.579 E.23194
G1 X95.628 Y142.398 E.12545
G1 X94.854 Y143.224 E.0629
G1 X93.949 Y143.809 E.05988
G1 X92.909 Y144.123 E.06037
G1 X91.228 Y144.006 E.09364
G1 X89.594 Y143.245 E.10017
G1 X89.015 Y142.697 E.0443
G1 X88.545 Y142.045 E.04466
G1 X88.103 Y140.779 E.07452
G1 X88.055 Y139.44 E.07446
G1 X88.297 Y136.772 E.14887
G1 X91.127 Y84.889 E2.88747
G1 X91.127 Y79.705 E.28808
G1 X91.325 Y78.731 E.05523
G1 X91.785 Y77.841 E.05567
G1 X92.08 Y77.996 F10200
G1 F1200
G1 X92.15 Y77.862 E.0084
G1 X92.912 Y77.069 E.06112
G1 X93.839 Y76.515 E.06001
G1 X94.873 Y76.257 E.05922
G1 X115.518 Y76.26 E1.14726
G1 X116.366 Y76.438 E.04815
G1 X117.151 Y76.814 E.04837
G1 X118.024 Y77.581 E.06458
G1 X118.628 Y78.493 E.06079
G1 X118.916 Y79.451 E.05559
G1 X118.914 Y85.566 E.33982
G1 X118.65 Y86.456 E.05159
G1 X118.166 Y87.254 E.05186
G1 X117.236 Y88.13 E.071
