; generated by PrusaSlicer 2.9.2 on 2025-11-13 at 15:09:08 UTC

; 

; external perimeters extrusion width = 0.42mm
; perimeters extrusion width = 0.44mm
; infill extrusion width = 0.44mm
; solid infill extrusion width = 0.44mm
; top infill extrusion width = 0.40mm
; first layer extrusion width = 0.42mm

M201 X500 Y500 Z100 E5000 ; sets maximum accelerations, mm/sec^2
M203 X500 Y500 Z10 E60 ; sets maximum feedrates, mm / sec
M204 S500 T1000 ; sets acceleration (S) and retract acceleration (R), mm/sec^2
M205 X8.00 Y8.00 Z0.40 E5.00 ; sets the jerk limits, mm/sec
M205 S0 T0 ; sets the minimum extruding and travel feed rate, mm/sec

; printing object ServoArm.stl id:0 copy 0
; stop printing object ServoArm.stl id:0 copy 0

;TYPE:Custom
G90 ; use absolute coordinates
M83 ; extruder relative mode
M104 S150 ; set temporary nozzle temp to prevent oozing during homing
M140 S80 ; set final bed temp
G4 S30 ; allow partial nozzle warmup
G28 ; home all axis
G1 Z50 F240
G1 X2.0 Y10 F3000
M104 S230 ; set final nozzle temp
M190 S80 ; wait for bed temp to stabilize
M109 S230 ; wait for nozzle temp to stabilize
G1 Z0.28 F240
G92 E0
G1 X2.0 Y140 E10 F1500 ; prime the nozzle
G1 X2.3 Y140 F5000
G92 E0
G1 X2.3 Y10 E10 F1200 ; prime the nozzle
G92 E0
G21 ; set units to millimeters
G90 ; use absolute coordinates
M83 ; use relative distances for extrusion
; Filament gcode
M107
;LAYER_CHANGE
;Z:0.4
;HEIGHT:0.4
G1 E-1 F3600
G1 Z.4 F10200
G1 X89.06 Y72.032
G1 Z.4
G1 E1 F2400
M204 S500
;TYPE:Skirt/Brim
;WIDTH:0.42
G1 F1200
G1 X90.437 Y70.499 E.11451
G1 X91.874 Y69.58 E.09479
G1 X93.509 Y69.081 E.095
G1 X116.478 Y69.081 E1.27641
G1 X118.622 Y69.822 E.12606
G1 X119.581 Y70.51 E.06559
G1 X120.443 Y71.358 E.0672
G1 X121.46 Y73.06 E.11018
G1 X121.916 Y75.02 E.11183
G1 X121.916 Y146.938 E3.99655
G1 X121.49 Y148.745 E.10317
G1 X120.548 Y150.367 E.10423
G1 X119.217 Y151.655 E.10293
G1 X117.544 Y152.528 E.10487
G1 X115.859 Y152.859 E.09543
G1 X109.942 Y152.85 E.32881
G1 X108.337 Y152.482 E.09151
G1 X107.064 Y151.851 E.07896
G1 X105.73 Y150.698 E.09798
G1 X104.598 Y148.954 E.11554
G1 X104.084 Y146.953 E.11481
G1 X104.084 Y88.453 E3.2509
G1 X92.523 Y85.562 E.66224
G1 X90.646 Y84.574 E.11787
G1 X89.043 Y82.818 E.13213
G1 X88.703 Y82.136 E.04235
G1 X88.196 Y80.673 E.08604
G1 X88.103 Y74.81 E.32585
G1 X88.477 Y73.228 E.09034
G1 X89.033 Y72.086 E.07058
G1 X89.333 Y72.234 F10200
G1 F1200
G1 X89.349 Y72.201 E.00204
G1 X90.67 Y70.74 E.10946
G1 X92.033 Y69.874 E.08974
G1 X93.582 Y69.408 E.08989
G1 X116.396 Y69.406 E1.26779
G1 X118.447 Y70.108 E.12047
G1 X119.376 Y70.773 E.06349
G1 X120.193 Y71.581 E.06385
G1 X121.16 Y73.209 E.10523
G1 X121.582 Y75.039 E.10436
G1 X121.582 Y146.918 E3.99438
G1 X121.171 Y148.643 E.09854
G1 X120.271 Y150.178 E.09888
G1 X119.003 Y151.397 E.09774
G1 X117.412 Y152.22 E.09954
G1 X115.843 Y152.525 E.08882
G1 X109.961 Y152.516 E.32687
G1 X108.432 Y152.161 E.08723
G1 X107.232 Y151.562 E.07453
G1 X105.966 Y150.461 E.09324
G1 X104.915 Y148.844 E.10717
G1 X104.418 Y146.932 E.10978
G1 X104.418 Y88.192 E3.26424
G1 X92.623 Y85.243 E.67563
G1 X90.872 Y84.326 E.10984
G1 X89.331 Y82.647 E.12664
G1 X89.015 Y82.016 E.03922
G1 X88.521 Y80.589 E.08392
G1 X88.438 Y74.826 E.32029
G1 X88.797 Y73.324 E.08582
G1 X89.307 Y72.287 E.06422
G1 X89.606 Y72.435 F10200
G1 F1200
G1 X89.638 Y72.371 E.00398
G1 X90.901 Y70.982 E.10433
G1 X92.191 Y70.169 E.08474
G1 X93.653 Y69.735 E.08475
G1 X116.315 Y69.732 E1.25935
G1 X118.273 Y70.394 E.11486
G1 X119.17 Y71.037 E.06133
G1 X119.943 Y71.803 E.06047
G1 X120.84 Y73.31 E.09746
G1 X121.248 Y75.058 E.09975
G1 X121.248 Y146.898 E3.99221
G1 X120.852 Y148.54 E.09386
G1 X119.996 Y149.987 E.09343
G1 X118.79 Y151.139 E.09268
G1 X117.281 Y151.912 E.09422
G1 X115.828 Y152.191 E.08222
G1 X109.981 Y152.182 E.32492
G1 X108.528 Y151.841 E.08294
G1 X107.402 Y151.273 E.07008
G1 X106.204 Y150.226 E.08842
G1 X105.21 Y148.685 E.1019
G1 X104.752 Y146.911 E.10182
G1 X104.752 Y87.931 E3.27757
G1 X92.723 Y84.924 E.68903
G1 X91.097 Y84.078 E.10186
G1 X89.619 Y82.475 E.12117
G1 X89.327 Y81.896 E.03604
G1 X88.845 Y80.505 E.08181
G1 X88.772 Y74.843 E.31467
G1 X89.118 Y73.422 E.08127
G1 X89.579 Y72.489 E.05783
G1 X89.878 Y72.638 F10200
G1 F1200
G1 X89.926 Y72.541 E.00601
G1 X91.132 Y71.224 E.09924
G1 X92.348 Y70.465 E.07966
G1 X93.724 Y70.063 E.07966
G1 X116.235 Y70.057 E1.25096
G1 X118.099 Y70.681 E.10923
G1 X118.944 Y71.284 E.05769
G1 X119.692 Y72.025 E.05851
G1 X120.54 Y73.457 E.09248
G1 X120.914 Y75.077 E.09239
G1 X120.914 Y146.878 E3.99005
G1 X120.533 Y148.436 E.08913
G1 X119.721 Y149.796 E.08802
G1 X118.579 Y150.879 E.08746
G1 X117.152 Y151.603 E.08892
G1 X115.813 Y151.857 E.07574
G1 X110.001 Y151.848 E.32298
G1 X108.625 Y151.52 E.07861
G1 X107.573 Y150.985 E.06559
G1 X106.443 Y149.99 E.08367
G1 X105.526 Y148.575 E.0937
G1 X105.086 Y146.889 E.09683
G1 X105.086 Y87.67 E3.29085
G1 X92.823 Y84.604 E.70244
G1 X91.322 Y83.829 E.09387
G1 X89.906 Y82.303 E.11569
G1 X89.639 Y81.776 E.03283
G1 X89.17 Y80.421 E.07968
G1 X89.106 Y74.861 E.30899
G1 X89.437 Y73.52 E.07676
G1 X89.851 Y72.692 E.05144
G1 X90.149 Y72.842 F10200
G1 F1200
G1 X90.214 Y72.713 E.00803
G1 X91.362 Y71.468 E.09411
G1 X92.504 Y70.762 E.07461
G1 X93.794 Y70.39 E.07461
G1 X116.208 Y70.391 E1.24557
G1 X117.925 Y70.967 E.10064
G1 X118.739 Y71.548 E.05558
G1 X119.441 Y72.247 E.05505
G1 X120.238 Y73.604 E.08745
G1 X120.579 Y75.096 E.08505
G1 X120.579 Y146.858 E3.98788
G1 X120.215 Y148.331 E.08432
G1 X119.447 Y149.603 E.08257
G1 X118.368 Y150.619 E.08236
G1 X117.023 Y151.294 E.08363
G1 X115.798 Y151.523 E.06925
G1 X110.022 Y151.514 E.32098
G1 X108.724 Y151.2 E.07421
G1 X107.744 Y150.698 E.06119
G1 X106.682 Y149.756 E.07889
G1 X105.822 Y148.417 E.08843
G1 X105.421 Y146.868 E.08892
G1 X105.421 Y87.409 E3.30419
G1 X92.922 Y84.284 E.71596
G1 X91.546 Y83.579 E.08592
G1 X90.193 Y82.13 E.11017
G1 X89.951 Y81.656 E.02958
G1 X89.494 Y80.337 E.07757
G1 X89.441 Y74.88 E.30326
G1 X89.757 Y73.62 E.07219
G1 X90.122 Y72.896 E.04506
G1 X90.419 Y73.047 F10200
G1 F1200
G1 X90.501 Y72.886 E.01004
G1 X91.59 Y71.713 E.08895
G1 X92.658 Y71.059 E.06959
G1 X93.862 Y70.718 E.06954
G1 X116.129 Y70.717 E1.2374
G1 X117.752 Y71.254 E.095
G1 X118.513 Y71.795 E.05189
G1 X119.19 Y72.468 E.05305
G1 X119.937 Y73.75 E.08245
G1 X120.245 Y75.114 E.07771
G1 X120.245 Y146.837 E3.98571
G1 X119.898 Y148.224 E.07945
G1 X119.175 Y149.409 E.07714
G1 X118.158 Y150.357 E.07726
G1 X116.896 Y150.984 E.07831
G1 X115.783 Y151.189 E.06289
G1 X110.043 Y151.18 E.31898
G1 X108.823 Y150.881 E.0698
G1 X107.917 Y150.411 E.05672
G1 X106.922 Y149.522 E.07415
G1 X106.118 Y148.26 E.08315
G1 X105.755 Y146.847 E.08107
G1 X105.755 Y87.148 E3.31753
G1 X93.021 Y83.965 E.72941
G1 X91.769 Y83.329 E.07804
G1 X90.479 Y81.957 E.10465
G1 X89.819 Y80.254 E.1015
G1 X89.775 Y74.899 E.29759
G1 X90.076 Y73.721 E.06757
G1 X90.392 Y73.1 E.03872
G1 X90.688 Y73.252 F10200
G1 F1200
G1 X90.787 Y73.059 E.01205
G1 X91.819 Y71.958 E.08386
G1 X92.771 Y71.374 E.06206
G1 X93.931 Y71.046 E.06699
G1 X116.051 Y71.043 E1.22923
G1 X117.58 Y71.542 E.08938
G1 X118.308 Y72.059 E.04962
G1 X118.937 Y72.688 E.04943
G1 X119.634 Y73.894 E.07741
G1 X119.911 Y75.133 E.07055
G1 X119.911 Y146.817 E3.98355
G1 X119.598 Y148.074 E.07199
G1 X118.928 Y149.182 E.07195
G1 X117.987 Y150.069 E.07186
G1 X116.769 Y150.674 E.07558
G1 X115.769 Y150.854 E.05646
G1 X110.064 Y150.846 E.31703
G1 X108.924 Y150.561 E.0653
G1 X108.092 Y150.125 E.0522
G1 X107.162 Y149.289 E.06949
G1 X106.435 Y148.15 E.07509
G1 X106.089 Y146.826 E.07605
G1 X106.089 Y86.887 E3.33086
G1 X93.12 Y83.645 E.74288
G1 X91.992 Y83.078 E.07016
G1 X90.765 Y81.782 E.09918
G1 X90.144 Y80.17 E.096
G1 X90.109 Y74.919 E.29181
G1 X90.394 Y73.824 E.06288
G1 X90.66 Y73.306 E.03236
G1 X90.956 Y73.459 F10200
G1 F1200
G1 X91.072 Y73.235 E.01402
G1 X92.045 Y72.204 E.07878
G1 X92.924 Y71.672 E.0571
G1 X93.998 Y71.374 E.06194
G1 X115.974 Y71.369 E1.22123
G1 X117.408 Y71.829 E.08369
G1 X118.082 Y72.305 E.04585
G1 X118.685 Y72.909 E.04743
G1 X119.331 Y74.038 E.07228
G1 X119.577 Y75.15 E.06329
G1 X119.577 Y146.796 E3.98143
G1 X119.281 Y147.966 E.06707
G1 X118.656 Y148.987 E.06652
G1 X117.778 Y149.808 E.0668
G1 X116.644 Y150.363 E.07016
G1 X115.755 Y150.52 E.05017
G1 X110.085 Y150.511 E.31509
G1 X109.026 Y150.243 E.0607
G1 X108.267 Y149.84 E.04776
G1 X107.404 Y149.057 E.06476
G1 X106.731 Y147.994 E.06992
G1 X106.423 Y146.805 E.06825
G1 X106.423 Y86.626 E3.3442
G1 X93.218 Y83.325 E.75639
G1 X92.213 Y82.826 E.06235
G1 X91.05 Y81.606 E.09367
G1 X90.469 Y80.087 E.09038
G1 X90.443 Y74.94 E.28603
G1 X90.712 Y73.928 E.05819
G1 X90.928 Y73.512 E.02605
G1 X91.223 Y73.667 F10200
G1 F1200
G1 X91.357 Y73.411 E.01606
G1 X92.271 Y72.451 E.07366
G1 X93.075 Y71.971 E.05204
G1 X94.064 Y71.702 E.05696
G1 X115.948 Y71.703 E1.21611
G1 X117.237 Y72.117 E.07523
G1 X117.856 Y72.552 E.04204
G1 X118.433 Y73.129 E.04535
G1 X119.028 Y74.18 E.06711
G1 X119.243 Y75.168 E.05619
G1 X119.243 Y146.774 E3.97921
G1 X118.964 Y147.858 E.0622
G1 X118.384 Y148.791 E.06105
G1 X117.57 Y149.545 E.06166
G1 X116.52 Y150.052 E.0648
G1 X115.742 Y150.186 E.04387
G1 X110.107 Y150.177 E.31314
G1 X109.13 Y149.925 E.05607
G1 X108.444 Y149.556 E.04329
G1 X107.646 Y148.826 E.0601
G1 X107.048 Y147.883 E.06205
G1 X106.757 Y146.783 E.06323
G1 X106.757 Y86.365 E3.35748
G1 X93.316 Y83.005 E.76991
G1 X92.433 Y82.573 E.05463
G1 X91.334 Y81.428 E.0882
G1 X90.794 Y80.004 E.08463
G1 X90.778 Y74.962 E.28019
G1 X91.03 Y74.034 E.05344
G1 X91.195 Y73.72 E.01971
G1 X91.488 Y73.876 F10200
G1 F1200
G1 X91.64 Y73.589 E.01805
G1 X92.495 Y72.7 E.06854
G1 X93.224 Y72.271 E.04701
G1 X94.128 Y72.031 E.05198
G1 X115.921 Y72.037 E1.21106
G1 X117.067 Y72.406 E.0669
G1 X117.63 Y72.799 E.03815
G1 X118.18 Y73.348 E.04318
G1 X118.724 Y74.321 E.06195
G1 X118.909 Y75.185 E.0491
G1 X118.909 Y146.752 E3.97704
G1 X118.648 Y147.747 E.05716
G1 X118.114 Y148.593 E.0556
G1 X117.363 Y149.281 E.0566
G1 X116.399 Y149.74 E.05933
G1 X115.729 Y149.852 E.03775
G1 X110.13 Y149.843 E.31114
G1 X109.236 Y149.607 E.05138
G1 X108.623 Y149.273 E.03879
G1 X107.889 Y148.595 E.05553
G1 X107.363 Y147.771 E.05432
G1 X107.091 Y146.76 E.05818
G1 X107.091 Y86.104 E3.37071
G1 X93.414 Y82.685 E.78343
G1 X92.608 Y82.286 E.04998
G1 X91.618 Y81.25 E.07963
G1 X91.118 Y79.921 E.07891
G1 X91.112 Y74.985 E.2743
G1 X91.346 Y74.142 E.04862
G1 X91.46 Y73.929 E.01343
G1 X91.752 Y74.087 F10200
G1 F1200
G1 X91.923 Y73.769 E.02006
G1 X92.719 Y72.949 E.06351
G1 X93.333 Y72.587 E.03961
G1 X94.151 Y72.365 E.0471
G1 X115.895 Y72.371 E1.20833
G1 X116.897 Y72.695 E.05852
G1 X117.405 Y73.046 E.03431
G1 X117.927 Y73.568 E.04102
G1 X118.419 Y74.46 E.05661
G1 X118.575 Y75.202 E.04214
G1 X118.575 Y146.731 E3.97493
G1 X118.35 Y147.593 E.04951
G1 X117.871 Y148.363 E.05039
G1 X117.157 Y149.017 E.05381
G1 X116.279 Y149.427 E.05385
G1 X115.716 Y149.518 E.03169
G1 X110.153 Y149.509 E.30914
G1 X109.343 Y149.29 E.04663
G1 X108.803 Y148.991 E.0343
G1 X108.132 Y148.365 E.051
G1 X107.679 Y147.658 E.04666
G1 X107.425 Y146.737 E.05309
G1 X107.425 Y85.844 E3.38388
G1 X93.514 Y82.366 E.79684
G1 X92.783 Y82.001 E.0454
G1 X91.9 Y81.07 E.07131
G1 X91.443 Y79.838 E.07302
G1 X91.446 Y75.01 E.2683
G1 X91.662 Y74.252 E.0438
G1 X91.723 Y74.14 E.00709
G1 X92.014 Y74.299 F10200
G1 F1200
G1 X92.204 Y73.951 E.02203
G1 X92.942 Y73.199 E.05855
G1 X93.445 Y72.903 E.03243
G1 X94.174 Y72.699 E.04207
G1 X115.869 Y72.705 E1.20561
G1 X116.728 Y72.984 E.05019
G1 X117.18 Y73.294 E.03046
G1 X117.673 Y73.787 E.03874
G1 X118.113 Y74.596 E.05118
G1 X118.24 Y75.219 E.03533
G1 X118.24 Y146.709 E3.97276
G1 X118.034 Y147.482 E.04446
G1 X117.629 Y148.132 E.04256
G1 X116.951 Y148.753 E.05109
G1 X116.163 Y149.113 E.04814
G1 X115.705 Y149.183 E.02575
G1 X110.176 Y149.175 E.30725
G1 X109.453 Y148.974 E.0417
G1 X108.986 Y148.711 E.02978
G1 X108.376 Y148.136 E.04658
G1 X107.993 Y147.543 E.03923
G1 X107.76 Y146.714 E.04785
G1 X107.76 Y85.583 E3.39711
G1 X93.613 Y82.046 E.81036
G1 X92.961 Y81.716 E.04061
G1 X92.18 Y80.888 E.06325
G1 X91.768 Y79.756 E.06694
G1 X91.78 Y75.035 E.26235
G1 X91.977 Y74.365 E.03881
G1 X91.985 Y74.351 E.0009
G1 X92.291 Y74.481 F10200
G1 F1200
G1 X92.484 Y74.134 E.02207
G1 X93.164 Y73.45 E.0536
G1 X93.558 Y73.218 E.02541
G1 X94.198 Y73.033 E.03702
G1 X115.842 Y73.04 E1.20278
G1 X116.56 Y73.274 E.04197
G1 X116.955 Y73.541 E.02649
G1 X117.419 Y74.005 E.03647
G1 X117.807 Y74.731 E.04574
G1 X117.906 Y75.234 E.02849
G1 X117.906 Y146.686 E3.97065
G1 X117.719 Y147.369 E.03935
G1 X117.385 Y147.903 E.035
G1 X116.786 Y148.46 E.04545
G1 X116.046 Y148.799 E.04523
G1 X110.201 Y148.841 E.32482
G1 X109.566 Y148.659 E.03671
G1 X109.17 Y148.432 E.02537
G1 X108.62 Y147.908 E.04221
G1 X108.307 Y147.425 E.03198
G1 X108.094 Y146.69 E.04253
G1 X108.094 Y85.322 E3.41028
G1 X93.713 Y81.727 E.82376
G1 X93.14 Y81.433 E.03579
G1 X92.44 Y80.672 E.05746
G1 X92.093 Y79.673 E.05877
G1 X92.114 Y75.062 E.25624
G1 X92.273 Y74.538 E.03043
G1 X92.616 Y74.679 F10200
G1 F1200
G1 X92.763 Y74.32 E.02156
G1 X93.384 Y73.702 E.04869
G1 X93.674 Y73.532 E.01868
G1 X94.224 Y73.367 E.03191
G1 X115.766 Y73.366 E1.19711
G1 X116.395 Y73.565 E.03666
G1 X117.164 Y74.223 E.05624
G1 X117.499 Y74.863 E.04014
G1 X117.572 Y75.249 E.02183
G1 X117.572 Y146.662 E3.96849
G1 X117.404 Y147.255 E.03425
G1 X117.139 Y147.675 E.0276
G1 X116.619 Y148.17 E.0399
G1 X115.973 Y148.472 E.03963
G1 X110.226 Y148.507 E.31937
G1 X109.682 Y148.345 E.03154
G1 X109.358 Y148.154 E.0209
G1 X108.866 Y147.68 E.03797
G1 X108.62 Y147.305 E.02492
G1 X108.428 Y146.665 E.03713
G1 X108.428 Y85.061 E3.42339
G1 X93.814 Y81.407 E.83711
G1 X93.321 Y81.151 E.03087
G1 X92.737 Y80.512 E.04811
G1 X92.428 Y79.645 E.05115
G1 X92.448 Y75.09 E.25313
G1 X92.593 Y74.734 E.02136
G1 X92.891 Y74.86 F10200
G1 F1200
G1 X93.04 Y74.509 E.02119
G1 X93.603 Y73.955 E.04389
G1 X94.25 Y73.701 E.03863
G1 X115.693 Y73.693 E1.19161
G1 X116.233 Y73.858 E.03138
G1 X116.908 Y74.44 E.04953
G1 X117.189 Y74.991 E.03437
G1 X117.238 Y75.263 E.01536
G1 X117.238 Y146.637 E3.96632
G1 X117.091 Y147.137 E.02896
G1 X116.892 Y147.45 E.02061
G1 X116.449 Y147.881 E.03435
G1 X115.896 Y148.146 E.03408
G1 X110.253 Y148.173 E.31359
G1 X109.548 Y147.879 E.04245
G1 X109.112 Y147.454 E.03384
G1 X108.931 Y147.182 E.01816
G1 X108.762 Y146.638 E.03166
G1 X108.762 Y84.8 E3.43639
G1 X93.915 Y81.088 E.85046
G1 X93.506 Y80.87 E.02576
G1 X93.008 Y80.314 E.04148
G1 X92.762 Y79.618 E.04102
G1 X92.782 Y75.119 E.25002
G1 X92.868 Y74.915 E.0123
G1 X93.163 Y75.045 F10200
G1 F1200
G1 X93.314 Y74.7 E.02093
G1 X93.819 Y74.211 E.03906
G1 X94.282 Y74.035 E.02753
G1 X94.991 Y74.027 E.0394
G1 X115.668 Y74.027 E1.14904
G1 X116.284 Y74.288 E.03718
G1 X116.652 Y74.656 E.02892
G1 X116.878 Y75.114 E.02838
G1 X116.904 Y146.611 E3.97315
G1 X116.643 Y147.227 E.03718
G1 X116.275 Y147.595 E.02892
G1 X115.817 Y147.821 E.02838
G1 X110.281 Y147.838 E.30764
G1 X109.741 Y147.606 E.03266
G1 X109.358 Y147.227 E.02994
G1 X109.096 Y146.611 E.0372
G1 X109.096 Y84.539 E3.4494
G1 X94.018 Y80.769 E.86369
G1 X93.693 Y80.592 E.02057
G1 X93.282 Y80.12 E.03478
G1 X93.096 Y79.591 E.03116
G1 X93.116 Y75.151 E.24674
G1 X93.138 Y75.1 E.00309
G1 X93.443 Y75.23 F10200
G1 F1200
G1 X93.586 Y74.895 E.02024
G1 X94.039 Y74.467 E.03463
G1 X94.36 Y74.361 E.01879
G1 X94.99 Y74.361 E.03501
G1 X115.64 Y74.361 E1.14754
G1 X116.059 Y74.536 E.02523
G1 X116.396 Y74.872 E.02645
G1 X116.553 Y75.195 E.01996
G1 X116.57 Y146.583 E3.9671
G1 X116.395 Y147.003 E.02528
G1 X116.058 Y147.339 E.02645
G1 X115.736 Y147.496 E.01991
G1 X110.36 Y147.513 E.29875
G1 X109.941 Y147.338 E.02523
G1 X109.603 Y147.001 E.02652
G1 X109.43 Y146.582 E.02519
G1 X109.43 Y84.278 E3.46229
G1 X94.122 Y80.451 E.87686
G1 X93.885 Y80.318 E.0151
G1 X93.558 Y79.929 E.02824
G1 X93.431 Y79.563 E.02153
G1 X93.44 Y75.29 E.23746
G1 X93.765 Y75.322 F10200
G1 F1200
G1 X93.852 Y75.098 E.01335
G1 X94.204 Y74.762 E.02704
G1 X94.391 Y74.695 E.01104
G1 X115.609 Y74.695 E1.1791
G1 X115.834 Y74.783 E.01343
G1 X116.23 Y75.281 E.03536
G1 X116.235 Y146.552 E3.96059
G1 X116.147 Y146.777 E.01343
G1 X115.65 Y147.173 E.03531
G1 X110.391 Y147.178 E.29225
