; generated by PrusaSlicer 2.9.2 on 2025-11-14 at 04:10:04 UTC

; 

; external perimeters extrusion width = 0.42mm
; perimeters extrusion width = 0.44mm
; infill extrusion width = 0.44mm
; solid infill extrusion width = 0.44mm
; top infill extrusion width = 0.40mm
; first layer extrusion width = 0.42mm

M201 X500 Y500 Z100 E5000 ; sets maximum accelerations, mm/sec^2
M203 X500 Y500 Z10 E60 ; sets maximum feedrates, mm / sec
M204 S500 T1000 ; sets acceleration (S) and retract acceleration (R), mm/sec^2
M205 X8.00 Y8.00 Z0.40 E5.00 ; sets the jerk limits, mm/sec
M205 S0 T0 ; sets the minimum extruding and travel feed rate, mm/sec

; printing object Tongue.stl id:0 copy 0
; stop printing object Tongue.stl id:0 copy 0

;TYPE:Custom
G90 ; use absolute coordinates
M83 ; extruder relative mode
M104 S150 ; set temporary nozzle temp to prevent oozing during homing
M140 S80 ; set final bed temp
G4 S30 ; allow partial nozzle warmup
G28 ; home all axis
G1 Z50 F240
G1 X2.0 Y10 F3000
M104 S230 ; set final nozzle temp
M190 S80 ; wait for bed temp to stabilize
M109 S230 ; wait for nozzle temp to stabilize
G1 Z0.28 F240
G92 E0
G1 X2.0 Y140 E10 F1500 ; prime the nozzle
G1 X2.3 Y140 F5000
G92 E0
G1 X2.3 Y10 E10 F1200 ; prime the nozzle
G92 E0
G21 ; set units to millimeters
G90 ; use absolute coordinates
M83 ; use relative distances for extrusion
; Filament gcode
M107
;LAYER_CHANGE
;Z:0.4
;HEIGHT:0.4
G1 E-1 F3600
G1 Z.4 F10200
G1 X12.292 Y95.191
G1 Z.4
G1 E1 F2400
M204 S500
;TYPE:Skirt/Brim
;WIDTH:0.42
G1 F1200
G1 X20.005 Y95.091 E.42865
G1 X22.106 Y95.66 E.12096
G1 X23.744 Y96.729 E.10869
G1 X24.965 Y98.189 E.10577
G1 X26.04 Y101.084 E.17161
G1 X57.012 Y101.084 E1.72114
G1 X57.933 Y98.51 E.15192
G1 X59.105 Y96.946 E.10861
G1 X60.8 Y95.744 E.11547
G1 X63.092 Y95.084 E.13254
G1 X70.205 Y95.093 E.39528
G1 X72.547 Y95.802 E.13598
G1 X74.253 Y97.075 E.11829
G1 X75.352 Y98.613 E.10505
G1 X76.208 Y101.084 E.14532
G1 X194.517 Y101.084 E6.57454
G1 X196.38 Y100.984 E.10368
G1 X198.349 Y100.994 E.10942
G1 X201.038 Y101.452 E.15158
G1 X202.203 Y102.105 E.07422
G1 X203.207 Y102.949 E.07289
G1 X204.503 Y105.119 E.14046
G1 X204.655 Y105.502 E.0229
G1 X204.955 Y108.492 E.16699
G1 X204.652 Y109.713 E.06991
G1 X204.134 Y110.846 E.06923
G1 X203.165 Y112.126 E.08921
G1 X201.035 Y113.489 E.14053
G1 X199.013 Y114.338 E.12187
G1 X197.597 Y114.803 E.08282
G1 X186.766 Y118.916 E.64383
G1 X10.902 Y118.916 E9.77292
G1 X8.657 Y118.263 E.12993
G1 X7.164 Y117.221 E.10118
G1 X5.991 Y115.845 E.10048
G1 X5.481 Y114.819 E.06367
G1 X5.144 Y113.699 E.065
G1 X5.128 Y106.493 E.40044
G1 X7.611 Y98.893 E.44431
G1 X8.164 Y97.866 E.06482
G1 X8.916 Y96.979 E.06462
G1 X10.127 Y96.016 E.08598
G1 X12.236 Y95.212 E.12543
G1 X12.354 Y95.524 F10200
G1 F1200
G1 X12.383 Y95.514 E.0017
G1 X19.986 Y95.426 E.42253
G1 X21.992 Y95.975 E.11557
G1 X23.539 Y96.994 E.10294
G1 X24.689 Y98.38 E.10008
G1 X25.807 Y101.418 E.17989
G1 X57.248 Y101.418 E1.7472
G1 X58.216 Y98.689 E.16091
G1 X59.321 Y97.202 E.10295
G1 X60.921 Y96.057 E.10934
G1 X63.115 Y95.418 E.12699
G1 X70.18 Y95.427 E.39261
G1 X72.421 Y96.113 E.13024
G1 X74.032 Y97.326 E.11206
G1 X75.044 Y98.745 E.09685
G1 X75.971 Y101.418 E.15722
G1 X194.518 Y101.418 E6.58776
G1 X196.386 Y101.318 E.10396
G1 X198.308 Y101.326 E.10681
G1 X200.901 Y101.758 E.14608
G1 X202.001 Y102.372 E.07001
G1 X202.97 Y103.186 E.07033
G1 X204.335 Y105.602 E.15421
G1 X204.624 Y108.44 E.15853
G1 X204.342 Y109.588 E.06569
G1 X203.838 Y110.69 E.06734
G1 X202.918 Y111.899 E.08443
G1 X200.868 Y113.2 E.13493
G1 X198.893 Y114.026 E.11896
G1 X197.481 Y114.489 E.08258
G1 X186.735 Y118.582 E.63902
G1 X10.926 Y118.582 E9.76987
G1 X8.777 Y117.95 E.12448
G1 X7.404 Y116.988 E.09316
G1 X6.281 Y115.678 E.09589
G1 X5.787 Y114.683 E.06173
G1 X5.471 Y113.627 E.06125
G1 X5.454 Y106.572 E.39205
G1 X7.924 Y99.011 E.44202
G1 X8.449 Y98.041 E.06129
G1 X9.16 Y97.208 E.06086
G1 X10.314 Y96.294 E.08181
G1 X12.298 Y95.545 E.11785
G1 X12.415 Y95.858 F10200
G1 F1200
G1 X12.472 Y95.837 E.00338
G1 X19.965 Y95.76 E.41641
G1 X21.877 Y96.289 E.11024
G1 X23.333 Y97.258 E.09719
G1 X24.413 Y98.57 E.09443
G1 X25.572 Y101.752 E.18819
G1 X57.485 Y101.752 E1.77343
G1 X58.501 Y98.867 E.16997
G1 X59.538 Y97.457 E.09726
G1 X61.043 Y96.369 E.1032
G1 X63.139 Y95.752 E.12142
G1 X70.154 Y95.761 E.38983
G1 X72.294 Y96.423 E.12448
G1 X73.809 Y97.576 E.1058
G1 X74.736 Y98.877 E.08877
G1 X75.733 Y101.752 E.1691
G1 X194.519 Y101.752 E6.60105
G1 X196.392 Y101.652 E.10423
G1 X198.268 Y101.658 E.10425
G1 X200.764 Y102.064 E.14053
G1 X201.824 Y102.655 E.06744
G1 X202.733 Y103.423 E.06613
G1 X204.016 Y105.701 E.14529
G1 X204.292 Y108.389 E.15016
G1 X204.021 Y109.493 E.06317
G1 X203.542 Y110.533 E.06363
G1 X202.671 Y111.672 E.07968
G1 X200.703 Y112.909 E.12917
G1 X198.772 Y113.714 E.11626
G1 X197.364 Y114.176 E.08235
G1 X186.705 Y118.248 E.63408
G1 X10.951 Y118.248 E9.76681
G1 X8.899 Y117.638 E.11896
G1 X7.614 Y116.727 E.08753
G1 X6.57 Y115.51 E.0891
G1 X6.103 Y114.573 E.05818
G1 X5.798 Y113.554 E.05911
G1 X5.78 Y106.65 E.38366
G1 X8.237 Y99.129 E.43969
G1 X8.715 Y98.245 E.05585
G1 X9.403 Y97.438 E.05893
G1 X10.5 Y96.573 E.07763
G1 X12.359 Y95.879 E.11027
G1 X12.474 Y96.192 F10200
G1 F1200
G1 X12.56 Y96.16 E.0051
G1 X19.944 Y96.094 E.41035
G1 X21.76 Y96.604 E.10482
G1 X23.125 Y97.521 E.09138
G1 X24.136 Y98.759 E.08882
G1 X25.337 Y102.086 E.19656
G1 X57.723 Y102.086 E1.79972
G1 X58.785 Y99.043 E.1791
G1 X59.757 Y97.711 E.09163
G1 X61.167 Y96.681 E.09703
G1 X63.164 Y96.086 E.1158
G1 X70.128 Y96.095 E.387
G1 X72.166 Y96.733 E.11867
G1 X73.552 Y97.791 E.0969
G1 X74.428 Y99.01 E.08342
G1 X75.495 Y102.086 E.18093
G1 X194.521 Y102.086 E6.61438
G1 X196.399 Y101.986 E.10451
G1 X198.229 Y101.99 E.1017
G1 X200.628 Y102.371 E.13499
G1 X201.621 Y102.921 E.06308
G1 X202.495 Y103.66 E.0636
G1 X203.695 Y105.799 E.13629
G1 X203.961 Y108.337 E.14181
G1 X203.701 Y109.397 E.06065
G1 X203.247 Y110.376 E.05997
G1 X202.425 Y111.444 E.07489
G1 X200.538 Y112.618 E.1235
G1 X198.652 Y113.402 E.1135
G1 X197.248 Y113.863 E.08212
G1 X186.674 Y117.914 E.62925
G1 X10.975 Y117.914 E9.76375
G1 X9.022 Y117.326 E.11334
G1 X7.854 Y116.494 E.07969
G1 X6.86 Y115.342 E.08455
G1 X6.409 Y114.437 E.05619
G1 X6.125 Y113.482 E.05537
G1 X6.106 Y106.729 E.37527
G1 X8.55 Y99.247 E.4374
G1 X8.98 Y98.448 E.05042
G1 X9.646 Y97.668 E.057
G1 X10.685 Y96.852 E.07342
G1 X12.418 Y96.213 E.10264
G1 X12.532 Y96.526 F10200
G1 F1200
G1 X12.647 Y96.484 E.0068
G1 X19.923 Y96.429 E.40435
G1 X21.642 Y96.917 E.0993
G1 X22.916 Y97.783 E.08561
G1 X23.858 Y98.946 E.08317
G1 X25.101 Y102.421 E.20509
G1 X57.961 Y102.421 E1.82606
G1 X59.071 Y99.218 E.18838
G1 X59.977 Y97.964 E.08597
G1 X61.291 Y96.993 E.09079
G1 X63.188 Y96.42 E.11012
G1 X70.102 Y96.429 E.38422
G1 X72.037 Y97.042 E.1128
G1 X73.296 Y98.007 E.08815
G1 X74.121 Y99.143 E.07802
G1 X75.257 Y102.421 E.19279
G1 X194.522 Y102.42 E6.62766
G1 X198.191 Y102.322 E.20396
G1 X200.492 Y102.677 E.12938
G1 X201.444 Y103.205 E.0605
G1 X202.256 Y103.895 E.05921
G1 X203.374 Y105.894 E.12728
G1 X203.629 Y108.287 E.13373
G1 X203.39 Y109.272 E.05633
G1 X202.952 Y110.218 E.05793
G1 X202.18 Y111.215 E.07007
G1 X200.375 Y112.326 E.11778
G1 X198.532 Y113.09 E.11087
G1 X197.131 Y113.55 E.08194
G1 X186.643 Y117.579 E.62435
G1 X11.001 Y117.579 E9.76059
G1 X9.146 Y117.014 E.10776
G1 X8.093 Y116.26 E.07197
G1 X7.149 Y115.173 E.08
G1 X6.725 Y114.327 E.05259
G1 X6.452 Y113.41 E.05317
G1 X6.432 Y106.807 E.36694
G1 X8.863 Y99.364 E.43512
G1 X9.246 Y98.651 E.04498
G1 X9.889 Y97.898 E.05503
G1 X10.87 Y97.132 E.06917
G1 X12.476 Y96.547 E.09498
G1 X12.589 Y96.86 F10200
G1 F1200
G1 X12.733 Y96.808 E.00851
G1 X19.901 Y96.763 E.39834
G1 X21.478 Y97.21 E.09109
G1 X22.673 Y98.013 E.08001
G1 X23.581 Y99.134 E.08017
G1 X24.865 Y102.755 E.2135
G1 X58.199 Y102.755 E1.8524
G1 X59.357 Y99.392 E.19765
G1 X60.198 Y98.215 E.08039
G1 X61.417 Y97.303 E.0846
G1 X63.213 Y96.755 E.10435
G1 X70.075 Y96.763 E.38133
G1 X71.906 Y97.351 E.10687
G1 X73.041 Y98.224 E.07957
G1 X73.813 Y99.277 E.07256
G1 X75.019 Y102.755 E.20457
G1 X194.523 Y102.755 E6.64095
G1 X198.154 Y102.655 E.20185
G1 X200.357 Y102.985 E.12379
G1 X201.241 Y103.471 E.05606
G1 X202.017 Y104.131 E.05661
G1 X203.053 Y105.985 E.11802
G1 X203.298 Y108.236 E.12583
G1 X203.07 Y109.176 E.05375
G1 X202.657 Y110.059 E.05417
G1 X201.935 Y110.986 E.0653
G1 X200.213 Y112.034 E.11202
G1 X198.413 Y112.778 E.10824
G1 X197.014 Y113.237 E.08182
G1 X186.612 Y117.245 E.61947
G1 X11.026 Y117.245 E9.75747
G1 X9.272 Y116.703 E.10202
G1 X8.332 Y116.025 E.06441
G1 X7.438 Y115.003 E.07546
G1 X7.03 Y114.191 E.0505
G1 X6.779 Y113.338 E.04941
G1 X6.758 Y106.885 E.3586
G1 X9.177 Y99.482 E.4328
G1 X9.512 Y98.854 E.03955
G1 X10.132 Y98.128 E.05305
G1 X11.053 Y97.412 E.06483
G1 X12.532 Y96.881 E.08733
G1 X12.643 Y97.194 F10200
G1 F1200
G1 X12.818 Y97.133 E.0103
G1 X19.879 Y97.097 E.39239
G1 X21.314 Y97.502 E.08286
G1 X22.465 Y98.276 E.07708
G1 X23.302 Y99.321 E.0744
G1 X24.628 Y103.089 E.22198
G1 X58.438 Y103.089 E1.87885
G1 X59.644 Y99.565 E.20698
G1 X60.421 Y98.465 E.07484
G1 X61.545 Y97.613 E.07838
G1 X63.238 Y97.089 E.09848
G1 X70.048 Y97.097 E.37844
G1 X71.775 Y97.66 E.10094
G1 X72.787 Y98.442 E.07107
G1 X73.506 Y99.411 E.06705
G1 X74.781 Y103.089 E.21632
G1 X194.524 Y103.089 E6.65423
G1 X198.142 Y102.989 E.20113
G1 X200.223 Y103.292 E.11686
G1 X201.064 Y103.756 E.05338
G1 X201.777 Y104.365 E.05211
G1 X202.729 Y106.07 E.10852
G1 X202.966 Y108.186 E.11832
G1 X202.749 Y109.081 E.05118
G1 X202.363 Y109.899 E.05026
G1 X201.692 Y110.755 E.06044
G1 X200.052 Y111.741 E.10634
G1 X186.581 Y116.911 E.80183
G1 X11.052 Y116.911 E9.75431
G1 X9.398 Y116.393 E.09632
G1 X8.571 Y115.791 E.05684
G1 X7.726 Y114.833 E.07099
G1 X7.346 Y114.082 E.04677
G1 X7.106 Y113.267 E.04721
G1 X7.084 Y106.964 E.35027
G1 X9.49 Y99.599 E.43057
G1 X9.778 Y99.057 E.03411
G1 X10.375 Y98.358 E.05108
G1 X11.236 Y97.694 E.06042
G1 X12.587 Y97.215 E.07966
G1 X12.697 Y97.529 F10200
G1 F1200
G1 X12.901 Y97.457 E.01202
G1 X19.857 Y97.431 E.38655
G1 X21.151 Y97.795 E.0747
G1 X22.22 Y98.506 E.07134
G1 X23.023 Y99.507 E.07131
G1 X24.391 Y103.423 E.23051
G1 X58.678 Y103.423 E1.90536
G1 X59.932 Y99.737 E.21636
G1 X60.646 Y98.714 E.06933
G1 X61.674 Y97.923 E.07208
G1 X63.264 Y97.423 E.09262
G1 X70.02 Y97.431 E.37544
G1 X71.642 Y97.968 E.09495
G1 X72.533 Y98.661 E.06273
G1 X73.199 Y99.545 E.06151
G1 X74.544 Y103.423 E.2281
G1 X194.525 Y103.423 E6.66745
G1 X198.131 Y103.323 E.20047
G1 X200.09 Y103.6 E.10995
G1 X200.861 Y104.021 E.04882
G1 X201.537 Y104.599 E.04943
G1 X202.403 Y106.158 E.0991
G1 X202.634 Y108.138 E.11078
G1 X202.439 Y108.954 E.04662
G1 X202.069 Y109.739 E.04823
G1 X201.449 Y110.523 E.05554
G1 X199.892 Y111.447 E.10061
G1 X186.55 Y116.577 E.79435
G1 X11.078 Y116.577 E9.75114
G1 X9.526 Y116.083 E.09051
G1 X8.809 Y115.556 E.04945
G1 X8.014 Y114.662 E.06648
G1 X7.662 Y113.972 E.04305
G1 X7.434 Y113.195 E.045
G1 X7.41 Y107.042 E.34193
G1 X9.803 Y99.717 E.42823
G1 X10.045 Y99.26 E.02874
G1 X10.618 Y98.589 E.04903
G1 X11.418 Y97.975 E.05604
G1 X12.64 Y97.549 E.07192
G1 X12.748 Y97.863 F10200
G1 F1200
G1 X12.983 Y97.782 E.01381
G1 X19.835 Y97.766 E.38077
G1 X20.99 Y98.088 E.06663
G1 X21.977 Y98.736 E.06561
G1 X22.745 Y99.694 E.06823
G1 X24.152 Y103.757 E.23894
G1 X58.918 Y103.757 E1.93198
G1 X60.22 Y99.906 E.2259
G1 X60.872 Y98.96 E.06385
G1 X61.805 Y98.232 E.06576
G1 X63.29 Y97.757 E.08664
G1 X69.993 Y97.766 E.37249
G1 X71.508 Y98.275 E.08881
G1 X72.281 Y98.881 E.05458
G1 X72.892 Y99.681 E.05594
G1 X74.306 Y103.757 E.23975
G1 X194.527 Y103.757 E6.68079
G1 X198.12 Y103.657 E.19974
G1 X199.956 Y103.908 E.10298
G1 X200.685 Y104.306 E.04616
G1 X201.297 Y104.833 E.04488
G1 X202.076 Y106.231 E.08894
G1 X202.302 Y108.09 E.10407
G1 X202.118 Y108.859 E.04394
G1 X201.776 Y109.577 E.0442
G1 X201.208 Y110.29 E.05066
G1 X199.734 Y111.152 E.09489
G1 X186.519 Y116.243 E.78698
G1 X11.104 Y116.243 E9.74797
G1 X9.656 Y115.774 E.08458
G1 X9.046 Y115.32 E.04226
G1 X8.301 Y114.489 E.06202
G1 X7.978 Y113.863 E.03915
G1 X7.761 Y113.123 E.04285
G1 X7.736 Y107.12 E.3336
G1 X10.116 Y99.833 E.426
G1 X10.311 Y99.463 E.02324
G1 X10.86 Y98.819 E.04703
G1 X11.598 Y98.258 E.05152
G1 X12.691 Y97.883 E.06421
G1 X12.797 Y98.197 F10200
G1 F1200
G1 X13.064 Y98.108 E.01564
G1 X19.813 Y98.1 E.37505
G1 X20.831 Y98.383 E.05872
G1 X21.733 Y98.966 E.05968
G1 X22.466 Y99.88 E.06511
G1 X23.914 Y104.091 E.24746
G1 X59.158 Y104.091 E1.95854
G1 X60.509 Y100.075 E.23546
G1 X61.101 Y99.205 E.05848
G1 X61.938 Y98.54 E.05941
G1 X63.316 Y98.091 E.08054
G1 X69.965 Y98.1 E.36949
G1 X71.325 Y98.556 E.07971
G1 X72.058 Y99.13 E.05174
G1 X72.61 Y99.861 E.0509
G1 X74.067 Y104.091 E.24862
G1 X194.528 Y104.091 E6.69413
G1 X198.109 Y103.991 E.19908
G1 X199.825 Y104.217 E.09618
G1 X200.48 Y104.571 E.04137
G1 X201.057 Y105.067 E.04228
G1 X201.749 Y106.306 E.07886
G1 X201.97 Y108.042 E.09725
G1 X201.798 Y108.764 E.04124
G1 X201.484 Y109.414 E.04011
G1 X200.968 Y110.055 E.04573
G1 X199.577 Y110.857 E.08923
G1 X186.488 Y115.909 E.77967
G1 X11.132 Y115.909 E9.74469
G1 X9.788 Y115.466 E.07864
G1 X9.284 Y115.085 E.03511
G1 X8.587 Y114.316 E.05768
G1 X8.294 Y113.753 E.03527
G1 X8.088 Y113.051 E.04066
G1 X8.062 Y107.199 E.3252
G1 X10.43 Y99.95 E.42378
G1 X10.578 Y99.665 E.01785
G1 X11.102 Y99.05 E.0449
G1 X11.777 Y98.541 E.04698
G1 X12.74 Y98.217 E.05646
G1 X12.844 Y98.532 F10200
G1 F1200
G1 X13.142 Y98.433 E.01745
G1 X19.79 Y98.434 E.36944
G1 X20.673 Y98.679 E.05092
G1 X21.492 Y99.199 E.05391
G1 X22.159 Y100.018 E.0587
G1 X23.675 Y104.425 E.25899
G1 X59.399 Y104.425 E1.98522
G1 X60.8 Y100.242 E.24514
G1 X61.332 Y99.448 E.05311
G1 X62.073 Y98.847 E.05302
G1 X63.343 Y98.425 E.07437
G1 X69.887 Y98.425 E.36366
G1 X71.144 Y98.838 E.07353
G1 X71.805 Y99.35 E.04646
G1 X72.327 Y100.041 E.04812
G1 X73.828 Y104.425 E.25751
G1 X194.529 Y104.425 E6.70746
G1 X198.099 Y104.325 E.19847
G1 X199.694 Y104.526 E.08934
G1 X200.305 Y104.856 E.03859
G1 X200.815 Y105.3 E.03758
G1 X201.422 Y106.382 E.06894
G1 X201.637 Y107.997 E.09054
G1 X201.488 Y108.636 E.03646
G1 X201.192 Y109.251 E.03793
G1 X200.729 Y109.82 E.04077
G1 X199.422 Y110.561 E.08349
G1 X186.457 Y115.575 E.77248
G1 X11.159 Y115.575 E9.74147
G1 X9.922 Y115.159 E.07252
G1 X9.521 Y114.849 E.02817
G1 X8.872 Y114.14 E.05341
G1 X8.61 Y113.642 E.03127
G1 X8.415 Y112.98 E.03835
G1 X8.388 Y107.277 E.31692
G1 X10.845 Y99.866 E.43388
G1 X11.344 Y99.282 E.04269
G1 X11.955 Y98.825 E.0424
G1 X12.787 Y98.551 E.04868
G1 X12.889 Y98.866 F10200
G1 F1200
G1 X13.219 Y98.759 E.01928
G1 X19.766 Y98.768 E.36382
G1 X20.557 Y98.993 E.0457
G1 X21.287 Y99.464 E.04828
G1 X21.88 Y100.203 E.05265
G1 X23.436 Y104.76 E.26759
G1 X59.64 Y104.76 E2.01189
G1 X61.091 Y100.407 E.25499
G1 X61.563 Y99.691 E.04766
G1 X62.26 Y99.126 E.04986
G1 X63.37 Y98.76 E.06495
G1 X69.86 Y98.76 E.36066
G1 X70.962 Y99.12 E.06442
G1 X71.582 Y99.6 E.04357
G1 X72.043 Y100.219 E.04289
G1 X73.589 Y104.76 E.26657
G1 X194.53 Y104.76 E6.7208
G1 X198.09 Y104.66 E.19791
G1 X199.565 Y104.836 E.08255
G1 X200.1 Y105.121 E.03369
G1 X200.574 Y105.533 E.0349
G1 X201.096 Y106.46 E.05912
G1 X201.305 Y107.951 E.08367
G1 X201.167 Y108.541 E.03367
G1 X200.901 Y109.086 E.0337
G1 X200.492 Y109.582 E.03573
G1 X199.269 Y110.264 E.07782
G1 X186.425 Y115.24 E.76545
G1 X11.186 Y115.24 E9.73819
G1 X10.103 Y114.876 E.06349
G1 X9.156 Y113.963 E.0731
G1 X8.926 Y113.531 E.0272
G1 X8.743 Y112.908 E.03608
G1 X8.722 Y107.303 E.31148
G1 X11.132 Y100.039 E.4253
G1 X11.584 Y99.515 E.03846
G1 X12.131 Y99.111 E.03779
G1 X12.832 Y98.884 E.04095
G1 X12.932 Y99.195 F10200
G1 F1200
G1 X13.245 Y99.094 E.01828
G1 X19.741 Y99.102 E.36099
G1 X20.438 Y99.306 E.04036
G1 X21.08 Y99.728 E.04269
G1 X21.6 Y100.387 E.04665
G1 X23.196 Y105.094 E.2762
G1 X59.881 Y105.094 E2.03862
G1 X61.401 Y100.534 E.26711
G1 X61.825 Y99.899 E.04243
G1 X62.444 Y99.406 E.04398
G1 X63.396 Y99.094 E.05567
G1 X69.834 Y99.094 E.35777
G1 X70.783 Y99.403 E.05546
G1 X71.328 Y99.819 E.0381
G1 X71.759 Y100.397 E.04007
G1 X73.349 Y105.094 E.27557
G1 X194.531 Y105.094 E6.73419
G1 X198.081 Y104.994 E.19735
G1 X199.437 Y105.146 E.07583
