; generated by PrusaSlicer 2.9.2 on 2025-11-13 at 02:30:03 UTC

; 

; external perimeters extrusion width = 0.42mm
; perimeters extrusion width = 0.44mm
; infill extrusion width = 0.44mm
; solid infill extrusion width = 0.44mm
; top infill extrusion width = 0.40mm
; support material extrusion width = 0.36mm
; first layer extrusion width = 0.42mm

M201 X500 Y500 Z100 E5000 ; sets maximum accelerations, mm/sec^2
M203 X500 Y500 Z10 E60 ; sets maximum feedrates, mm / sec
M204 S500 T1000 ; sets acceleration (S) and retract acceleration (R), mm/sec^2
M205 X8.00 Y8.00 Z0.40 E5.00 ; sets the jerk limits, mm/sec
M205 S0 T0 ; sets the minimum extruding and travel feed rate, mm/sec

; printing object WallRight.stl id:0 copy 0
; stop printing object WallRight.stl id:0 copy 0

;TYPE:Custom
G90 ; use absolute coordinates
M83 ; extruder relative mode
M104 S150 ; set temporary nozzle temp to prevent oozing during homing
M140 S80 ; set final bed temp
G4 S30 ; allow partial nozzle warmup
G28 ; home all axis
G1 Z50 F240
G1 X2.0 Y10 F3000
M104 S230 ; set final nozzle temp
M190 S80 ; wait for bed temp to stabilize
M109 S230 ; wait for nozzle temp to stabilize
G1 Z0.28 F240
G92 E0
G1 X2.0 Y140 E10 F1500 ; prime the nozzle
G1 X2.3 Y140 F5000
G92 E0
G1 X2.3 Y10 E10 F1200 ; prime the nozzle
G92 E0
G21 ; set units to millimeters
G90 ; use absolute coordinates
M83 ; use relative distances for extrusion
; Filament gcode
M107
;LAYER_CHANGE
;Z:0.4
;HEIGHT:0.4
G1 E-1 F3600
G1 Z.4 F10200
G1 X70.768 Y57.505
G1 Z.4
G1 E1 F2400
M204 S500
;TYPE:Skirt/Brim
;WIDTH:0.42
G1 F1200
G1 X71.968 Y56.274 E.09553
G1 X73.399 Y55.403 E.09309
G1 X75.028 Y54.935 E.09419
G1 X91.552 Y54.885 E.91826
G1 X101.261 Y48.707 E.63951
G1 X102.801 Y48.079 E.09242
G1 X121.853 Y47.989 E1.05875
G1 X122.811 Y48.279 E.05562
G1 X123.71 Y48.691 E.05495
G1 X125.375 Y50.07 E.12014
G1 X126.494 Y51.798 E.1144
G1 X127.003 Y53.797 E.11463
G1 X127.003 Y127.319 E4.08568
G1 X150.937 Y131.042 E1.34603
G1 X152.826 Y131.891 E.11509
G1 X153.699 Y132.531 E.06015
G1 X155.163 Y134.45 E.13413
G1 X155.838 Y136.752 E.13331
G1 X155.838 Y154.123 E.96532
G1 X155.436 Y155.954 E.10417
G1 X154.495 Y157.583 E.10454
G1 X153.973 Y158.224 E.04594
G1 X151.61 Y159.757 E.15653
G1 X105.691 Y172.002 E2.64093
G1 X75.496 Y172.117 E1.67798
G1 X73.647 Y171.7 E.10533
G1 X72.048 Y170.794 E.10213
G1 X70.751 Y169.471 E.10296
G1 X69.898 Y167.911 E.0988
G1 X69.506 Y166.133 E.10118
G1 X69.506 Y60.864 E5.84989
G1 X69.94 Y58.978 E.10755
G1 X70.739 Y57.557 E.09059
G1 X71.029 Y57.722 F10200
G1 F1200
G1 X71.048 Y57.689 E.00212
G1 X72.192 Y56.523 E.09077
G1 X73.552 Y55.7 E.08834
G1 X75.097 Y55.263 E.08923
G1 X91.65 Y55.219 E.91987
G1 X101.427 Y48.997 E.64401
G1 X102.897 Y48.4 E.08817
G1 X121.78 Y48.316 E1.04936
G1 X122.683 Y48.588 E.05241
G1 X123.551 Y48.986 E.05306
G1 X125.11 Y50.274 E.11238
G1 X126.177 Y51.908 E.10845
G1 X126.669 Y53.819 E.10966
G1 X126.669 Y127.605 E4.10036
G1 X150.863 Y131.369 E1.36066
G1 X152.673 Y132.188 E.1104
G1 X153.449 Y132.754 E.05338
G1 X154.852 Y134.576 E.12779
G1 X155.504 Y136.777 E.12757
G1 X155.504 Y154.106 E.96299
G1 X155.133 Y155.809 E.09686
G1 X154.213 Y157.404 E.10232
G1 X153.731 Y157.992 E.04225
G1 X151.498 Y159.441 E.14793
G1 X105.625 Y171.674 E2.63829
G1 X75.514 Y171.782 E1.67331
G1 X73.746 Y171.38 E.10076
G1 X72.234 Y170.515 E.0968
G1 X71.032 Y169.29 E.09537
G1 X70.219 Y167.815 E.09359
G1 X69.84 Y166.114 E.09684
G1 X69.84 Y60.883 E5.84778
G1 X70.26 Y59.078 E.10299
G1 X71 Y57.774 E.08332
G1 X71.29 Y57.939 F10200
G1 F1200
G1 X71.328 Y57.873 E.00423
G1 X72.414 Y56.773 E.0859
G1 X73.705 Y55.999 E.08365
G1 X75.165 Y55.591 E.08424
G1 X91.748 Y55.553 E.92153
G1 X101.594 Y49.287 E.64855
G1 X102.993 Y48.722 E.08384
G1 X121.708 Y48.644 E1.04002
G1 X122.575 Y48.904 E.0503
G1 X123.391 Y49.28 E.04993
G1 X124.845 Y50.479 E.10473
G1 X125.861 Y52.02 E.10257
G1 X126.335 Y53.84 E.10451
G1 X126.334 Y127.892 E4.11514
G1 X150.788 Y131.696 E1.37527
G1 X152.519 Y132.486 E.10574
G1 X153.201 Y132.978 E.04673
G1 X154.541 Y134.702 E.12134
G1 X155.17 Y136.801 E.12177
G1 X155.17 Y154.087 E.9606
G1 X154.813 Y155.712 E.09246
G1 X153.931 Y157.223 E.09723
G1 X153.489 Y157.76 E.03865
G1 X151.387 Y159.125 E.13928
G1 X105.56 Y171.345 E2.63563
G1 X75.533 Y171.448 E1.66864
G1 X73.845 Y171.06 E.09625
G1 X72.421 Y170.238 E.09137
G1 X71.288 Y169.073 E.09031
G1 X70.523 Y167.676 E.08851
G1 X70.174 Y166.096 E.08992
G1 X70.174 Y60.902 E5.84573
G1 X70.563 Y59.221 E.09588
G1 X71.261 Y57.991 E.07859
G1 X71.55 Y58.157 F10200
G1 F1200
G1 X71.606 Y58.059 E.00627
G1 X72.636 Y57.024 E.08114
G1 X73.856 Y56.298 E.07889
G1 X75.231 Y55.919 E.07926
G1 X91.845 Y55.887 E.92326
G1 X101.76 Y49.577 E.6531
G1 X103.088 Y49.044 E.07952
G1 X121.636 Y48.971 E1.03074
G1 X122.446 Y49.213 E.04698
G1 X123.232 Y49.575 E.04809
G1 X124.612 Y50.72 E.09965
G1 X125.566 Y52.179 E.09687
G1 X126 Y53.861 E.09653
G1 X126 Y128.178 E4.12986
G1 X150.714 Y132.022 E1.38989
G1 X152.365 Y132.782 E.101
G1 X152.953 Y133.204 E.04022
G1 X154.23 Y134.829 E.11485
G1 X154.836 Y136.826 E.11597
G1 X154.836 Y154.07 E.95826
G1 X154.511 Y155.566 E.08507
G1 X153.65 Y157.043 E.09501
G1 X153.248 Y157.527 E.03496
G1 X151.275 Y158.809 E.13075
G1 X105.495 Y171.017 E2.63294
G1 X75.55 Y171.114 E1.66408
G1 X73.989 Y170.757 E.08899
G1 X72.643 Y169.987 E.08617
G1 X71.57 Y168.892 E.0852
G1 X70.828 Y167.536 E.0859
G1 X70.509 Y166.078 E.08294
G1 X70.509 Y60.921 E5.84367
G1 X70.883 Y59.322 E.09126
G1 X71.52 Y58.209 E.07126
G1 X71.807 Y58.371 F10200
G1 F1200
G1 X71.86 Y58.278 E.00595
G1 X72.825 Y57.3 E.07635
G1 X74.007 Y56.597 E.07642
G1 X75.297 Y56.247 E.07428
G1 X91.943 Y56.221 E.92503
G1 X101.926 Y49.868 E.65757
G1 X103.182 Y49.366 E.07517
G1 X121.564 Y49.298 E1.02151
G1 X122.339 Y49.53 E.04496
G1 X123.072 Y49.869 E.04488
G1 X124.347 Y50.925 E.092
G1 X125.25 Y52.291 E.091
G1 X125.666 Y53.883 E.09144
G1 X125.666 Y128.464 E4.14453
G1 X150.639 Y132.349 E1.40446
G1 X152.211 Y133.079 E.09632
G1 X152.707 Y133.431 E.0338
G1 X153.921 Y134.958 E.10841
G1 X154.502 Y136.852 E.11009
G1 X154.502 Y154.052 E.95582
G1 X154.209 Y155.421 E.0778
G1 X153.368 Y156.862 E.09272
G1 X153.008 Y157.294 E.03125
G1 X151.163 Y158.493 E.12228
G1 X105.429 Y170.688 E2.63028
G1 X75.569 Y170.78 E1.65936
G1 X74.09 Y170.438 E.08436
G1 X72.831 Y169.709 E.08085
G1 X71.851 Y168.711 E.07773
G1 X71.149 Y167.44 E.08069
G1 X70.843 Y166.06 E.07855
G1 X70.843 Y60.94 E5.84161
G1 X71.185 Y59.465 E.08414
G1 X71.777 Y58.423 E.0666
G1 X72.067 Y58.589 F10200
G1 F1200
G1 X72.139 Y58.462 E.00811
G1 X73.047 Y57.551 E.07148
G1 X74.156 Y56.896 E.07157
G1 X75.362 Y56.576 E.06934
G1 X92.04 Y56.555 E.92681
G1 X102.092 Y50.158 E.66212
G1 X103.276 Y49.688 E.07079
G1 X121.493 Y49.625 E1.01234
G1 X122.21 Y49.838 E.04157
G1 X122.911 Y50.163 E.04294
G1 X124.113 Y51.165 E.08696
G1 X124.955 Y52.451 E.08542
G1 X125.332 Y53.904 E.08342
G1 X125.332 Y128.75 E4.15926
G1 X150.564 Y132.675 E1.41903
G1 X152.056 Y133.376 E.09161
G1 X152.462 Y133.66 E.02753
G1 X153.611 Y135.088 E.10185
G1 X154.167 Y136.877 E.10411
G1 X154.167 Y154.034 E.95343
G1 X153.888 Y155.323 E.07329
G1 X153.088 Y156.68 E.08754
G1 X152.768 Y157.06 E.02761
G1 X151.052 Y158.177 E.11378
G1 X105.364 Y170.36 E2.62764
G1 X75.587 Y170.446 E1.65474
G1 X74.234 Y170.135 E.07715
G1 X73.052 Y169.458 E.0757
G1 X72.131 Y168.527 E.07277
G1 X71.469 Y167.343 E.07538
G1 X71.177 Y166.041 E.07415
G1 X71.177 Y60.959 E5.8395
G1 X71.488 Y59.609 E.07699
G1 X72.038 Y58.641 E.06187
G1 X72.327 Y58.807 F10200
G1 F1200
G1 X72.417 Y58.649 E.0101
G1 X73.267 Y57.804 E.0666
G1 X74.305 Y57.196 E.06685
G1 X75.425 Y56.905 E.06431
G1 X92.138 Y56.889 E.92876
G1 X102.258 Y50.449 E.66659
G1 X103.369 Y50.01 E.06638
G1 X121.421 Y49.953 E1.00317
G1 X122.103 Y50.155 E.03953
G1 X122.75 Y50.456 E.03965
G1 X123.88 Y51.405 E.082
G1 X124.639 Y52.562 E.0769
G1 X124.998 Y53.926 E.07838
G1 X124.998 Y129.036 E4.17393
G1 X150.488 Y133.002 E1.43355
G1 X151.899 Y133.671 E.08678
G1 X152.25 Y133.918 E.02385
G1 X153.33 Y135.271 E.0962
G1 X153.833 Y136.902 E.09485
G1 X153.833 Y154.017 E.9511
G1 X153.586 Y155.177 E.06591
G1 X152.807 Y156.497 E.08517
G1 X152.529 Y156.825 E.02389
G1 X150.94 Y157.861 E.10541
G1 X105.299 Y170.031 E2.62493
G1 X75.605 Y170.111 E1.65013
G1 X74.377 Y169.832 E.06998
G1 X73.272 Y169.205 E.0706
G1 X72.411 Y168.342 E.06774
G1 X71.789 Y167.244 E.07013
G1 X71.511 Y166.022 E.06964
G1 X71.511 Y60.978 E5.83739
G1 X71.807 Y59.71 E.07236
G1 X72.297 Y58.859 E.05457
G1 X72.583 Y59.022 F10200
G1 F1200
G1 X72.67 Y58.868 E.00983
G1 X73.456 Y58.08 E.06185
G1 X74.412 Y57.514 E.06174
G1 X75.488 Y57.233 E.0618
G1 X92.235 Y57.223 E.93065
G1 X102.423 Y50.74 E.67106
G1 X103.462 Y50.333 E.06201
G1 X121.349 Y50.28 E.994
G1 X122.587 Y50.749 E.07357
G1 X123.645 Y51.644 E.07701
G1 X124.344 Y52.721 E.07135
G1 X124.664 Y53.947 E.07041
G1 X124.664 Y129.323 E4.18871
G1 X150.412 Y133.328 E1.44805
G1 X151.741 Y133.966 E.08192
G1 X152.037 Y134.177 E.0202
G1 X153.021 Y135.402 E.08732
G1 X153.499 Y136.928 E.08886
G1 X153.499 Y153.999 E.94865
G1 X153.266 Y155.079 E.0614
G1 X152.292 Y156.589 E.09985
G1 X150.828 Y157.545 E.09717
G1 X105.234 Y169.703 E2.62223
G1 X75.623 Y169.777 E1.64552
G1 X74.477 Y169.513 E.06535
G1 X73.458 Y168.927 E.06532
G1 X72.665 Y168.124 E.06272
G1 X72.093 Y167.103 E.06504
G1 X71.845 Y166.004 E.06261
G1 X71.845 Y60.997 E5.83533
G1 X72.11 Y59.853 E.06526
G1 X72.553 Y59.074 E.0498
G1 X72.844 Y59.239 F10200
G1 F1200
G1 X72.949 Y59.054 E.01182
G1 X73.676 Y58.332 E.05694
G1 X74.56 Y57.814 E.05694
G1 X75.55 Y57.562 E.05677
G1 X92.332 Y57.557 E.93259
G1 X102.589 Y51.03 E.67561
G1 X103.554 Y50.655 E.05753
G1 X121.278 Y50.607 E.98494
G1 X121.865 Y50.78 E.03401
G1 X122.425 Y51.042 E.03436
G1 X123.409 Y51.882 E.0719
G1 X124.028 Y52.833 E.06306
G1 X124.33 Y53.969 E.06532
G1 X124.33 Y129.609 E4.20338
G1 X150.336 Y133.654 E1.46255
G1 X151.822 Y134.434 E.09326
G1 X152.74 Y135.585 E.08181
G1 X153.165 Y136.953 E.07961
G1 X153.165 Y153.982 E.94632
G1 X152.964 Y154.932 E.05396
G1 X152.055 Y156.352 E.09369
G1 X150.716 Y157.229 E.08895
G1 X105.168 Y169.375 E2.61959
G1 X75.641 Y169.443 E1.64085
G1 X74.62 Y169.21 E.0582
G1 X73.678 Y168.675 E.0602
G1 X72.944 Y167.939 E.05776
G1 X72.413 Y167.003 E.0598
G1 X72.179 Y165.985 E.05805
G1 X72.179 Y61.016 E5.83322
G1 X72.413 Y59.997 E.0581
G1 X72.814 Y59.291 E.04512
G1 X73.102 Y59.457 F10200
G1 F1200
G1 X73.227 Y59.241 E.01387
G1 X73.895 Y58.585 E.05203
G1 X74.665 Y58.132 E.04965
G1 X75.612 Y57.891 E.0543
G1 X92.43 Y57.891 E.93459
G1 X102.754 Y51.321 E.68003
G1 X103.645 Y50.978 E.05306
G1 X121.207 Y50.935 E.97594
G1 X122.261 Y51.334 E.06263
G1 X123.172 Y52.119 E.06683
G1 X123.732 Y52.991 E.05759
G1 X123.995 Y53.99 E.05741
G1 X123.995 Y129.895 E4.21811
G1 X150.259 Y133.98 E1.47706
G1 X151.606 Y134.69 E.08462
G1 X152.431 Y135.716 E.07316
G1 X152.831 Y136.979 E.07362
G1 X152.831 Y153.964 E.94387
G1 X152.644 Y154.834 E.04945
G1 X151.82 Y156.114 E.0846
G1 X150.604 Y156.913 E.08086
G1 X105.103 Y169.046 E2.61688
G1 X75.66 Y169.109 E1.63618
G1 X74.721 Y168.89 E.05358
G1 X73.865 Y168.397 E.05489
G1 X73.197 Y167.72 E.05285
G1 X72.733 Y166.904 E.05216
G1 X72.514 Y165.965 E.05358
G1 X72.514 Y61.035 E5.83106
G1 X72.732 Y60.098 E.05346
G1 X73.072 Y59.509 E.03779
G1 X73.359 Y59.672 F10200
G1 F1200
G1 X73.479 Y59.462 E.01344
G1 X74.084 Y58.861 E.04739
G1 X74.773 Y58.449 E.04461
G1 X75.634 Y58.225 E.04944
G1 X92.527 Y58.225 E.93876
G1 X102.919 Y51.613 E.68448
G1 X103.736 Y51.301 E.0486
G1 X121.138 Y51.262 E.96705
G1 X121.628 Y51.404 E.02835
G1 X122.097 Y51.626 E.02884
G1 X122.935 Y52.355 E.06172
G1 X123.417 Y53.103 E.04945
G1 X123.661 Y54.013 E.05236
G1 X123.661 Y130.181 E4.23272
G1 X150.181 Y134.307 E1.49147
G1 X151.388 Y134.943 E.07582
G1 X152.15 Y135.9 E.06798
G1 X152.497 Y137.004 E.06431
G1 X152.497 Y153.945 E.94143
G1 X152.324 Y154.734 E.04489
G1 X151.586 Y155.874 E.07547
G1 X150.491 Y156.597 E.07292
G1 X105.038 Y168.718 E2.61413
G1 X75.679 Y168.775 E1.63151
G1 X74.864 Y168.587 E.04648
G1 X74.085 Y168.145 E.04977
G1 X73.475 Y167.533 E.04802
G1 X73.052 Y166.802 E.04693
G1 X72.848 Y165.945 E.04895
G1 X72.848 Y61.054 E5.82889
G1 X73.035 Y60.241 E.04636
G1 X73.329 Y59.725 E.033
G1 X73.616 Y59.891 F10200
G1 F1200
G1 X73.756 Y59.65 E.01549
G1 X74.304 Y59.114 E.0426
G1 X74.883 Y58.766 E.03754
G1 X75.656 Y58.56 E.04446
G1 X92.624 Y58.56 E.94293
G1 X103.083 Y51.904 E.68893
G1 X103.825 Y51.625 E.04405
G1 X121.069 Y51.59 E.95827
G1 X121.933 Y51.918 E.05136
G1 X122.695 Y52.59 E.05646
G1 X123.121 Y53.26 E.04412
G1 X123.327 Y54.034 E.04451
G1 X123.327 Y130.467 E4.24745
G1 X150.103 Y134.633 E1.50587
G1 X151.167 Y135.195 E.06687
G1 X151.842 Y136.032 E.05975
G1 X152.163 Y137.031 E.05831
G1 X152.163 Y153.927 E.93893
G1 X152.004 Y154.632 E.04016
G1 X151.356 Y155.632 E.06622
G1 X150.379 Y156.281 E.06518
G1 X104.973 Y168.389 E2.61142
G1 X75.698 Y168.44 E1.62684
G1 X74.965 Y168.268 E.04184
G1 X74.273 Y167.867 E.04445
G1 X73.729 Y167.315 E.04307
G1 X73.354 Y166.658 E.04204
G1 X73.182 Y165.926 E.04179
G1 X73.182 Y61.074 E5.82672
G1 X73.354 Y60.343 E.04173
G1 X73.586 Y59.943 E.0257
G1 X73.873 Y60.106 F10200
G1 F1200
G1 X74.007 Y59.871 E.01503
G1 X74.496 Y59.388 E.0382
G1 X74.995 Y59.081 E.03256
G1 X75.679 Y58.894 E.03941
G1 X92.722 Y58.894 E.94709
G1 X103.247 Y52.196 E.69328
G1 X103.913 Y51.948 E.03949
G1 X121.001 Y51.918 E.9496
G1 X121.368 Y52.021 E.02118
G1 X121.768 Y52.21 E.02458
G1 X122.456 Y52.823 E.05121
G1 X122.805 Y53.373 E.0362
G1 X122.993 Y54.057 E.03942
G1 X122.993 Y130.754 E4.26212
G1 X150.024 Y134.959 E1.5202
G1 X150.941 Y135.441 E.05757
G1 X151.535 Y136.167 E.05213
G1 X151.828 Y137.058 E.05212
G1 X151.828 Y153.907 E.93631
G1 X151.686 Y154.528 E.0354
G1 X151.13 Y155.385 E.05677
G1 X150.265 Y155.965 E.05787
G1 X104.908 Y168.061 E2.60862
G1 X75.716 Y168.106 E1.62223
G1 X75.109 Y167.965 E.03463
G1 X74.492 Y167.615 E.03942
G1 X74.008 Y167.13 E.03808
G1 X73.657 Y166.514 E.0394
G1 X73.516 Y165.907 E.03463
G1 X73.516 Y61.093 E5.82461
G1 X73.657 Y60.486 E.03463
G1 X73.843 Y60.158 E.02095
G1 X74.132 Y60.32 F10200
G1 F1200
G1 X74.261 Y60.09 E.01465
G1 X74.691 Y59.66 E.03379
G1 X75.111 Y59.396 E.02757
G1 X75.703 Y59.228 E.0342
G1 X92.819 Y59.228 E.95115
G1 X103.411 Y52.487 E.6977
G1 X104 Y52.272 E.03484
G1 X120.935 Y52.246 E.94109
G1 X121.602 Y52.501 E.03968
G1 X122.215 Y53.055 E.04592
G1 X122.491 Y53.488 E.02853
G1 X122.659 Y54.081 E.03425
G1 X122.659 Y131.04 E4.27668
G1 X149.945 Y135.284 E1.53454
G1 X150.715 Y135.692 E.04843
G1 X151.257 Y136.354 E.04755
G1 X151.494 Y137.084 E.04265
G1 X151.494 Y153.887 E.93376
G1 X151.368 Y154.421 E.03049
G1 X150.9 Y155.138 E.04758
G1 X150.151 Y155.65 E.05042
G1 X104.843 Y167.732 E2.60579
G1 X75.734 Y167.772 E1.61762
G1 X75.25 Y167.662 E.02758
G1 X74.712 Y167.361 E.03426
G1 X74.261 Y166.91 E.03544
G1 X73.96 Y166.373 E.03421
G1 X73.85 Y165.889 E.02758
G1 X73.85 Y61.111 E5.82261
G1 X73.96 Y60.627 E.02758
G1 X74.103 Y60.372 E.01625
G1 X74.394 Y60.531 F10200
G1 F1200
G1 X74.515 Y60.308 E.0141
G1 X74.914 Y59.909 E.03136
G1 X75.229 Y59.709 E.02074
G1 X75.728 Y59.562 E.02891
G1 X92.916 Y59.562 E.95515
G1 X103.574 Y52.78 E.70202
G1 X104.085 Y52.596 E.03018
G1 X120.871 Y52.575 E.93281
G1 X121.111 Y52.638 E.01379
G1 X121.436 Y52.792 E.01999
G1 X121.972 Y53.286 E.04051
G1 X122.178 Y53.607 E.0212
G1 X122.325 Y54.106 E.02891
G1 X122.325 Y131.326 E4.29119
G1 X149.867 Y135.61 E1.54894
G1 X150.481 Y135.932 E.03853
G1 X150.951 Y136.493 E.04067
G1 X151.16 Y137.112 E.03631
G1 X151.16 Y153.866 E.93104
G1 X151.051 Y154.312 E.02551
G1 X150.641 Y154.925 E.04098
G1 X150.038 Y155.334 E.04049
G1 X104.778 Y167.404 E2.60304
G1 X75.752 Y167.438 E1.613
G1 X75.388 Y167.357 E.02072
G1 X74.931 Y167.108 E.02892
G1 X74.515 Y166.692 E.03269
G1 X74.265 Y166.234 E.029
G1 X74.184 Y165.871 E.02067
G1 X74.184 Y61.129 E5.82061
G1 X74.265 Y60.766 E.02067
G1 X74.365 Y60.583 E.01159
G1 X74.658 Y60.738 F10200
G1 F1200
G1 X74.769 Y60.526 E.0133
G1 X75.138 Y60.157 E.029
G1 X75.754 Y59.896 E.03718
G1 X93.013 Y59.896 E.9591
G1 X103.737 Y53.072 E.70637
G1 X104.169 Y52.921 E.02543
G1 X120.81 Y52.904 E.92476
G1 X121.269 Y53.083 E.02738
G1 X121.728 Y53.515 E.03503
