; generated by PrusaSlicer 2.9.2 on 2025-11-13 at 04:23:17 UTC

; 

; external perimeters extrusion width = 0.42mm
; perimeters extrusion width = 0.44mm
; infill extrusion width = 0.44mm
; solid infill extrusion width = 0.44mm
; top infill extrusion width = 0.40mm
; support material extrusion width = 0.36mm
; first layer extrusion width = 0.42mm

M201 X500 Y500 Z100 E5000 ; sets maximum accelerations, mm/sec^2
M203 X500 Y500 Z10 E60 ; sets maximum feedrates, mm / sec
M204 S500 T1000 ; sets acceleration (S) and retract acceleration (R), mm/sec^2
M205 X8.00 Y8.00 Z0.40 E5.00 ; sets the jerk limits, mm/sec
M205 S0 T0 ; sets the minimum extruding and travel feed rate, mm/sec

; printing object WallLeft.stl id:0 copy 0
; stop printing object WallLeft.stl id:0 copy 0

;TYPE:Custom
G90 ; use absolute coordinates
M83 ; extruder relative mode
M104 S150 ; set temporary nozzle temp to prevent oozing during homing
M140 S80 ; set final bed temp
G4 S30 ; allow partial nozzle warmup
G28 ; home all axis
G1 Z50 F240
G1 X2.0 Y10 F3000
M104 S230 ; set final nozzle temp
M190 S80 ; wait for bed temp to stabilize
M109 S230 ; wait for nozzle temp to stabilize
G1 Z0.28 F240
G92 E0
G1 X2.0 Y140 E10 F1500 ; prime the nozzle
G1 X2.3 Y140 F5000
G92 E0
G1 X2.3 Y10 E10 F1200 ; prime the nozzle
G92 E0
G21 ; set units to millimeters
G90 ; use absolute coordinates
M83 ; use relative distances for extrusion
; Filament gcode
M107
;LAYER_CHANGE
;Z:0.4
;HEIGHT:0.4
G1 E-1 F3600
G1 Z.4 F10200
G1 X83.994 Y50.614
G1 Z.4
G1 E1 F2400
M204 S500
;TYPE:Skirt/Brim
;WIDTH:0.42
G1 F1200
G1 X85.183 Y49.344 E.09668
G1 X86.624 Y48.439 E.09456
G1 X88.288 Y47.947 E.09643
G1 X106.263 Y47.944 E.99889
G1 X108.484 Y48.662 E.12971
G1 X118.265 Y54.886 E.64425
G1 X134.75 Y54.934 E.91609
G1 X136.43 Y55.409 E.09702
G1 X138.067 Y56.454 E.10792
G1 X139.361 Y57.963 E.11047
G1 X140.19 Y59.962 E.12026
G1 X140.31 Y60.974 E.05663
G1 X140.31 Y166.2 E5.8475
G1 X139.81 Y168.18 E.11348
G1 X138.7 Y169.912 E.11432
G1 X137.136 Y171.225 E.11348
G1 X135.228 Y171.997 E.11438
G1 X134.21 Y172.116 E.05696
G1 X104.125 Y172.002 E1.67186
G1 X58.197 Y159.755 E2.64144
G1 X55.632 Y158.007 E.17249
G1 X54.681 Y156.607 E.09405
G1 X54.098 Y155.014 E.09427
G1 X53.998 Y154.168 E.04734
G1 X53.977 Y136.758 E.96749
G1 X54.652 Y134.451 E.13358
G1 X56.155 Y132.494 E.13712
G1 X56.992 Y131.89 E.05736
G1 X58.879 Y131.042 E.11496
G1 X82.813 Y127.319 E1.34603
G1 X82.813 Y53.924 E4.07863
G1 X83.173 Y52.171 E.09945
G1 X83.966 Y50.667 E.09448
G1 X84.255 Y50.825 F10200
G1 F1200
G1 X85.379 Y49.615 E.09178
G1 X86.782 Y48.734 E.09206
G1 X88.358 Y48.275 E.09122
G1 X106.186 Y48.27 E.99072
G1 X108.323 Y48.955 E.12471
G1 X118.167 Y55.22 E.64843
G1 X134.726 Y55.269 E.9202
G1 X136.314 Y55.723 E.09178
G1 X137.865 Y56.721 E.10249
G1 X139.09 Y58.159 E.10498
G1 X139.861 Y60.024 E.11215
G1 X139.975 Y60.984 E.05372
G1 X139.975 Y166.179 E5.84578
G1 X139.493 Y168.071 E.1085
G1 X138.465 Y169.673 E.10578
G1 X136.985 Y170.926 E.10776
G1 X135.166 Y171.668 E.10917
G1 X134.2 Y171.782 E.05405
G1 X104.19 Y171.674 E1.66769
G1 X58.311 Y159.439 E2.63864
G1 X55.89 Y157.793 E.16269
G1 X54.969 Y156.437 E.09109
G1 X54.428 Y154.955 E.08767
G1 X54.332 Y154.158 E.04461
G1 X54.311 Y136.782 E.9656
G1 X54.963 Y134.576 E.12783
G1 X56.403 Y132.719 E.13059
G1 X57.144 Y132.188 E.05066
G1 X58.953 Y131.369 E.11035
G1 X83.147 Y127.605 E1.36066
G1 X83.147 Y53.941 E4.09358
G1 X83.48 Y52.305 E.09278
G1 X84.227 Y50.878 E.08951
G1 X84.515 Y51.036 F10200
G1 F1200
G1 X85.609 Y49.859 E.0893
G1 X86.938 Y49.03 E.08704
G1 X88.428 Y48.602 E.08615
G1 X106.109 Y48.597 E.98255
G1 X108.162 Y49.249 E.1197
G1 X118.069 Y55.553 E.65255
G1 X134.701 Y55.603 E.92426
G1 X136.197 Y56.037 E.08656
G1 X137.662 Y56.988 E.09706
G1 X138.817 Y58.355 E.09945
G1 X139.532 Y60.087 E.10413
G1 X139.641 Y60.994 E.05077
G1 X139.641 Y166.158 E5.84406
G1 X139.176 Y167.961 E.10347
G1 X138.199 Y169.47 E.0999
G1 X136.791 Y170.653 E.1022
G1 X135.104 Y171.339 E.1012
G1 X134.191 Y171.448 E.0511
G1 X104.256 Y171.345 E1.66352
G1 X58.424 Y159.123 E2.63593
G1 X56.148 Y157.578 E.15287
G1 X55.275 Y156.301 E.08596
G1 X54.757 Y154.895 E.08327
G1 X54.666 Y154.147 E.04187
G1 X54.645 Y136.806 E.96366
G1 X55.274 Y134.702 E.12203
G1 X56.651 Y132.944 E.12409
G1 X57.297 Y132.485 E.04404
G1 X59.027 Y131.696 E.10566
G1 X83.481 Y127.892 E1.37527
G1 X83.481 Y53.957 E4.10864
G1 X83.788 Y52.437 E.08617
G1 X84.487 Y51.089 E.08438
G1 X84.776 Y51.245 F10200
G1 F1200
G1 X85.806 Y50.129 E.08439
G1 X87.054 Y49.345 E.0819
G1 X88.498 Y48.93 E.08349
G1 X106.083 Y48.931 E.97721
G1 X108.001 Y49.542 E.11186
G1 X117.971 Y55.887 E.65672
G1 X134.676 Y55.937 E.92832
G1 X136.079 Y56.35 E.08127
G1 X137.423 Y57.222 E.08903
G1 X138.545 Y58.55 E.09661
G1 X139.203 Y60.15 E.09614
G1 X139.307 Y61.005 E.04786
G1 X139.307 Y166.137 E5.84228
G1 X138.88 Y167.803 E.09557
G1 X137.963 Y169.232 E.09435
G1 X136.639 Y170.354 E.09644
G1 X135.041 Y171.01 E.09599
G1 X134.182 Y171.114 E.04808
G1 X104.321 Y171.017 E1.65941
G1 X58.537 Y158.808 E2.63317
G1 X56.406 Y157.363 E.14308
G1 X55.581 Y156.165 E.08083
G1 X55.086 Y154.835 E.07886
G1 X55 Y154.137 E.03908
G1 X54.979 Y136.831 E.96171
G1 X55.585 Y134.83 E.11618
G1 X56.897 Y133.171 E.11754
G1 X57.451 Y132.782 E.03762
G1 X59.102 Y132.022 E.101
G1 X83.815 Y128.178 E1.38984
G1 X83.815 Y53.974 E4.12358
G1 X84.096 Y52.569 E.07962
G1 X84.749 Y51.299 E.07936
G1 X85.046 Y51.451 F10200
G1 F1200
G1 X85.063 Y51.419 E.00201
G1 X86.035 Y50.374 E.07931
G1 X87.21 Y49.641 E.07696
G1 X88.566 Y49.258 E.0783
G1 X106.007 Y49.257 E.96921
G1 X107.84 Y49.836 E.10682
G1 X117.874 Y56.221 E.66092
G1 X134.606 Y56.264 E.92982
G1 X135.919 Y56.645 E.07597
G1 X137.185 Y57.458 E.08361
G1 X138.247 Y58.703 E.09094
G1 X138.874 Y60.213 E.09086
G1 X138.973 Y61.015 E.04491
G1 X138.973 Y166.116 E5.84056
G1 X138.584 Y167.647 E.08778
G1 X137.727 Y168.995 E.08877
G1 X136.486 Y170.056 E.09073
G1 X134.978 Y170.681 E.09071
G1 X134.172 Y170.78 E.04513
G1 X104.386 Y170.688 E1.65524
G1 X58.65 Y158.492 E2.6304
G1 X56.662 Y157.147 E.13338
G1 X55.886 Y156.027 E.07572
G1 X55.415 Y154.774 E.07439
G1 X55.334 Y154.126 E.03629
G1 X55.314 Y136.855 E.95977
G1 X55.895 Y134.959 E.1102
G1 X57.142 Y133.4 E.11094
G1 X57.604 Y133.079 E.03126
G1 X59.177 Y132.349 E.09637
G1 X84.15 Y128.464 E1.40446
G1 X84.149 Y53.99 E4.13859
G1 X84.404 Y52.701 E.07302
G1 X85.019 Y51.505 E.07473
G1 X85.311 Y51.654 F10200
G1 F1200
G1 X85.325 Y51.628 E.00164
G1 X86.231 Y50.645 E.07429
G1 X87.366 Y49.938 E.07431
G1 X88.633 Y49.586 E.07308
G1 X105.932 Y49.584 E.96132
G1 X107.68 Y50.13 E.10177
G1 X117.776 Y56.555 E.66502
G1 X134.537 Y56.592 E.93143
G1 X135.761 Y56.94 E.07071
G1 X136.949 Y57.695 E.07822
G1 X137.949 Y58.858 E.08524
G1 X138.545 Y60.278 E.08558
G1 X138.639 Y61.026 E.04189
G1 X138.639 Y166.095 E5.83878
G1 X138.267 Y167.537 E.08276
G1 X137.46 Y168.793 E.08296
G1 X136.29 Y169.784 E.08521
G1 X134.914 Y170.352 E.08272
G1 X134.163 Y170.446 E.04206
G1 X104.452 Y170.36 E1.65107
G1 X58.763 Y158.176 E2.62771
G1 X56.918 Y156.93 E.12372
G1 X56.191 Y155.889 E.07056
G1 X55.744 Y154.712 E.06997
G1 X55.669 Y154.115 E.03344
G1 X55.648 Y136.881 E.95771
G1 X56.204 Y135.088 E.10432
G1 X57.353 Y133.66 E.10185
G1 X57.76 Y133.376 E.02758
G1 X59.252 Y132.675 E.09161
G1 X84.484 Y128.75 E1.41903
G1 X84.484 Y54.006 E4.15359
G1 X84.712 Y52.831 E.06651
G1 X85.284 Y51.707 E.07008
G1 X85.578 Y51.855 F10200
G1 F1200
G1 X85.587 Y51.836 E.00117
G1 X86.428 Y50.916 E.06927
G1 X87.521 Y50.234 E.07159
G1 X88.699 Y49.914 E.06783
G1 X105.858 Y49.91 E.95354
G1 X107.519 Y50.424 E.09662
G1 X117.679 Y56.889 E.66921
G1 X134.47 Y56.92 E.93309
G1 X135.605 Y57.236 E.06547
G1 X136.712 Y57.933 E.0727
G1 X137.679 Y59.055 E.08231
G1 X138.217 Y60.342 E.07752
G1 X138.305 Y61.036 E.03888
G1 X138.305 Y166.073 E5.837
G1 X137.951 Y167.426 E.07772
G1 X137.224 Y168.555 E.07462
G1 X136.137 Y169.486 E.07953
G1 X134.85 Y170.024 E.07752
G1 X134.153 Y170.111 E.03903
G1 X104.517 Y170.031 E1.64691
G1 X58.876 Y157.861 E2.62493
G1 X57.174 Y156.712 E.11412
G1 X56.495 Y155.749 E.06548
G1 X56.073 Y154.649 E.06547
G1 X56.003 Y154.104 E.03053
G1 X55.982 Y136.905 E.95576
G1 X56.485 Y135.272 E.09495
G1 X57.566 Y133.919 E.09624
G1 X57.917 Y133.671 E.02388
G1 X59.328 Y133.002 E.08678
G1 X84.818 Y129.036 E1.43355
G1 X84.818 Y54.021 E4.16865
G1 X85.022 Y52.96 E.06004
G1 X85.551 Y51.908 E.06544
G1 X85.844 Y52.054 F10200
G1 F1200
G1 X85.85 Y52.044 E.00065
G1 X86.658 Y51.159 E.06659
G1 X87.675 Y50.532 E.06639
G1 X88.763 Y50.243 E.06256
G1 X105.832 Y50.244 E.94854
G1 X107.358 Y50.718 E.0888
G1 X117.581 Y57.223 E.67336
G1 X134.403 Y57.248 E.93481
G1 X135.45 Y57.533 E.0603
G1 X136.477 Y58.171 E.06719
G1 X137.382 Y59.211 E.07661
G1 X137.888 Y60.408 E.07222
G1 X137.97 Y61.047 E.0358
G1 X137.97 Y166.052 E5.83522
G1 X137.654 Y167.27 E.06993
G1 X136.986 Y168.319 E.06911
G1 X135.982 Y169.189 E.07383
G1 X134.784 Y169.695 E.07227
G1 X134.142 Y169.777 E.03597
G1 X104.582 Y169.703 E1.64268
G1 X58.989 Y157.545 E2.62218
G1 X57.429 Y156.495 E.1045
G1 X56.781 Y155.574 E.06258
G1 X56.402 Y154.586 E.05881
G1 X56.337 Y154.092 E.02769
G1 X56.316 Y136.931 E.95365
G1 X56.794 Y135.402 E.08902
G1 X57.779 Y134.177 E.08735
G1 X58.075 Y133.966 E.0202
G1 X59.404 Y133.328 E.08192
G1 X85.152 Y129.323 E1.44805
G1 X85.152 Y54.037 E4.18371
G1 X85.331 Y53.087 E.05372
G1 X85.818 Y52.108 E.06076
G1 X86.117 Y52.257 F10200
G1 F1200
G1 X86.138 Y52.214 E.00266
G1 X86.887 Y51.404 E.06131
G1 X87.827 Y50.831 E.06118
G1 X88.826 Y50.571 E.05736
G1 X105.758 Y50.571 E.94093
G1 X107.198 Y51.012 E.08369
G1 X117.484 Y57.557 E.67751
G1 X134.339 Y57.577 E.93665
G1 X135.297 Y57.831 E.05508
G1 X136.244 Y58.412 E.06174
G1 X137.086 Y59.368 E.07079
G1 X137.56 Y60.475 E.06692
G1 X137.636 Y61.058 E.03267
G1 X137.636 Y166.031 E5.83344
G1 X137.358 Y167.114 E.06213
G1 X136.747 Y168.084 E.06371
G1 X135.825 Y168.892 E.06813
G1 X134.718 Y169.367 E.06694
G1 X134.132 Y169.443 E.03284
G1 X104.647 Y169.375 E1.63851
G1 X59.102 Y157.229 E2.61943
G1 X57.684 Y156.276 E.09494
G1 X57.084 Y155.433 E.0575
G1 X56.73 Y154.521 E.05436
G1 X56.671 Y154.081 E.02467
G1 X56.65 Y136.955 E.95171
G1 X57.075 Y135.586 E.07966
G1 X57.994 Y134.434 E.08189
G1 X59.48 Y133.654 E.09326
G1 X85.486 Y129.609 E1.46255
G1 X85.486 Y54.052 E4.19877
G1 X85.641 Y53.215 E.0473
G1 X86.09 Y52.31 E.05614
G1 X86.385 Y52.454 F10200
G1 F1200
G1 X86.4 Y52.423 E.00191
G1 X87.116 Y51.648 E.05863
G1 X87.978 Y51.13 E.05589
G1 X88.887 Y50.901 E.05209
G1 X105.686 Y50.898 E.93354
G1 X107.039 Y51.307 E.07855
G1 X117.386 Y57.891 E.68153
G1 X134.276 Y57.905 E.93859
G1 X135.146 Y58.13 E.04994
G1 X136.012 Y58.654 E.05625
G1 X136.79 Y59.526 E.06494
G1 X137.232 Y60.542 E.06157
G1 X137.302 Y61.069 E.02954
G1 X137.302 Y166.009 E5.83161
G1 X137.041 Y167.004 E.05716
G1 X136.507 Y167.851 E.05564
G1 X135.667 Y168.597 E.06243
G1 X134.65 Y169.039 E.06162
G1 X134.121 Y169.109 E.02965
G1 X104.712 Y169.046 E1.63429
G1 X59.215 Y156.913 E2.61667
G1 X57.937 Y156.057 E.08548
G1 X57.387 Y155.291 E.0524
G1 X57.058 Y154.455 E.04993
G1 X57.005 Y154.069 E.02165
G1 X56.985 Y136.981 E.9496
G1 X57.384 Y135.717 E.07366
G1 X58.21 Y134.69 E.07324
G1 X59.557 Y133.98 E.08462
G1 X85.82 Y129.895 E1.47701
G1 X85.82 Y54.066 E4.21389
G1 X85.952 Y53.34 E.04101
G1 X86.359 Y52.508 E.05147
G1 X86.659 Y52.655 F10200
G1 F1200
G1 X86.689 Y52.592 E.00388
G1 X87.343 Y51.895 E.05311
G1 X88.126 Y51.43 E.05061
G1 X88.947 Y51.23 E.04696
G1 X105.661 Y51.232 E.92881
G1 X106.878 Y51.601 E.07067
G1 X117.289 Y58.225 E.68572
G1 X134.216 Y58.234 E.94065
G1 X134.997 Y58.431 E.04476
G1 X135.782 Y58.897 E.05073
G1 X136.496 Y59.686 E.05913
G1 X136.904 Y60.611 E.05618
G1 X136.968 Y61.081 E.02636
G1 X136.968 Y165.988 E5.82978
G1 X136.744 Y166.85 E.04949
G1 X136.265 Y167.619 E.05035
G1 X135.507 Y168.303 E.05674
G1 X134.581 Y168.711 E.05623
G1 X134.11 Y168.775 E.02641
G1 X104.778 Y168.718 E1.63001
G1 X59.327 Y156.598 E2.61401
G1 X58.19 Y155.836 E.07606
G1 X57.689 Y155.147 E.04734
G1 X57.386 Y154.388 E.04542
G1 X57.319 Y137.006 E.96594
G1 X57.665 Y135.9 E.0644
G1 X58.428 Y134.943 E.06802
G1 X59.634 Y134.307 E.07577
G1 X86.154 Y130.181 E1.49147
G1 X86.154 Y54.08 E4.229
G1 X86.262 Y53.465 E.0347
G1 X86.632 Y52.709 E.04677
G1 X86.928 Y52.851 F10200
G1 F1200
G1 X86.951 Y52.802 E.00301
G1 X87.57 Y52.141 E.05032
G1 X88.271 Y51.732 E.0451
G1 X89.004 Y51.56 E.04184
G1 X105.636 Y51.566 E.92426
G1 X106.718 Y51.895 E.06285
G1 X117.191 Y58.56 E.68985
G1 X134.157 Y58.564 E.94282
G1 X134.851 Y58.732 E.03968
G1 X135.554 Y59.142 E.04522
G1 X136.203 Y59.849 E.05333
G1 X136.577 Y60.682 E.05074
G1 X136.634 Y61.093 E.02306
G1 X136.634 Y165.966 E5.82789
G1 X136.428 Y166.739 E.04446
G1 X136.022 Y167.388 E.04254
G1 X135.344 Y168.009 E.05109
G1 X134.511 Y168.383 E.05074
G1 X134.099 Y168.44 E.02311
G1 X104.843 Y168.389 E1.62578
G1 X59.44 Y156.282 E2.61125
G1 X58.442 Y155.615 E.06671
G1 X57.991 Y155.001 E.04234
G1 X57.714 Y154.319 E.04091
G1 X57.653 Y137.032 E.96066
G1 X57.973 Y136.032 E.05835
G1 X58.649 Y135.195 E.05979
G1 X59.712 Y134.633 E.06682
G1 X86.489 Y130.467 E1.50592
G1 X86.489 Y54.094 E4.24412
G1 X86.574 Y53.588 E.02851
G1 X86.902 Y52.905 E.0421
G1 X87.203 Y53.049 F10200
G1 F1200
G1 X87.241 Y52.971 E.00482
G1 X87.794 Y52.39 E.04457
G1 X88.415 Y52.035 E.03975
G1 X89.022 Y51.894 E.03463
G1 X105.611 Y51.901 E.92187
G1 X106.558 Y52.189 E.05501
G1 X117.094 Y58.894 E.694
G1 X134.101 Y58.894 E.94509
G1 X134.707 Y59.035 E.03458
G1 X135.328 Y59.39 E.03975
G1 X135.911 Y60.014 E.04746
G1 X136.25 Y60.754 E.04523
G1 X136.3 Y165.943 E5.84545
G1 X136.112 Y166.626 E.03937
G1 X135.778 Y167.159 E.03495
G1 X135.18 Y167.717 E.04545
G1 X134.439 Y168.056 E.04528
G1 X134.087 Y168.106 E.01976
G1 X104.908 Y168.061 E1.62151
G1 X59.552 Y155.966 E2.60855
G1 X58.692 Y155.392 E.05746
G1 X58.291 Y154.853 E.03733
G1 X58.041 Y154.248 E.03638
G1 X57.987 Y137.059 E.95521
G1 X58.281 Y136.167 E.05219
G1 X58.899 Y135.42 E.05388
G1 X59.791 Y134.959 E.0558
G1 X86.823 Y130.754 E1.52026
G1 X86.823 Y54.106 E4.2594
G1 X86.886 Y53.71 E.02228
G1 X87.177 Y53.104 E.03736
G1 X87.473 Y53.242 F10200
G1 F1200
G1 X87.502 Y53.181 E.00375
G1 X88.018 Y52.64 E.04155
G1 X88.556 Y52.338 E.03429
G1 X89.041 Y52.228 E.02764
G1 X105.586 Y52.235 E.91942
G1 X106.397 Y52.483 E.04713
G1 X116.997 Y59.228 E.69819
G1 X134.082 Y59.228 E.94943
G1 X134.566 Y59.338 E.02758
G1 X135.104 Y59.64 E.03429
G1 X135.621 Y60.181 E.04158
G1 X135.923 Y60.827 E.03963
G1 X135.966 Y165.919 E5.84006
G1 X135.798 Y166.511 E.0342
G1 X135.533 Y166.932 E.02764
G1 X135.013 Y167.427 E.0399
G1 X134.366 Y167.729 E.03968
G1 X104.973 Y167.732 E1.6334
G1 X59.665 Y155.65 E2.60579
G1 X58.941 Y155.168 E.04833
G1 X58.59 Y154.703 E.03238
G1 X58.367 Y154.174 E.0319
G1 X58.321 Y137.085 E.94965
G1 X58.559 Y136.354 E.04272
G1 X59.101 Y135.692 E.04755
G1 X59.871 Y135.284 E.04843
G1 X87.157 Y131.04 E1.53454
G1 X87.157 Y54.117 E4.27468
G1 X87.2 Y53.827 E.01629
G1 X87.448 Y53.296 E.03257
G1 X87.748 Y53.44 F10200
G1 F1200
G1 X87.791 Y53.351 E.00549
G1 X88.238 Y52.892 E.0356
G1 X88.695 Y52.643 E.02892
G1 X89.058 Y52.562 E.02067
G1 X105.561 Y52.569 E.91709
G1 X106.237 Y52.777 E.0393
G1 X116.9 Y59.562 E.70234
G1 X134.064 Y59.562 E.95382
G1 X134.428 Y59.643 E.02072
G1 X134.884 Y59.892 E.02887
G1 X135.332 Y60.351 E.03564
G1 X135.597 Y60.904 E.03408
G1 X135.631 Y165.894 E5.83439
G1 X135.484 Y166.394 E.02896
G1 X135.285 Y166.707 E.02061
G1 X134.842 Y167.138 E.03435
G1 X134.289 Y167.403 E.03408
G1 X105.038 Y167.404 E1.6255
G1 X59.778 Y155.334 E2.60304
G1 X59.189 Y154.942 E.03932
G1 X58.888 Y154.551 E.02742
G1 X58.692 Y154.096 E.02753
G1 X58.656 Y137.113 E.94376
G1 X58.865 Y136.493 E.03636
G1 X59.335 Y135.932 E.04067
G1 X59.949 Y135.61 E.03853
G1 X87.491 Y131.326 E1.54894
G1 X87.526 Y53.904 E4.30241
G1 X87.722 Y53.494 E.02525
G1 X88.037 Y53.623 F10200
G1 F1200
G1 X88.077 Y53.525 E.00588
G1 X88.455 Y53.147 E.02971
G1 X89.076 Y52.896 E.03722
G1 X105.536 Y52.903 E.9147
G1 X106.076 Y53.071 E.03143
G1 X116.802 Y59.896 E.70649
G1 X134.047 Y59.896 E.95832
G1 X134.667 Y60.147 E.03717
G1 X135.045 Y60.525 E.02971
G1 X135.271 Y60.983 E.02838
G1 X135.297 Y165.868 E5.82855
