; generated by PrusaSlicer 2.9.2 on 2025-11-13 at 17:08:12 UTC

; 

; external perimeters extrusion width = 0.42mm
; perimeters extrusion width = 0.44mm
; infill extrusion width = 0.44mm
; solid infill extrusion width = 0.44mm
; top infill extrusion width = 0.40mm
; first layer extrusion width = 0.42mm

M201 X500 Y500 Z100 E5000 ; sets maximum accelerations, mm/sec^2
M203 X500 Y500 Z10 E60 ; sets maximum feedrates, mm / sec
M204 S500 T1000 ; sets acceleration (S) and retract acceleration (R), mm/sec^2
M205 X8.00 Y8.00 Z0.40 E5.00 ; sets the jerk limits, mm/sec
M205 S0 T0 ; sets the minimum extruding and travel feed rate, mm/sec

; printing object Wheel.stl id:0 copy 0
; stop printing object Wheel.stl id:0 copy 0

;TYPE:Custom
G90 ; use absolute coordinates
M83 ; extruder relative mode
M104 S150 ; set temporary nozzle temp to prevent oozing during homing
M140 S80 ; set final bed temp
G4 S30 ; allow partial nozzle warmup
G28 ; home all axis
G1 Z50 F240
G1 X2.0 Y10 F3000
M104 S230 ; set final nozzle temp
M190 S80 ; wait for bed temp to stabilize
M109 S230 ; wait for nozzle temp to stabilize
G1 Z0.28 F240
G92 E0
G1 X2.0 Y140 E10 F1500 ; prime the nozzle
G1 X2.3 Y140 F5000
G92 E0
G1 X2.3 Y10 E10 F1200 ; prime the nozzle
G92 E0
G21 ; set units to millimeters
G90 ; use absolute coordinates
M83 ; use relative distances for extrusion
; Filament gcode
M107
;LAYER_CHANGE
;Z:0.4
;HEIGHT:0.4
G1 E-1 F3600
G1 Z.4 F10200
G1 X90.813 Y96.7
G1 Z.4
G1 E1 F2400
M204 S500
;TYPE:Skirt/Brim
;WIDTH:0.42
G1 F1200
G1 X93.652 Y94.471 E.20058
G1 X96.869 Y92.839 E.20046
G1 X100.294 Y91.873 E.19776
G1 X103.164 Y91.591 E.16026
G1 X104.407 Y91.639 E.06913
G1 X107.534 Y92.022 E.17507
G1 X110.963 Y93.143 E.20048
G1 X114.109 Y94.914 E.20062
G1 X116.849 Y97.264 E.2006
G1 X119.079 Y100.103 E.20062
G1 X120.711 Y103.323 E.20061
G1 X121.684 Y106.799 E.20059
G1 X121.96 Y110.399 E.20064
G1 X121.528 Y113.983 E.20061
G1 X120.406 Y117.414 E.2006
G1 X118.636 Y120.56 E.2006
G1 X116.286 Y123.3 E.2006
G1 X113.446 Y125.529 E.20063
G1 X110.226 Y127.162 E.20063
G1 X106.75 Y128.135 E.20059
G1 X103.15 Y128.411 E.20064
G1 X99.566 Y127.979 E.20061
G1 X96.135 Y126.857 E.2006
G1 X92.989 Y125.086 E.20062
G1 X90.249 Y122.736 E.2006
G1 X88.02 Y119.897 E.20058
G1 X86.387 Y116.677 E.20063
G1 X85.414 Y113.201 E.20059
G1 X85.138 Y109.601 E.20064
G1 X85.57 Y106.017 E.20061
G1 X86.692 Y102.586 E.2006
G1 X88.463 Y99.44 E.20062
G1 X90.774 Y96.745 E.19729
G1 X91.025 Y96.961 F10200
G1 F1200
G1 X91.032 Y96.952 E.00063
G1 X93.818 Y94.761 E.19696
G1 X96.976 Y93.156 E.19686
G1 X100.342 Y92.205 E.19437
G1 X103.185 Y91.925 E.15875
G1 X104.387 Y91.973 E.06685
G1 X107.446 Y92.344 E.17124
G1 X110.814 Y93.443 E.19687
G1 X113.904 Y95.178 E.19693
G1 X116.597 Y97.483 E.19699
G1 X118.788 Y100.269 E.19696
G1 X120.394 Y103.429 E.19698
G1 X121.352 Y106.842 E.19699
G1 X121.626 Y110.375 E.19692
G1 X121.205 Y113.895 E.197
G1 X120.106 Y117.265 E.19698
G1 X118.371 Y120.355 E.19693
G1 X116.066 Y123.048 E.19699
G1 X113.28 Y125.239 E.19696
G1 X110.12 Y126.845 E.19698
G1 X106.707 Y127.803 E.19699
G1 X103.174 Y128.077 E.19692
G1 X99.654 Y127.656 E.197
G1 X96.284 Y126.557 E.19698
G1 X93.194 Y124.822 E.19693
G1 X90.501 Y122.517 E.19699
G1 X88.31 Y119.731 E.19696
G1 X86.705 Y116.571 E.19696
G1 X85.746 Y113.158 E.19701
G1 X85.472 Y109.625 E.19692
G1 X85.893 Y106.105 E.197
G1 X86.992 Y102.735 E.19698
G1 X88.727 Y99.645 E.19693
G1 X90.986 Y97.006 E.19304
G1 X91.238 Y97.221 F10200
G1 F1200
G1 X91.252 Y97.204 E.00122
G1 X93.985 Y95.051 E.19334
G1 X97.083 Y93.473 E.19321
G1 X100.389 Y92.536 E.19095
G1 X103.206 Y92.258 E.1573
G1 X104.366 Y92.306 E.06452
G1 X107.358 Y92.667 E.16747
G1 X110.665 Y93.742 E.19324
G1 X113.7 Y95.443 E.19334
G1 X116.345 Y97.703 E.19333
G1 X118.498 Y100.436 E.19334
G1 X120.077 Y103.536 E.19333
G1 X121.02 Y106.884 E.19329
G1 X121.292 Y110.353 E.19337
G1 X120.883 Y113.807 E.19328
G1 X119.807 Y117.116 E.19336
G1 X118.106 Y120.151 E.19334
G1 X115.846 Y122.796 E.19333
G1 X113.114 Y124.949 E.1933
G1 X110.013 Y126.527 E.19335
G1 X106.665 Y127.471 E.19331
G1 X103.197 Y127.743 E.19331
G1 X99.742 Y127.333 E.19334
G1 X96.433 Y126.258 E.19334
G1 X93.398 Y124.557 E.19334
G1 X90.754 Y122.297 E.19329
G1 X88.6 Y119.564 E.19338
G1 X87.022 Y116.464 E.1933
G1 X86.078 Y113.116 E.19331
G1 X85.806 Y109.647 E.19337
G1 X86.216 Y106.193 E.19329
G1 X87.292 Y102.884 E.19336
G1 X88.992 Y99.849 E.19331
G1 X91.199 Y97.267 E.18876
G1 X91.451 Y97.482 F10200
G1 F1200
G1 X91.472 Y97.456 E.00186
G1 X94.151 Y95.341 E.18968
G1 X97.19 Y93.79 E.1896
G1 X100.437 Y92.867 E.18759
G1 X103.227 Y92.592 E.15579
G1 X104.345 Y92.64 E.06219
G1 X107.271 Y92.99 E.16376
G1 X110.516 Y94.042 E.18957
G1 X113.496 Y95.708 E.18972
G1 X116.093 Y97.923 E.18968
G1 X118.208 Y100.602 E.18968
G1 X119.76 Y103.643 E.18973
G1 X120.688 Y106.927 E.18964
G1 X120.958 Y110.33 E.1897
G1 X120.56 Y113.72 E.18968
G1 X119.507 Y116.967 E.18969
G1 X117.841 Y119.946 E.18968
G1 X115.626 Y122.544 E.18972
G1 X112.947 Y124.659 E.18968
G1 X109.907 Y126.21 E.18965
G1 X106.622 Y127.139 E.18971
G1 X103.219 Y127.409 E.1897
G1 X99.829 Y127.01 E.18969
G1 X96.582 Y125.958 E.18967
G1 X93.603 Y124.292 E.18968
G1 X91.006 Y122.077 E.18968
G1 X88.89 Y119.398 E.18971
G1 X87.339 Y116.357 E.1897
G1 X86.41 Y113.073 E.18966
G1 X86.14 Y109.67 E.1897
G1 X86.539 Y106.28 E.18969
G1 X87.591 Y103.033 E.18967
G1 X89.257 Y100.054 E.18968
G1 X91.412 Y97.527 E.18456
G1 X91.664 Y97.742 F10200
G1 F1200
G1 X91.692 Y97.708 E.00245
G1 X94.318 Y95.631 E.18606
G1 X97.297 Y94.107 E.18595
G1 X100.485 Y93.198 E.18422
G1 X103.248 Y92.926 E.15428
G1 X104.324 Y92.974 E.05985
G1 X107.184 Y93.313 E.16005
G1 X110.368 Y94.342 E.18595
G1 X113.292 Y95.973 E.18606
G1 X115.841 Y98.143 E.18603
G1 X117.918 Y100.769 E.18606
G1 X119.443 Y103.75 E.18608
G1 X120.357 Y106.971 E.18606
G1 X120.625 Y110.308 E.18604
G1 X120.237 Y113.633 E.18603
G1 X119.207 Y116.819 E.18607
G1 X117.576 Y119.743 E.18606
G1 X115.406 Y122.292 E.18603
G1 X112.78 Y124.369 E.18606
G1 X109.799 Y125.894 E.18608
G1 X106.579 Y126.808 E.18601
G1 X103.241 Y127.076 E.18609
G1 X99.916 Y126.687 E.18603
G1 X96.73 Y125.658 E.18605
G1 X93.807 Y124.027 E.18601
G1 X91.257 Y121.857 E.18607
G1 X89.18 Y119.231 E.18606
G1 X87.656 Y116.25 E.18605
G1 X86.742 Y113.03 E.18601
G1 X86.474 Y109.692 E.18609
G1 X86.862 Y106.367 E.18603
G1 X87.891 Y103.181 E.18605
G1 X89.522 Y100.257 E.18606
G1 X91.625 Y97.788 E.18023
G1 X91.877 Y98.002 F10200
G1 F1200
G1 X91.913 Y97.96 E.00307
G1 X94.485 Y95.921 E.18239
G1 X97.405 Y94.424 E.18235
G1 X100.533 Y93.529 E.1808
G1 X103.268 Y93.259 E.15273
G1 X104.303 Y93.307 E.05758
G1 X107.097 Y93.636 E.15634
G1 X110.22 Y94.642 E.18233
G1 X113.088 Y96.239 E.18242
G1 X115.589 Y98.364 E.18238
G1 X117.628 Y100.936 E.18239
G1 X119.126 Y103.857 E.18242
G1 X120.025 Y107.014 E.18241
G1 X120.291 Y110.286 E.18243
G1 X119.913 Y113.546 E.18237
G1 X118.907 Y116.671 E.18244
G1 X117.311 Y119.539 E.18239
G1 X115.185 Y122.04 E.18241
G1 X112.613 Y124.079 E.18239
G1 X109.692 Y125.577 E.18242
G1 X106.535 Y126.476 E.18241
G1 X103.263 Y126.742 E.18243
G1 X100.003 Y126.364 E.18237
G1 X96.878 Y125.358 E.18244
G1 X94.01 Y123.761 E.18242
G1 X91.509 Y121.636 E.18238
G1 X89.47 Y119.064 E.18239
G1 X87.972 Y116.143 E.18242
G1 X87.073 Y112.986 E.18241
G1 X86.807 Y109.714 E.18243
G1 X87.185 Y106.454 E.18237
G1 X88.191 Y103.329 E.18244
G1 X89.788 Y100.461 E.18242
G1 X91.838 Y98.048 E.17595
G1 X92.091 Y98.262 F10200
G1 F1200
G1 X92.134 Y98.211 E.00371
G1 X94.653 Y96.211 E.17874
G1 X97.513 Y94.74 E.17872
G1 X100.581 Y93.86 E.17737
G1 X103.289 Y93.593 E.15122
G1 X104.281 Y93.641 E.05519
G1 X107.01 Y93.959 E.15268
G1 X110.072 Y94.942 E.17871
G1 X112.884 Y96.504 E.17876
G1 X115.338 Y98.585 E.1788
G1 X117.339 Y101.104 E.17877
G1 X118.809 Y103.965 E.17875
G1 X119.693 Y107.058 E.17876
G1 X119.957 Y110.264 E.17876
G1 X119.59 Y113.46 E.17877
G1 X118.607 Y116.523 E.17876
G1 X117.045 Y119.335 E.17876
G1 X114.964 Y121.789 E.1788
G1 X112.445 Y123.789 E.17874
G1 X109.584 Y125.26 E.17877
G1 X106.491 Y126.144 E.17876
G1 X103.285 Y126.408 E.17876
G1 X100.089 Y126.041 E.17877
G1 X97.026 Y125.058 E.17876
G1 X94.214 Y123.496 E.17876
G1 X91.76 Y121.415 E.1788
G1 X89.76 Y118.896 E.17874
G1 X88.289 Y116.035 E.17877
G1 X87.405 Y112.942 E.17876
G1 X87.141 Y109.736 E.17876
G1 X87.508 Y106.54 E.17877
G1 X88.491 Y103.477 E.17876
G1 X90.053 Y100.665 E.17876
G1 X92.052 Y98.308 E.17174
G1 X92.305 Y98.521 F10200
G1 F1200
G1 X92.355 Y98.462 E.0043
G1 X94.821 Y96.5 E.17512
G1 X97.621 Y95.057 E.17505
G1 X100.629 Y94.191 E.17395
G1 X103.309 Y93.927 E.14965
G1 X106.924 Y94.283 E.20186
G1 X109.925 Y95.243 E.17509
G1 X112.681 Y96.77 E.17509
G1 X115.087 Y98.806 E.17515
G1 X117.049 Y101.272 E.17512
G1 X118.492 Y104.073 E.1751
G1 X119.362 Y107.102 E.17513
G1 X119.623 Y110.243 E.17515
G1 X119.267 Y113.374 E.17511
G1 X118.307 Y116.376 E.17515
G1 X116.779 Y119.132 E.17512
G1 X114.743 Y121.538 E.17515
G1 X112.277 Y123.5 E.17512
G1 X109.476 Y124.943 E.1751
G1 X106.447 Y125.813 E.17513
G1 X103.306 Y126.074 E.17515
G1 X100.175 Y125.718 E.17511
G1 X97.174 Y124.758 E.17509
G1 X94.417 Y123.23 E.17517
G1 X92.011 Y121.194 E.17515
G1 X90.049 Y118.728 E.17512
G1 X88.606 Y115.927 E.1751
G1 X87.737 Y112.898 E.17511
G1 X87.475 Y109.757 E.17515
G1 X87.831 Y106.626 E.17511
G1 X88.792 Y103.624 E.17516
G1 X90.319 Y100.868 E.17509
G1 X92.266 Y98.567 E.1675
G1 X92.519 Y98.781 F10200
G1 F1200
G1 X92.576 Y98.713 E.00493
G1 X94.989 Y96.789 E.1715
G1 X97.73 Y95.373 E.17144
G1 X100.677 Y94.522 E.17046
G1 X103.329 Y94.261 E.14809
G1 X104.236 Y94.307 E.05047
G1 X106.838 Y94.606 E.14555
G1 X109.778 Y95.543 E.17148
G1 X112.478 Y97.036 E.17145
G1 X114.836 Y99.027 E.1715
G1 X116.76 Y101.44 E.1715
G1 X118.176 Y104.182 E.17149
G1 X119.03 Y107.147 E.17147
G1 X119.289 Y110.222 E.17149
G1 X118.943 Y113.288 E.17146
G1 X118.006 Y116.228 E.17148
G1 X116.513 Y118.929 E.1715
G1 X114.522 Y121.287 E.1715
G1 X112.109 Y123.211 E.1715
G1 X109.368 Y124.627 E.17144
G1 X106.402 Y125.481 E.17152
G1 X103.327 Y125.74 E.17149
G1 X100.261 Y125.394 E.17146
G1 X97.321 Y124.457 E.17148
G1 X94.62 Y122.964 E.1715
G1 X92.262 Y120.973 E.1715
G1 X90.338 Y118.56 E.1715
G1 X88.922 Y115.819 E.17144
G1 X88.068 Y112.853 E.17152
G1 X87.809 Y109.778 E.17149
G1 X88.155 Y106.712 E.17146
G1 X89.092 Y103.772 E.17148
G1 X90.585 Y101.071 E.1715
G1 X92.48 Y98.827 E.16322
G1 X92.733 Y99.04 F10200
G1 F1200
G1 X92.798 Y98.964 E.00556
G1 X95.157 Y97.078 E.16784
G1 X97.839 Y95.69 E.16782
G1 X100.725 Y94.853 E.16699
G1 X103.349 Y94.595 E.14652
G1 X106.753 Y94.929 E.19007
G1 X109.631 Y95.844 E.16782
G1 X112.276 Y97.302 E.16784
G1 X114.585 Y99.249 E.16784
G1 X116.471 Y101.608 E.16784
G1 X117.86 Y104.29 E.16784
G1 X118.699 Y107.192 E.16787
G1 X118.955 Y110.201 E.16782
G1 X118.62 Y113.203 E.16786
G1 X117.706 Y116.082 E.16786
G1 X116.247 Y118.727 E.16786
G1 X114.301 Y121.036 E.16781
G1 X111.941 Y122.922 E.16788
G1 X109.259 Y124.31 E.16782
G1 X106.357 Y125.149 E.16787
G1 X103.348 Y125.406 E.16782
G1 X100.346 Y125.071 E.16786
G1 X97.467 Y124.156 E.16787
G1 X94.823 Y122.698 E.16779
G1 X92.513 Y120.752 E.16785
G1 X90.628 Y118.392 E.16785
G1 X89.239 Y115.71 E.16784
G1 X88.4 Y112.808 E.16787
G1 X88.143 Y109.799 E.16782
G1 X88.478 Y106.797 E.16786
G1 X89.393 Y103.918 E.16787
G1 X90.851 Y101.273 E.16784
G1 X92.695 Y99.086 E.15897
G1 X92.948 Y99.299 F10200
G1 F1200
G1 X93.019 Y99.214 E.00615
G1 X95.326 Y97.367 E.16423
G1 X97.948 Y96.006 E.16417
G1 X100.773 Y95.184 E.1635
G1 X103.369 Y94.928 E.14496
G1 X104.19 Y94.974 E.0457
G1 X106.668 Y95.253 E.13857
G1 X109.484 Y96.144 E.16413
G1 X112.073 Y97.568 E.1642
G1 X114.335 Y99.47 E.16423
G1 X116.182 Y101.777 E.16423
G1 X117.543 Y104.399 E.16417
G1 X118.367 Y107.237 E.16422
G1 X118.621 Y110.181 E.16421
G1 X118.296 Y113.118 E.16421
G1 X117.405 Y115.935 E.16419
G1 X115.981 Y118.524 E.1642
G1 X114.079 Y120.786 E.16423
G1 X111.772 Y122.633 E.16423
G1 X109.15 Y123.994 E.16417
G1 X106.312 Y124.818 E.16422
G1 X103.368 Y125.072 E.16421
G1 X100.431 Y124.747 E.16421
G1 X97.614 Y123.856 E.16419
G1 X95.025 Y122.432 E.1642
G1 X92.763 Y120.53 E.16423
G1 X90.916 Y118.223 E.16423
G1 X89.555 Y115.601 E.16417
G1 X88.731 Y112.763 E.16422
G1 X88.477 Y109.819 E.16421
G1 X88.802 Y106.882 E.16421
G1 X89.693 Y104.065 E.16419
G1 X91.118 Y101.476 E.16423
G1 X92.91 Y99.345 E.15473
G1 X93.163 Y99.558 F10200
G1 F1200
G1 X93.242 Y99.465 E.00678
G1 X95.495 Y97.656 E.16057
G1 X98.058 Y96.322 E.16057
G1 X100.821 Y95.515 E.15996
G1 X103.389 Y95.262 E.1434
G1 X106.583 Y95.577 E.17835
G1 X109.338 Y96.445 E.16052
G1 X111.871 Y97.835 E.16056
G1 X114.085 Y99.692 E.16058
G1 X115.893 Y101.946 E.16057
G1 X117.227 Y104.509 E.16057
G1 X118.036 Y107.283 E.16058
G1 X118.287 Y110.161 E.16054
G1 X117.973 Y113.033 E.16055
G1 X117.104 Y115.789 E.16059
G1 X115.714 Y118.322 E.16056
G1 X113.857 Y120.535 E.16054
G1 X111.603 Y122.344 E.16061
G1 X109.04 Y123.678 E.16057
G1 X106.266 Y124.487 E.16058
G1 X103.388 Y124.738 E.16054
G1 X100.516 Y124.424 E.16055
G1 X97.76 Y123.555 E.16059
G1 X95.227 Y122.165 E.16056
G1 X93.014 Y120.308 E.16054
G1 X91.205 Y118.054 E.16061
G1 X89.871 Y115.491 E.16057
G1 X89.063 Y112.717 E.16056
G1 X88.811 Y109.839 E.16054
G1 X89.125 Y106.967 E.16055
G1 X89.994 Y104.211 E.16059
G1 X91.384 Y101.678 E.16056
G1 X93.125 Y99.604 E.15048
G1 X93.379 Y99.816 F10200
G1 F1200
G1 X93.464 Y99.715 E.00734
G1 X95.664 Y97.945 E.15691
G1 X98.168 Y96.638 E.15696
G1 X100.87 Y95.846 E.15647
G1 X103.408 Y95.596 E.14172
G1 X104.142 Y95.641 E.04087
G1 X106.499 Y95.9 E.13177
G1 X109.192 Y96.746 E.15686
G1 X111.669 Y98.102 E.15693
G1 X113.835 Y99.915 E.15697
G1 X115.605 Y102.115 E.15691
G1 X116.911 Y104.619 E.15694
G1 X117.704 Y107.329 E.15691
G1 X117.953 Y110.142 E.15693
G1 X117.649 Y112.949 E.1569
G1 X116.803 Y115.643 E.15692
G1 X115.447 Y118.12 E.15693
G1 X113.634 Y120.286 E.15697
G1 X111.434 Y122.055 E.15688
G1 X108.931 Y123.362 E.15692
G1 X106.22 Y124.155 E.15697
G1 X103.408 Y124.404 E.15688
G1 X100.6 Y124.1 E.15695
G1 X97.906 Y123.254 E.15692
G1 X95.429 Y121.898 E.15693
G1 X93.264 Y120.085 E.15692
G1 X91.494 Y117.885 E.15691
G1 X90.187 Y115.381 E.15696
G1 X89.394 Y112.671 E.15691
G1 X89.145 Y109.858 E.15693
G1 X89.449 Y107.051 E.1569
G1 X90.295 Y104.357 E.15692
G1 X91.651 Y101.88 E.15693
G1 X93.34 Y99.862 E.14624
G1 X93.594 Y100.075 F10200
G1 F1200
G1 X93.687 Y99.964 E.00805
G1 X95.834 Y98.233 E.15326
G1 X98.278 Y96.954 E.15329
G1 X100.918 Y96.177 E.15293
G1 X103.427 Y95.93 E.1401
G1 X106.415 Y96.224 E.16685
G1 X109.047 Y97.048 E.15326
G1 X111.468 Y98.369 E.15326
G1 X113.585 Y100.137 E.15327
G1 X115.316 Y102.285 E.1533
G1 X116.595 Y104.729 E.15329
G1 X117.373 Y107.375 E.15326
G1 X117.619 Y110.122 E.15326
G1 X117.325 Y112.865 E.1533
G1 X116.502 Y115.498 E.1533
G1 X115.18 Y117.919 E.15329
G1 X113.412 Y120.036 E.15327
G1 X111.264 Y121.767 E.1533
G1 X108.82 Y123.046 E.15329
G1 X106.174 Y123.824 E.15326
G1 X103.427 Y124.07 E.15326
G1 X100.684 Y123.776 E.1533
G1 X98.052 Y122.952 E.15326
G1 X95.63 Y121.631 E.15331
G1 X93.513 Y119.863 E.15327
G1 X91.782 Y117.715 E.1533
G1 X90.503 Y115.271 E.15329
G1 X89.725 Y112.625 E.15326
G1 X89.479 Y109.878 E.15326
G1 X89.773 Y107.135 E.1533
G1 X90.597 Y104.502 E.15332
G1 X91.918 Y102.081 E.15326
G1 X93.556 Y100.121 E.14195
G1 X93.81 Y100.333 F10200
G1 F1200
G1 X93.909 Y100.214 E.0086
G1 X96.004 Y98.521 E.14968
G1 X98.388 Y97.27 E.14961
G1 X100.967 Y96.508 E.14944
G1 X103.446 Y96.264 E.13843
G1 X104.091 Y96.307 E.03592
G1 X106.331 Y96.548 E.1252
G1 X108.902 Y97.349 E.14965
G1 X111.267 Y98.636 E.14963
G1 X113.335 Y100.36 E.14962
G1 X115.028 Y102.455 E.14968
G1 X116.279 Y104.839 E.14961
G1 X117.042 Y107.422 E.14967
G1 X117.285 Y110.104 E.14965
G1 X117.001 Y112.782 E.14965
G1 X116.2 Y115.352 E.14959
G1 X114.913 Y117.718 E.14967
G1 X113.189 Y119.786 E.14962
G1 X111.094 Y121.479 E.14968
G1 X108.71 Y122.73 E.14961
G1 X106.127 Y123.493 E.14967
G1 X103.445 Y123.736 E.14965
G1 X100.768 Y123.452 E.1496
G1 X98.197 Y122.651 E.14965
G1 X95.831 Y121.364 E.14967
G1 X93.763 Y119.64 E.14962
G1 X92.07 Y117.545 E.14968
G1 X90.819 Y115.161 E.14961
G1 X90.057 Y112.578 E.14966
G1 X89.813 Y109.896 E.14966
